;FLAVOR:Marlin
;TIME:6074
;Filament used: 3.18822m
;Layer height: 0.2
;MINX:52.818
;MINY:66.024
;MINZ:0.2
;MAXX:141.925
;MAXY:172.842
;MAXZ:22.6
;Generated with Creality Slicer 4.8.2-218
M140 S60
M105
M190 S60
M104 S200
M105
M109 S200
M82 ;absolute extrusion mode

G28 ;Home

G92 E0 ;Reset Extruder
G1 Z2.0 F3000 ;Move Z Axis up
G1 X10.1 Y20 Z0.28 F5000.0 ;Move to start position
G1 X10.1 Y200.0 Z0.28 F1500.0 E15 ;Draw the first line
G1 X10.4 Y200.0 Z0.28 F5000.0 ;Move to side a little
G1 X10.4 Y20 Z0.28 F1500.0 E30 ;Draw the second line
G92 E0 ;Reset Extruder
G1 Z2.0 F3000 ;Move Z Axis up

G92 E0
G92 E0
G1 F2400 E-0.8
;LAYER_COUNT:113
;LAYER:0
M107
M204 S2000
G0 F7500 X66.662 Y87.239 Z0.2
M204 S500
;TYPE:SKIRT
G1 F2400 E0
G1 F1500 X67.162 Y86.868 E0.02071
G1 X68.122 Y86.196 E0.05968
G1 X70.269 Y84.647 E0.14774
G1 X72.278 Y83.112 E0.23183
G1 X74.203 Y81.548 E0.31432
G1 X76.121 Y79.901 E0.39841
G1 X77.993 Y78.198 E0.48258
G1 X79.785 Y76.474 E0.56529
G1 X81.562 Y74.664 E0.64965
G1 X83.69 Y72.356 E0.75407
G1 X84.093 Y71.904 E0.77421
G1 X84.747 Y71.231 E0.80542
G1 X85.455 Y70.617 E0.83659
G1 X85.69 Y70.43 E0.84658
G1 X86.448 Y69.877 E0.87779
G1 X87.25 Y69.392 E0.90896
G1 X88.423 Y68.836 E0.95213
G1 X88.651 Y68.744 E0.96031
G1 X89.535 Y68.431 E0.9915
G1 X90.147 Y68.261 E1.01263
G1 X90.499 Y68.18 E1.02464
G1 X91.18 Y68.033 E1.04781
G1 X93.717 Y67.449 E1.1344
G1 X96.895 Y66.609 E1.24373
G1 X97.033 Y66.57 E1.2485
G1 X98.005 Y66.34 E1.28172
G1 X98.518 Y66.243 E1.29909
G1 X99.043 Y66.156 E1.31679
G1 X99.208 Y66.133 E1.32233
G1 X100.552 Y66.029 E1.36716
G1 X100.803 Y66.025 E1.37551
G1 X101.059 Y66.024 E1.38403
G1 X101.331 Y66.026 E1.39307
G1 X102.268 Y66.073 E1.42428
G1 X102.952 Y66.159 E1.44721
G1 X103.418 Y66.232 E1.4629
G1 X103.836 Y66.305 E1.47701
G1 X104.469 Y66.443 E1.49856
G1 X104.938 Y66.562 E1.51465
G1 X106.873 Y67.072 E1.58121
G1 X109.346 Y67.65 E1.66567
G1 X111.303 Y68.046 E1.73208
G1 X111.884 Y68.171 E1.75185
G1 X112.791 Y68.407 E1.78302
G1 X113.676 Y68.72 E1.81424
G1 X114.53 Y69.107 E1.84543
G1 X115.343 Y69.562 E1.87642
G1 X115.572 Y69.703 E1.88536
G1 X117.813 Y71.04 E1.97215
G1 X120.019 Y72.272 E2.05619
G1 X122.222 Y73.423 E2.13886
G1 X124.529 Y74.545 E2.22419
G1 X126.793 Y75.568 E2.30682
G1 X129.134 Y76.549 E2.39124
G1 X131.468 Y77.448 E2.47443
G1 X133.314 Y78.102 E2.53957
G1 X133.701 Y78.245 E2.55329
G1 X134.566 Y78.607 E2.58448
G1 X135.397 Y79.042 E2.61567
G1 X136.188 Y79.546 E2.64687
G1 X136.933 Y80.115 E2.67805
G1 X137.627 Y80.746 E2.70925
G1 X138.265 Y81.434 E2.74045
G1 X138.842 Y82.173 E2.77164
G1 X139.353 Y82.959 E2.80282
G1 X139.796 Y83.786 E2.83402
G1 X140.167 Y84.647 E2.8652
G1 X140.464 Y85.537 E2.89641
G1 X140.683 Y86.449 E2.92761
G1 X140.824 Y87.376 E2.95879
G1 X140.885 Y88.301 E2.98963
G1 X140.894 Y88.679 E3.0022
G1 X140.897 Y88.949 E3.01118
G1 X140.889 Y98.267 E3.3211
G1 X140.878 Y98.979 E3.34478
G1 X140.823 Y99.915 E3.37597
G1 X140.693 Y100.826 E3.40658
G1 X140.527 Y101.716 E3.43669
G1 X140.105 Y104.168 E3.51944
G1 X139.74 Y106.722 E3.60525
G1 X139.46 Y109.168 E3.68714
G1 X139.242 Y111.709 E3.77196
G1 X139.097 Y114.228 E3.85588
G1 X139.025 Y116.715 E3.93863
G1 X139.023 Y119.239 E4.02258
G1 X139.093 Y121.761 E4.1065
G1 X139.234 Y124.293 E4.19084
G1 X139.442 Y126.764 E4.27332
G1 X139.728 Y129.299 E4.35817
G1 X140.085 Y131.814 E4.44266
G1 X140.312 Y133.196 E4.48924
G1 X140.521 Y134.411 E4.53024
G1 X140.64 Y135.341 E4.56143
G1 X140.675 Y135.939 E4.58135
G1 X140.685 Y136.255 E4.59187
G1 X140.797 Y138.856 E4.67846
G1 X140.98 Y141.393 E4.76306
G1 X141.226 Y143.85 E4.84518
G1 X141.55 Y146.364 E4.92949
G1 X141.644 Y146.969 E4.94986
G1 X141.803 Y148.074 E4.98699
G1 X141.91 Y149.309 E5.02822
G1 X141.92 Y149.64 E5.03923
G1 X141.925 Y149.972 E5.05027
G1 X141.924 Y161.242 E5.42512
G1 X141.915 Y161.969 E5.4493
G1 X141.864 Y162.906 E5.48051
G1 X141.732 Y163.834 E5.51169
G1 X141.523 Y164.748 E5.54287
G1 X141.236 Y165.641 E5.57407
G1 X140.874 Y166.507 E5.60529
G1 X140.44 Y167.338 E5.63647
G1 X139.936 Y168.129 E5.66766
G1 X139.367 Y168.874 E5.69884
G1 X138.736 Y169.569 E5.73006
G1 X138.049 Y170.207 E5.76125
G1 X137.31 Y170.784 E5.79243
G1 X136.524 Y171.296 E5.82363
G1 X135.698 Y171.739 E5.85481
G1 X134.836 Y172.111 E5.88603
G1 X133.947 Y172.407 E5.9172
G1 X133.035 Y172.627 E5.9484
G1 X132.108 Y172.768 E5.97959
G1 X131.224 Y172.829 E6.00906
G1 X130.903 Y172.838 E6.01974
G1 X130.595 Y172.842 E6.02998
G1 X105.474 Y172.841 E6.86551
G1 X104.777 Y172.831 E6.8887
G1 X104.171 Y172.805 E6.90887
G1 X103.688 Y172.771 E6.92497
G1 X101.568 Y172.591 E6.99574
G1 X99.056 Y172.45 E7.07942
G1 X96.535 Y172.379 E7.1633
G1 X93.969 Y172.381 E7.24865
G1 X92.687 Y172.409 E7.2913
G1 X91.175 Y172.453 E7.34161
G1 X90.853 Y172.458 E7.35232
G1 X67.233 Y172.457 E8.13792
G1 X66.535 Y172.447 E8.16114
G1 X65.599 Y172.393 E8.19232
G1 X64.671 Y172.261 E8.2235
G1 X63.757 Y172.049 E8.25471
G1 X62.865 Y171.76 E8.28589
G1 X62 Y171.397 E8.31709
G1 X61.17 Y170.961 E8.34828
G1 X60.379 Y170.456 E8.37949
G1 X59.635 Y169.885 E8.41068
G1 X58.942 Y169.253 E8.44188
G1 X58.305 Y168.565 E8.47306
G1 X57.73 Y167.824 E8.50426
G1 X57.219 Y167.038 E8.53544
G1 X56.777 Y166.21 E8.56666
G1 X56.408 Y165.348 E8.59785
G1 X56.113 Y164.458 E8.62903
G1 X55.895 Y163.546 E8.66022
G1 X55.755 Y162.618 E8.69143
G1 X55.697 Y161.746 E8.7205
G1 X55.688 Y161.414 E8.73155
G1 X55.684 Y161.116 E8.74146
G1 X55.685 Y157.995 E8.84526
G1 X55.696 Y157.285 E8.86888
G1 X55.751 Y156.348 E8.9001
G1 X55.822 Y155.787 E8.91891
G1 X55.878 Y155.435 E8.93076
G1 X56.279 Y153.093 E9.00979
G1 X56.631 Y150.607 E9.0933
G1 X56.917 Y148.095 E9.17739
G1 X57.127 Y145.603 E9.26057
G1 X57.269 Y143.073 E9.34485
G1 X57.34 Y140.552 E9.42873
G1 X57.338 Y138.027 E9.51271
G1 X57.267 Y135.539 E9.5955
G1 X57.123 Y133.02 E9.67942
G1 X56.907 Y130.496 E9.76367
G1 X56.623 Y128.003 E9.84713
G1 X56.269 Y125.525 E9.93038
G1 X55.839 Y123.02 E10.01492
G1 X55.351 Y120.593 E10.09725
G1 X54.783 Y118.122 E10.18158
G1 X54.151 Y115.701 E10.2648
G1 X53.815 Y114.565 E10.30421
G1 X53.768 Y114.377 E10.31065
G1 X53.368 Y112.983 E10.35889
G1 X53.246 Y112.517 E10.37491
G1 X53.186 Y112.267 E10.38346
G1 X52.998 Y111.291 E10.41652
G1 X52.942 Y110.908 E10.42939
G1 X52.828 Y109.508 E10.47611
G1 X52.818 Y108.933 E10.49524
G1 X52.867 Y107.679 E10.53698
G1 X52.877 Y107.576 E10.54042
G1 X52.935 Y107.097 E10.55647
G1 X52.966 Y106.878 E10.56382
G1 X53.163 Y105.845 E10.5988
G1 X53.267 Y105.413 E10.61358
G1 X53.664 Y104.119 E10.6586
G1 X53.853 Y103.616 E10.67647
G1 X54.352 Y102.486 E10.71756
G1 X54.402 Y102.388 E10.72122
G1 X54.672 Y101.89 E10.74006
G1 X54.792 Y101.682 E10.74804
G1 X55.33 Y100.841 E10.78125
G1 X55.612 Y100.441 E10.79753
G1 X55.988 Y99.938 E10.81841
G1 X56.442 Y99.398 E10.84188
G1 X56.603 Y99.219 E10.84989
G1 X58.316 Y97.248 E10.93674
G1 X59.914 Y95.302 E11.02049
G1 X61.435 Y93.339 E11.10309
G1 X63.409 Y90.607 E11.21519
G1 X63.695 Y90.228 E11.23098
G1 X64.129 Y89.679 E11.25426
G1 X64.803 Y88.904 E11.28842
G1 X64.888 Y88.815 E11.29251
G1 X65.253 Y88.45 E11.30968
G1 X65.488 Y88.226 E11.32048
G1 X66.271 Y87.547 E11.35495
G1 X66.662 Y87.239 E11.37151
M204 S2000
G0 F7500 X66.91 Y87.553
M204 S500
G1 F1500 X67.391 Y87.195 E11.39145
G1 X68.426 Y86.471 E11.43346
G1 X70.494 Y84.979 E11.51827
G1 X72.528 Y83.425 E11.60341
G1 X74.47 Y81.847 E11.68664
G1 X76.368 Y80.218 E11.76983
G1 X78.257 Y78.499 E11.85478
G1 X80.083 Y76.742 E11.93906
G1 X81.843 Y74.949 E12.02262
G1 X84 Y72.609 E12.12847
G1 X84.392 Y72.17 E12.14805
G1 X85.034 Y71.51 E12.17867
G1 X85.704 Y70.93 E12.20815
G1 X85.939 Y70.743 E12.21814
G1 X86.683 Y70.201 E12.24875
G1 X87.472 Y69.726 E12.27938
G1 X88.573 Y69.207 E12.31987
G1 X88.801 Y69.115 E12.32804
G1 X89.668 Y68.808 E12.35863
G1 X90.244 Y68.649 E12.37851
G1 X90.583 Y68.571 E12.39008
G1 X91.29 Y68.419 E12.41413
G1 X93.782 Y67.845 E12.49918
G1 X96.996 Y66.996 E12.60975
G1 X97.142 Y66.954 E12.6148
G1 X98.08 Y66.733 E12.64685
G1 X98.593 Y66.636 E12.66422
G1 X99.099 Y66.553 E12.68127
G1 X99.264 Y66.53 E12.68682
G1 X100.558 Y66.429 E12.72998
G1 X100.809 Y66.425 E12.73833
G1 X101.056 Y66.424 E12.74655
G1 X101.328 Y66.426 E12.7556
G1 X102.247 Y66.473 E12.7862
G1 X102.891 Y66.554 E12.80779
G1 X103.357 Y66.627 E12.82348
G1 X103.762 Y66.698 E12.83715
G1 X104.372 Y66.831 E12.85792
G1 X104.836 Y66.948 E12.87384
G1 X106.818 Y67.471 E12.94201
G1 X109.242 Y68.036 E13.0248
G1 X111.219 Y68.437 E13.09189
G1 X111.8 Y68.562 E13.11166
G1 X112.69 Y68.795 E13.14226
G1 X113.558 Y69.104 E13.1729
G1 X114.395 Y69.487 E13.20352
G1 X115.133 Y69.902 E13.23168
G1 X115.413 Y70.075 E13.24262
G1 X117.592 Y71.375 E13.32702
G1 X119.818 Y72.617 E13.4118
G1 X122.068 Y73.793 E13.49624
G1 X124.325 Y74.891 E13.57972
G1 X126.653 Y75.944 E13.6647
G1 X128.985 Y76.92 E13.74878
G1 X131.327 Y77.822 E13.83226
G1 X133.175 Y78.477 E13.89747
G1 X133.562 Y78.62 E13.91119
G1 X134.411 Y78.976 E13.94181
G1 X135.226 Y79.405 E13.97244
G1 X136 Y79.903 E14.00305
G1 X136.729 Y80.466 E14.03369
G1 X137.405 Y81.09 E14.06429
G1 X138.026 Y81.77 E14.09492
G1 X138.584 Y82.502 E14.12553
G1 X139.077 Y83.28 E14.15616
G1 X139.501 Y84.097 E14.18678
G1 X139.852 Y84.948 E14.2174
G1 X140.129 Y85.826 E14.24802
G1 X140.327 Y86.725 E14.27864
G1 X140.448 Y87.638 E14.30927
G1 X140.485 Y88.311 E14.33169
G1 X140.494 Y88.689 E14.34426
G1 X140.497 Y88.949 E14.35291
G1 X140.489 Y98.261 E14.66263
G1 X140.478 Y98.973 E14.68631
G1 X140.424 Y99.892 E14.71693
G1 X140.299 Y100.753 E14.74587
G1 X140.146 Y101.571 E14.77355
G1 X139.709 Y104.11 E14.85924
G1 X139.345 Y106.661 E14.94494
G1 X139.059 Y109.156 E15.02847
G1 X138.844 Y111.653 E15.11183
G1 X138.699 Y114.193 E15.19645
G1 X138.625 Y116.738 E15.28113
G1 X138.623 Y119.25 E15.36468
G1 X138.693 Y121.795 E15.44936
G1 X138.832 Y124.278 E15.53207
G1 X139.048 Y126.841 E15.61762
G1 X139.328 Y129.329 E15.70089
G1 X139.692 Y131.891 E15.78696
G1 X139.918 Y133.264 E15.83324
G1 X140.127 Y134.479 E15.87425
G1 X140.243 Y135.392 E15.90486
G1 X140.275 Y135.952 E15.92351
G1 X140.285 Y136.285 E15.93459
G1 X140.397 Y138.866 E16.02052
G1 X140.581 Y141.422 E16.10575
G1 X140.83 Y143.908 E16.18885
G1 X141.155 Y146.43 E16.27343
G1 X141.248 Y147.026 E16.29349
G1 X141.407 Y148.131 E16.33062
G1 X141.51 Y149.321 E16.37035
G1 X141.52 Y149.652 E16.38136
G1 X141.525 Y149.972 E16.39201
G1 X141.524 Y161.237 E16.76668
G1 X141.515 Y161.964 E16.79086
G1 X141.464 Y162.883 E16.82148
G1 X141.333 Y163.795 E16.85212
G1 X141.123 Y164.691 E16.88273
G1 X140.837 Y165.566 E16.91335
G1 X140.476 Y166.413 E16.94397
G1 X140.042 Y167.225 E16.97459
G1 X139.54 Y167.997 E17.00522
G1 X138.972 Y168.722 E17.03585
G1 X138.344 Y169.395 E17.06647
G1 X137.66 Y170.011 E17.09709
G1 X136.925 Y170.565 E17.1277
G1 X136.145 Y171.054 E17.15832
G1 X135.325 Y171.473 E17.18895
G1 X134.472 Y171.819 E17.21956
G1 X133.592 Y172.09 E17.25019
G1 X132.692 Y172.283 E17.2808
G1 X131.778 Y172.398 E17.31144
G1 X131.213 Y172.429 E17.33026
G1 X130.892 Y172.438 E17.34094
G1 X130.595 Y172.442 E17.35082
G1 X105.48 Y172.441 E18.18615
G1 X104.783 Y172.431 E18.20933
G1 X104.199 Y172.406 E18.22878
G1 X103.722 Y172.372 E18.24468
G1 X101.591 Y172.191 E18.31581
G1 X99.089 Y172.05 E18.39916
G1 X96.546 Y171.979 E18.48378
G1 X94.008 Y171.981 E18.56819
G1 X92.619 Y172.01 E18.6144
G1 X91.163 Y172.053 E18.66285
G1 X90.853 Y172.058 E18.67316
G1 X67.239 Y172.057 E19.45856
G1 X66.541 Y172.047 E19.48178
G1 X65.622 Y171.994 E19.5124
G1 X64.711 Y171.861 E19.54302
G1 X63.815 Y171.65 E19.57364
G1 X62.941 Y171.362 E19.60424
G1 X62.094 Y170.999 E19.63489
G1 X61.283 Y170.564 E19.6655
G1 X60.513 Y170.06 E19.69611
G1 X59.789 Y169.491 E19.72674
G1 X59.117 Y168.861 E19.75737
G1 X58.502 Y168.176 E19.78799
G1 X57.949 Y167.44 E19.81861
G1 X57.462 Y166.659 E19.84922
G1 X57.045 Y165.838 E19.87985
G1 X56.7 Y164.984 E19.91049
G1 X56.431 Y164.104 E19.94109
G1 X56.239 Y163.203 E19.97173
G1 X56.126 Y162.29 E20.00233
G1 X56.097 Y161.735 E20.02081
G1 X56.088 Y161.403 E20.03186
G1 X56.084 Y161.116 E20.04141
G1 X56.085 Y158.001 E20.14501
G1 X56.096 Y157.291 E20.16863
G1 X56.15 Y156.372 E20.19925
G1 X56.218 Y155.848 E20.21682
G1 X56.272 Y155.503 E20.22844
G1 X56.675 Y153.151 E20.30781
G1 X57.031 Y150.637 E20.39226
G1 X57.315 Y148.138 E20.47591
G1 X57.527 Y145.626 E20.55975
G1 X57.669 Y143.106 E20.6437
G1 X57.74 Y140.563 E20.72832
G1 X57.738 Y138.051 E20.81187
G1 X57.665 Y135.504 E20.89661
G1 X57.52 Y132.964 E20.98123
G1 X57.308 Y130.484 E21.06402
G1 X57.018 Y127.937 E21.14928
G1 X56.666 Y125.472 E21.2321
G1 X56.232 Y122.945 E21.31738
G1 X55.74 Y120.496 E21.40046
G1 X55.174 Y118.037 E21.48438
G1 X54.532 Y115.576 E21.56898
G1 X54.199 Y114.451 E21.608
G1 X54.154 Y114.271 E21.61417
G1 X53.753 Y112.873 E21.66254
G1 X53.635 Y112.424 E21.67798
G1 X53.575 Y112.174 E21.68653
G1 X53.394 Y111.234 E21.71837
G1 X53.338 Y110.851 E21.73125
G1 X53.228 Y109.501 E21.7763
G1 X53.218 Y108.926 E21.79542
G1 X53.266 Y107.718 E21.83563
G1 X53.276 Y107.615 E21.83908
G1 X53.331 Y107.153 E21.85455
G1 X53.362 Y106.934 E21.86191
G1 X53.551 Y105.939 E21.89559
G1 X53.655 Y105.507 E21.91037
G1 X54.038 Y104.26 E21.95376
G1 X54.227 Y103.757 E21.97163
G1 X54.708 Y102.668 E22.01123
G1 X54.758 Y102.57 E22.01489
G1 X55.018 Y102.09 E22.03304
G1 X55.138 Y101.882 E22.04103
G1 X55.657 Y101.071 E22.07305
G1 X55.939 Y100.671 E22.08933
G1 X56.302 Y100.186 E22.10948
G1 X56.74 Y99.665 E22.13212
G1 X56.917 Y99.467 E22.14095
G1 X58.611 Y97.519 E22.22682
G1 X60.223 Y95.556 E22.3113
G1 X61.752 Y93.583 E22.39432
G1 X63.733 Y90.841 E22.50683
G1 X64.009 Y90.476 E22.52205
G1 X64.443 Y89.927 E22.54533
G1 X65.092 Y89.18 E22.57824
G1 X65.177 Y89.091 E22.58233
G1 X65.529 Y88.739 E22.59889
G1 X65.764 Y88.515 E22.60969
G1 X66.519 Y87.861 E22.64291
G1 X66.91 Y87.553 E22.65946
M204 S2000
G0 F7500 X67.157 Y87.867
M204 S500
G1 F1500 X67.621 Y87.523 E22.67868
G1 X68.604 Y86.835 E22.71858
G1 X70.749 Y85.288 E22.80654
G1 X72.757 Y83.754 E22.89059
G1 X74.72 Y82.159 E22.97471
G1 X76.669 Y80.485 E23.06017
G1 X78.521 Y78.801 E23.14342
G1 X80.363 Y77.028 E23.22846
G1 X82.125 Y75.234 E23.31209
G1 X84.311 Y72.863 E23.41935
G1 X84.691 Y72.436 E23.43837
G1 X85.321 Y71.789 E23.4684
G1 X85.953 Y71.243 E23.49618
G1 X86.188 Y71.056 E23.50617
G1 X86.919 Y70.525 E23.53622
G1 X87.694 Y70.061 E23.56626
G1 X88.722 Y69.578 E23.60404
G1 X88.95 Y69.486 E23.61222
G1 X89.802 Y69.185 E23.64227
G1 X90.341 Y69.038 E23.66085
G1 X90.667 Y68.962 E23.67199
G1 X91.333 Y68.819 E23.69464
G1 X93.907 Y68.226 E23.7825
G1 X97.112 Y67.379 E23.89276
G1 X97.252 Y67.339 E23.8976
G1 X98.154 Y67.126 E23.92842
G1 X98.667 Y67.029 E23.94579
G1 X99.154 Y66.949 E23.9622
G1 X99.319 Y66.926 E23.96774
G1 X100.564 Y66.829 E24.00928
G1 X100.815 Y66.825 E24.01763
G1 X101.053 Y66.824 E24.02554
G1 X101.325 Y66.826 E24.03459
G1 X102.227 Y66.873 E24.06463
G1 X102.829 Y66.949 E24.08481
G1 X103.295 Y67.022 E24.1005
G1 X103.688 Y67.091 E24.11377
G1 X104.275 Y67.22 E24.13376
G1 X104.734 Y67.335 E24.1495
G1 X106.697 Y67.853 E24.21703
G1 X109.175 Y68.431 E24.30166
G1 X111.134 Y68.828 E24.36814
G1 X111.715 Y68.953 E24.3879
G1 X112.589 Y69.182 E24.41795
G1 X113.439 Y69.487 E24.44799
G1 X114.259 Y69.866 E24.47804
G1 X114.924 Y70.243 E24.50346
G1 X115.155 Y70.386 E24.5125
G1 X117.414 Y71.733 E24.59998
G1 X119.644 Y72.978 E24.68492
G1 X121.887 Y74.15 E24.76909
G1 X124.164 Y75.258 E24.85332
G1 X126.483 Y76.306 E24.93796
G1 X128.852 Y77.298 E25.02338
G1 X131.166 Y78.19 E25.10587
G1 X133.036 Y78.852 E25.17184
G1 X133.423 Y78.995 E25.18557
G1 X134.256 Y79.345 E25.21562
G1 X135.054 Y79.768 E25.24566
G1 X135.812 Y80.259 E25.2757
G1 X136.523 Y80.816 E25.30574
G1 X137.182 Y81.433 E25.33576
G1 X137.784 Y82.106 E25.3658
G1 X138.324 Y82.83 E25.39584
G1 X138.798 Y83.599 E25.42588
G1 X139.203 Y84.406 E25.45591
G1 X139.534 Y85.247 E25.48597
G1 X139.789 Y86.113 E25.516
G1 X139.967 Y86.998 E25.54602
G1 X140.085 Y88.32 E25.59017
G1 X140.094 Y88.698 E25.60274
G1 X140.097 Y88.949 E25.61109
G1 X140.089 Y98.255 E25.92061
G1 X140.078 Y98.967 E25.9443
G1 X140.024 Y99.868 E25.97432
G1 X139.906 Y100.679 E26.00158
G1 X139.754 Y101.495 E26.02918
G1 X139.313 Y104.056 E26.11562
G1 X138.951 Y106.59 E26.20075
G1 X138.662 Y109.113 E26.28522
