;FLAVOR:Marlin
;TIME:2254
;Filament used: 1.24889m
;Layer height: 0.2
;MINX:81.396
;MINY:70.937
;MINZ:0.2
;MAXX:138.749
;MAXY:132.97
;MAXZ:12.8
;Generated with Creality Slicer 4.8.2-218
M140 S60
M105
M190 S60
M104 S200
M105
M109 S200
M82 ;absolute extrusion mode

G28 ;Home

G92 E0 ;Reset Extruder
G1 Z2.0 F3000 ;Move Z Axis up
G1 X10.1 Y20 Z0.28 F5000.0 ;Move to start position
G1 X10.1 Y200.0 Z0.28 F1500.0 E15 ;Draw the first line
G1 X10.4 Y200.0 Z0.28 F5000.0 ;Move to side a little
G1 X10.4 Y20 Z0.28 F1500.0 E30 ;Draw the second line
G92 E0 ;Reset Extruder
G1 Z2.0 F3000 ;Move Z Axis up

G92 E0
G92 E0
G1 F2400 E-0.8
;LAYER_COUNT:64
;LAYER:0
M107
M204 S2000
G0 F7500 X84.59 Y79.205 Z0.2
M204 S500
;TYPE:SKIRT
G1 F2400 E0
G1 F1500 X85.278 Y78.567 E0.03121
G1 X86.017 Y77.991 E0.06237
G1 X86.803 Y77.479 E0.09357
G1 X87.63 Y77.036 E0.12477
G1 X88.492 Y76.666 E0.15597
G1 X89.382 Y76.37 E0.18717
G1 X90.294 Y76.151 E0.21837
G1 X91.221 Y76.01 E0.24955
G1 X91.926 Y75.956 E0.27307
G1 X94.659 Y75.837 E0.36406
G1 X97.196 Y75.654 E0.44866
G1 X99.638 Y75.408 E0.53029
G1 X102.181 Y75.08 E0.61557
G1 X104.653 Y74.689 E0.69881
G1 X107.149 Y74.221 E0.78327
G1 X109.585 Y73.693 E0.86618
G1 X111.991 Y73.101 E0.94859
G1 X114.452 Y72.419 E1.03353
G1 X116.928 Y71.658 E1.11968
G1 X117.485 Y71.478 E1.13915
G1 X118.389 Y71.229 E1.17034
G1 X119.311 Y71.057 E1.20153
G1 X120.528 Y70.952 E1.24216
G1 X120.857 Y70.942 E1.25311
G1 X121.191 Y70.937 E1.26422
G1 X121.419 Y70.937 E1.2718
G1 X122.275 Y70.948 E1.30027
G1 X123.211 Y71.002 E1.33146
G1 X124.139 Y71.134 E1.36263
G1 X125.053 Y71.346 E1.39384
G1 X125.945 Y71.635 E1.42503
G1 X126.81 Y71.998 E1.45623
G1 X127.64 Y72.434 E1.48741
G1 X128.431 Y72.939 E1.51862
G1 X129.175 Y73.51 E1.54982
G1 X129.868 Y74.142 E1.58101
G1 X130.505 Y74.83 E1.6122
G1 X131.08 Y75.571 E1.64339
G1 X131.591 Y76.357 E1.67457
G1 X132.033 Y77.185 E1.70579
G1 X132.402 Y78.047 E1.73698
G1 X132.697 Y78.937 E1.76816
G1 X132.915 Y79.849 E1.79935
G1 X133.003 Y80.365 E1.81676
G1 X133.054 Y80.716 E1.82856
G1 X133.45 Y83.226 E1.91307
G1 X133.912 Y85.695 E1.99662
G1 X134.443 Y88.15 E2.08016
G1 X135.036 Y90.558 E2.16264
G1 X135.72 Y93.034 E2.24808
G1 X136.454 Y95.423 E2.3312
G1 X137.063 Y97.204 E2.39381
G1 X137.365 Y98.119 E2.42586
G1 X137.62 Y99.022 E2.45706
G1 X137.798 Y99.943 E2.48826
G1 X137.897 Y100.875 E2.51944
G1 X137.919 Y101.495 E2.54007
G1 X137.921 Y101.763 E2.54898
G1 X137.976 Y104.303 E2.63348
G1 X138.101 Y106.808 E2.7169
G1 X138.299 Y109.325 E2.80088
G1 X138.574 Y111.897 E2.88691
G1 X138.668 Y112.723 E2.91456
G1 X138.734 Y113.637 E2.94504
G1 X138.744 Y113.967 E2.95602
G1 X138.749 Y114.3 E2.9671
G1 X138.748 Y116.37 E3.03595
G1 X138.739 Y117.097 E3.06013
G1 X138.688 Y118.034 E3.09134
G1 X138.556 Y118.962 E3.12252
G1 X138.347 Y119.876 E3.1537
G1 X138.06 Y120.769 E3.1849
G1 X137.698 Y121.635 E3.21612
G1 X137.264 Y122.466 E3.2473
G1 X136.76 Y123.257 E3.27849
G1 X136.191 Y124.002 E3.30967
G1 X135.56 Y124.697 E3.34089
G1 X134.873 Y125.335 E3.37208
G1 X134.134 Y125.912 E3.40326
G1 X133.348 Y126.424 E3.43446
G1 X132.522 Y126.867 E3.46564
G1 X131.66 Y127.239 E3.49686
G1 X130.771 Y127.535 E3.52803
G1 X129.859 Y127.755 E3.55923
G1 X128.932 Y127.896 E3.59042
G1 X128.219 Y127.951 E3.6142
G1 X125.486 Y128.07 E3.70519
G1 X122.949 Y128.253 E3.78979
G1 X120.507 Y128.499 E3.87142
G1 X117.964 Y128.827 E3.9567
G1 X115.492 Y129.218 E4.03994
G1 X112.996 Y129.686 E4.12441
G1 X110.56 Y130.214 E4.20731
G1 X108.154 Y130.806 E4.28972
G1 X105.693 Y131.488 E4.37466
G1 X103.166 Y132.265 E4.46259
G1 X102.654 Y132.43 E4.48048
G1 X101.75 Y132.68 E4.51168
G1 X100.828 Y132.851 E4.54287
G1 X99.617 Y132.955 E4.58329
G1 X99.289 Y132.965 E4.59421
G1 X98.954 Y132.97 E4.60535
G1 X98.553 Y132.969 E4.61869
G1 X97.854 Y132.958 E4.64194
G1 X96.918 Y132.903 E4.67312
G1 X95.989 Y132.769 E4.70434
G1 X95.076 Y132.556 E4.73552
G1 X94.184 Y132.266 E4.76672
G1 X93.32 Y131.901 E4.79792
G1 X92.49 Y131.464 E4.82912
G1 X91.701 Y130.958 E4.86029
G1 X90.957 Y130.386 E4.8915
G1 X90.265 Y129.753 E4.9227
G1 X89.629 Y129.064 E4.95388
G1 X89.055 Y128.323 E4.98506
G1 X88.545 Y127.535 E5.01628
G1 X88.105 Y126.707 E5.04746
G1 X87.736 Y125.845 E5.07865
G1 X87.443 Y124.954 E5.10985
G1 X87.226 Y124.042 E5.14103
G1 X87.138 Y123.515 E5.1588
G1 X87.098 Y123.238 E5.16811
G1 X86.695 Y120.681 E5.2542
G1 X86.238 Y118.239 E5.33683
G1 X85.698 Y115.739 E5.4219
G1 X85.098 Y113.31 E5.50512
G1 X84.428 Y110.882 E5.58889
G1 X83.691 Y108.484 E5.67233
G1 X83.082 Y106.703 E5.73494
G1 X82.78 Y105.788 E5.76698
G1 X82.525 Y104.885 E5.79819
G1 X82.347 Y103.964 E5.82939
G1 X82.248 Y103.032 E5.86057
G1 X82.226 Y102.412 E5.8812
G1 X82.224 Y102.144 E5.89011
G1 X82.169 Y99.604 E5.97461
G1 X82.044 Y97.092 E6.05827
G1 X81.846 Y94.582 E6.14201
G1 X81.572 Y92.01 E6.22804
G1 X81.476 Y91.17 E6.25616
G1 X81.409 Y90.236 E6.2873
G1 X81.4 Y89.917 E6.29792
G1 X81.396 Y89.607 E6.30823
G1 X81.397 Y87.491 E6.37861
G1 X81.406 Y86.802 E6.40153
G1 X81.458 Y85.866 E6.43271
G1 X81.59 Y84.937 E6.46391
G1 X81.8 Y84.023 E6.49511
G1 X82.088 Y83.131 E6.52628
G1 X82.45 Y82.266 E6.55747
G1 X82.885 Y81.435 E6.58867
G1 X83.389 Y80.644 E6.61986
G1 X83.959 Y79.899 E6.65106
G1 X84.59 Y79.205 E6.68226
M204 S2000
G0 F7500 X84.982 Y79.379
M204 S500
G1 F1500 X85.667 Y78.764 E6.71288
G1 X86.402 Y78.21 E6.74349
G1 X87.183 Y77.722 E6.77412
G1 X88.003 Y77.303 E6.80475
G1 X88.856 Y76.958 E6.83535
G1 X89.736 Y76.687 E6.86598
G1 X90.636 Y76.495 E6.89658
G1 X91.943 Y76.356 E6.9403
G1 X94.671 Y76.237 E7.03112
G1 X97.229 Y76.053 E7.11642
G1 X99.693 Y75.804 E7.19879
G1 X102.228 Y75.477 E7.2838
G1 X104.711 Y75.084 E7.36742
G1 X107.208 Y74.616 E7.45191
G1 X109.694 Y74.078 E7.53651
G1 X112.112 Y73.482 E7.61934
G1 X114.58 Y72.798 E7.70452
G1 X117.021 Y72.048 E7.78946
G1 X117.608 Y71.859 E7.80997
G1 X118.495 Y71.615 E7.84056
G1 X119.401 Y71.448 E7.8712
G1 X120.54 Y71.352 E7.90922
G1 X120.869 Y71.342 E7.92017
G1 X121.191 Y71.337 E7.93088
G1 X121.419 Y71.337 E7.93846
G1 X122.269 Y71.348 E7.96674
G1 X123.188 Y71.401 E7.99735
G1 X124.099 Y71.534 E8.02798
G1 X124.995 Y71.745 E8.05859
G1 X125.869 Y72.033 E8.0892
G1 X126.716 Y72.396 E8.11985
G1 X127.527 Y72.831 E8.15046
G1 X128.297 Y73.335 E8.18107
G1 X129.021 Y73.904 E8.21169
G1 X129.693 Y74.534 E8.24233
G1 X130.308 Y75.219 E8.27295
G1 X130.861 Y75.955 E8.30357
G1 X131.348 Y76.736 E8.33418
G1 X131.765 Y77.557 E8.36481
G1 X132.11 Y78.411 E8.39544
G1 X132.379 Y79.291 E8.42605
G1 X132.607 Y80.423 E8.46445
G1 X132.654 Y80.745 E8.47528
G1 X133.055 Y83.29 E8.56097
G1 X133.521 Y85.781 E8.64526
G1 X134.052 Y88.233 E8.7287
G1 X134.654 Y90.68 E8.81252
G1 X135.337 Y93.152 E8.89782
G1 X136.066 Y95.524 E8.98035
G1 X136.683 Y97.33 E9.04383
G1 X136.985 Y98.245 E9.07587
G1 X137.235 Y99.131 E9.10649
G1 X137.408 Y100.035 E9.13711
G1 X137.501 Y100.951 E9.16773
G1 X137.519 Y101.497 E9.1859
G1 X137.52 Y101.707 E9.19288
G1 X137.577 Y104.333 E9.28025
G1 X137.703 Y106.86 E9.3644
G1 X137.9 Y109.363 E9.44791
G1 X138.169 Y111.874 E9.5319
G1 X138.271 Y112.768 E9.56183
G1 X138.334 Y113.649 E9.5912
G1 X138.344 Y113.979 E9.60219
G1 X138.349 Y114.3 E9.61286
G1 X138.348 Y116.365 E9.68155
G1 X138.339 Y117.092 E9.70573
G1 X138.288 Y118.011 E9.73634
G1 X138.157 Y118.923 E9.76699
G1 X137.947 Y119.819 E9.79759
G1 X137.661 Y120.694 E9.82821
G1 X137.3 Y121.541 E9.85884
G1 X136.866 Y122.353 E9.88946
G1 X136.364 Y123.125 E9.92009
G1 X135.796 Y123.85 E9.95072
G1 X135.168 Y124.523 E9.98133
G1 X134.484 Y125.139 E10.01195
G1 X133.749 Y125.693 E10.04256
G1 X132.969 Y126.182 E10.07318
G1 X132.149 Y126.601 E10.10381
G1 X131.296 Y126.947 E10.13443
G1 X130.416 Y127.218 E10.16505
G1 X129.516 Y127.411 E10.19567
G1 X128.202 Y127.551 E10.23962
G1 X125.474 Y127.67 E10.33044
G1 X122.916 Y127.854 E10.41574
G1 X120.452 Y128.103 E10.49811
G1 X117.917 Y128.43 E10.58312
G1 X115.434 Y128.823 E10.66673
G1 X112.937 Y129.291 E10.75123
G1 X110.451 Y129.829 E10.83583
G1 X108.033 Y130.425 E10.91866
G1 X105.565 Y131.109 E11.00384
G1 X103.17 Y131.844 E11.08716
G1 X102.532 Y132.05 E11.10946
G1 X101.644 Y132.293 E11.14008
G1 X100.738 Y132.459 E11.17072
G1 X99.605 Y132.555 E11.20854
G1 X99.277 Y132.565 E11.21945
G1 X98.954 Y132.57 E11.2302
G1 X98.559 Y132.569 E11.24333
G1 X97.86 Y132.558 E11.26659
G1 X96.941 Y132.503 E11.29721
G1 X96.03 Y132.369 E11.32783
G1 X95.135 Y132.157 E11.35842
G1 X94.261 Y131.867 E11.38905
G1 X93.415 Y131.503 E11.41968
G1 X92.604 Y131.067 E11.45031
G1 X91.834 Y130.562 E11.48094
G1 X91.111 Y129.992 E11.51156
G1 X90.44 Y129.362 E11.54217
G1 X89.827 Y128.676 E11.57277
G1 X89.275 Y127.939 E11.60339
G1 X88.789 Y127.157 E11.63402
G1 X88.373 Y126.335 E11.66466
G1 X88.029 Y125.481 E11.69528
G1 X87.761 Y124.6 E11.72591
G1 X87.534 Y123.458 E11.76463
G1 X87.496 Y123.195 E11.77347
G1 X87.09 Y120.617 E11.86027
G1 X86.629 Y118.153 E11.94365
G1 X86.089 Y115.657 E12.02859
G1 X85.478 Y113.179 E12.11347
G1 X84.813 Y110.772 E12.19653
G1 X84.079 Y108.383 E12.27966
G1 X83.462 Y106.577 E12.34313
G1 X83.16 Y105.662 E12.37518
G1 X82.91 Y104.776 E12.4058
G1 X82.737 Y103.872 E12.43641
G1 X82.644 Y102.956 E12.46703
G1 X82.626 Y102.41 E12.4852
G1 X82.625 Y102.2 E12.49219
G1 X82.568 Y99.574 E12.57955
G1 X82.442 Y97.047 E12.6637
G1 X82.245 Y94.544 E12.74721
G1 X81.969 Y91.968 E12.83338
G1 X81.873 Y91.125 E12.8616
G1 X81.809 Y90.225 E12.89161
G1 X81.8 Y89.906 E12.90222
G1 X81.796 Y89.607 E12.91217
G1 X81.797 Y87.497 E12.98235
G1 X81.806 Y86.808 E13.00527
G1 X81.858 Y85.888 E13.03591
G1 X81.989 Y84.977 E13.06653
G1 X82.2 Y84.081 E13.09714
G1 X82.487 Y83.206 E13.12777
G1 X82.849 Y82.36 E13.15838
G1 X83.283 Y81.548 E13.189
G1 X83.785 Y80.776 E13.21963
G1 X84.353 Y80.052 E13.25023
G1 X84.982 Y79.379 E13.28087
M204 S2000
G0 F7500 X85.373 Y79.557
M204 S500
G1 F1500 X86.055 Y78.964 E13.31093
G1 X86.786 Y78.434 E13.34096
G1 X87.56 Y77.97 E13.37098
G1 X88.373 Y77.577 E13.40101
G1 X89.218 Y77.257 E13.43106
G1 X90.088 Y77.013 E13.46112
G1 X90.975 Y76.847 E13.49113
G1 X91.96 Y76.756 E13.52403
G1 X94.684 Y76.637 E13.61472
G1 X97.261 Y76.452 E13.70065
G1 X99.748 Y76.201 E13.78379
G1 X102.271 Y75.875 E13.8684
G1 X104.816 Y75.472 E13.9541
G1 X107.261 Y75.014 E14.03684
G1 X109.795 Y74.465 E14.12307
G1 X112.185 Y73.877 E14.20494
G1 X114.69 Y73.183 E14.29139
G1 X117.199 Y72.412 E14.37869
G1 X117.731 Y72.24 E14.39729
G1 X118.601 Y72.001 E14.4273
G1 X119.49 Y71.84 E14.45735
G1 X120.552 Y71.752 E14.49279
G1 X120.881 Y71.742 E14.50374
G1 X121.191 Y71.737 E14.51405
G1 X121.419 Y71.737 E14.52163
G1 X122.263 Y71.748 E14.54971
G1 X123.165 Y71.801 E14.57976
G1 X124.058 Y71.933 E14.60978
G1 X124.936 Y72.144 E14.63982
G1 X125.792 Y72.432 E14.66986
G1 X126.619 Y72.794 E14.69988
G1 X127.411 Y73.229 E14.72994
G1 X128.162 Y73.731 E14.75998
G1 X128.865 Y74.298 E14.79002
G1 X129.515 Y74.925 E14.82006
G1 X130.107 Y75.607 E14.85009
G1 X130.637 Y76.338 E14.88013
G1 X131.099 Y77.114 E14.91016
G1 X131.492 Y77.927 E14.9402
G1 X131.81 Y78.772 E14.97023
G1 X132.053 Y79.642 E15.00027
G1 X132.211 Y80.48 E15.02863
G1 X132.257 Y80.798 E15.03932
G1 X132.661 Y83.354 E15.12539
G1 X133.124 Y85.834 E15.2093
G1 X133.672 Y88.367 E15.2955
G1 X134.268 Y90.785 E15.37833
G1 X134.946 Y93.239 E15.463
G1 X135.691 Y95.664 E15.54738
G1 X136.303 Y97.455 E15.61033
G1 X136.605 Y98.37 E15.64238
G1 X136.85 Y99.239 E15.67241
G1 X137.017 Y100.127 E15.70246
G1 X137.105 Y101.026 E15.73251
G1 X137.119 Y101.5 E15.74828
G1 X137.12 Y101.718 E15.75553
G1 X137.177 Y104.361 E15.84346
G1 X137.301 Y106.841 E15.92604
G1 X137.506 Y109.437 E16.01266
G1 X137.771 Y111.92 E16.09571
G1 X137.873 Y112.814 E16.12564
G1 X137.934 Y113.661 E16.15388
G1 X137.944 Y113.991 E16.16486
G1 X137.949 Y114.3 E16.17514
G1 X137.948 Y116.36 E16.24366
G1 X137.939 Y117.087 E16.26784
G1 X137.888 Y117.989 E16.29789
G1 X137.757 Y118.883 E16.32794
G1 X137.548 Y119.761 E16.35796
G1 X137.262 Y120.618 E16.38801
G1 X136.901 Y121.446 E16.41805
G1 X136.469 Y122.238 E16.44806
G1 X135.968 Y122.99 E16.47811
G1 X135.402 Y123.694 E16.50815
G1 X134.777 Y124.345 E16.53817
G1 X134.096 Y124.939 E16.56823
G1 X133.365 Y125.47 E16.59828
G1 X132.591 Y125.934 E16.62829
G1 X131.778 Y126.328 E16.65834
G1 X130.934 Y126.648 E16.68836
G1 X130.064 Y126.893 E16.71842
G1 X129.177 Y127.059 E16.74844
G1 X128.185 Y127.151 E16.78157
G1 X125.461 Y127.27 E16.87226
G1 X122.884 Y127.455 E16.95819
G1 X120.397 Y127.706 E17.04133
G1 X117.874 Y128.032 E17.12594
G1 X115.329 Y128.435 E17.21164
G1 X112.884 Y128.893 E17.29438
G1 X110.35 Y129.442 E17.38062
G1 X107.96 Y130.03 E17.46248
G1 X105.455 Y130.724 E17.54893
G1 X102.99 Y131.482 E17.63471
G1 X102.409 Y131.669 E17.65501
G1 X101.538 Y131.907 E17.68504
G1 X100.649 Y132.068 E17.71509
G1 X99.593 Y132.155 E17.75033
G1 X99.265 Y132.165 E17.76125
G1 X98.954 Y132.17 E17.77159
G1 X98.566 Y132.169 E17.7845
G1 X97.867 Y132.158 E17.80775
G1 X96.965 Y132.104 E17.8378
G1 X96.072 Y131.97 E17.86784
G1 X95.194 Y131.758 E17.89788
G1 X94.338 Y131.469 E17.92793
G1 X93.512 Y131.105 E17.95795
G1 X92.72 Y130.67 E17.988
G1 X91.971 Y130.166 E18.01803
G1 X91.268 Y129.599 E18.04807
G1 X90.619 Y128.971 E18.07811
G1 X90.028 Y128.288 E18.10815
G1 X89.5 Y127.556 E18.13817
G1 X89.038 Y126.779 E18.16823
G1 X88.647 Y125.965 E18.19827
G1 X88.329 Y125.12 E18.2283
G1 X88.088 Y124.25 E18.25832
G1 X87.93 Y123.401 E18.28705
G1 X87.893 Y123.142 E18.29575
G1 X87.484 Y120.553 E18.38293
G1 X87.019 Y118.066 E18.46708
G1 X86.475 Y115.548 E18.55276
G1 X85.877 Y113.124 E18.6358
G1 X85.192 Y110.644 E18.72137
G1 X84.454 Y108.243 E18.80492
G1 X83.842 Y106.452 E18.86787
G1 X83.54 Y105.537 E18.89991
G1 X83.295 Y104.668 E18.92994
G1 X83.128 Y103.78 E18.96
G1 X83.04 Y102.881 E18.99004
G1 X83.026 Y102.407 E19.00581
G1 X83.025 Y102.189 E19.01306
G1 X82.968 Y99.546 E19.10099
G1 X82.844 Y97.066 E19.18358
G1 X82.639 Y94.47 E19.27019
G1 X82.373 Y91.984 E19.35335
G1 X82.27 Y91.079 E19.38364
G1 X82.209 Y90.214 E19.41248
G1 X82.2 Y89.895 E19.4231
G1 X82.196 Y89.607 E19.43268
G1 X82.197 Y87.502 E19.50269
G1 X82.206 Y86.813 E19.52561
G1 X82.258 Y85.911 E19.55566
G1 X82.389 Y85.018 E19.58568
G1 X82.599 Y84.139 E19.61574
G1 X82.885 Y83.283 E19.64575
G1 X83.247 Y82.455 E19.67581
G1 X83.68 Y81.663 E19.70583
G1 X84.181 Y80.912 E19.73586
G1 X84.747 Y80.208 E19.7659
G1 X85.373 Y79.557 E19.79594
M204 S2000
G1 F2400 E18.99594
;MESH:wheel steering system-part1-alternative.stl(1)
G0 F7500 X91.743 Y90.59
G0 X100.216 Y94.401
G0 X100.912 Y95.097
G0 X96.629 Y100.049
G0 X98.427 Y101.183
G0 X98.737 Y103.044
M204 S500
;TYPE:WALL-INNER
G1 F2400 E19.79594
G1 F1500 X98.847 Y102.554 E19.81265
G1 X98.844 Y102.401 E19.81774
G1 X98.836 Y102.028 E19.83014
G1 X98.691 Y101.519 E19.84775
G1 X98.426 Y101.064 E19.86526
G1 X98.055 Y100.685 E19.8829
G1 X97.599 Y100.413 E19.90056
G1 X97.094 Y100.263 E19.91808
G1 X96.697 Y100.246 E19.9313
G1 X96.568 Y100.241 E19.93559
G1 X96.052 Y100.353 E19.95315
G1 X96.366 Y100.039 E19.95796
G1 X96.457 Y99.948 E19.96167
G1 X104.604 Y91.801 E20.34488
G1 X109.499 Y91.801 E20.50769
G1 X109.5 Y91.801 E20.50773
G1 X109.98 Y91.801 E20.52369
G1 X109.64 Y92.141 E20.5323
G1 X99.145 Y102.636 E21.02595
G1 X99.037 Y102.744 E21.03026
G1 X98.737 Y103.044 E21.03453
M204 S2000
G0 F7500 X97.478 Y104.303
M204 S500
G1 F1500 X97.289 Y104.492 E21.04342
G1 X97.027 Y104.754 E21.05575
G1 X96.752 Y105.029 E21.06868
G1 X96.453 Y104.73 E21.08274
G1 X96.42 Y104.697 E21.0843
G1 X96.117 Y104.394 E21.09855
G1 X96.028 Y104.305 E21.10274
G1 X96.151 Y104.359 E21.10321
G1 X96.671 Y104.446 E21.11323
G1 X96.719 Y104.442 E21.11475
G1 X96.828 Y104.432 E21.11839
G1 X97.198 Y104.402 E21.12679
G1 X97.478 Y104.303 E21.12895
M204 S2000
G0 F7500 X96.226 Y104.108
G0 X95.884 Y103.957
G0 X94.789 Y103.066
M204 S500
G1 F1500 X94.681 Y102.958 E21.13403
G1 X94.381 Y102.658 E21.14814
G1 X94.364 Y102.641 E21.14894
G1 X94.064 Y102.341 E21.16305
G1 X94.335 Y102.07 E21.1758
G1 X94.617 Y101.788 E21.18907
G1 X94.79 Y101.615 E21.1972
G1 X94.697 Y101.867 E21.19896
G1 X94.659 Y102.265 E21.20776
G1 X94.648 Y102.367 E21.21117
G1 X94.646 Y102.392 E21.21198
G1 X94.724 Y102.914 E21.22404
G1 X94.789 Y103.066 E21.22474
M204 S2000
G1 F2400 E20.42474
G0 F7500 X95.803 Y103.921
G0 X96.226 Y104.108
G0 X97.179 Y104.197
