;FLAVOR:Marlin
;TIME:1253
;Filament used: 0.671956m
;Layer height: 0.2
;MINX:82.611
;MINY:87.042
;MINZ:0.2
;MAXX:138.749
;MAXY:132.975
;MAXZ:12.8
;Generated with Creality Slicer 4.8.2-218
M140 S60
M105
M190 S60
M104 S200
M105
M109 S200
M82 ;absolute extrusion mode

G28 ;Home

G92 E0 ;Reset Extruder
G1 Z2.0 F3000 ;Move Z Axis up
G1 X10.1 Y20 Z0.28 F5000.0 ;Move to start position
G1 X10.1 Y200.0 Z0.28 F1500.0 E15 ;Draw the first line
G1 X10.4 Y200.0 Z0.28 F5000.0 ;Move to side a little
G1 X10.4 Y20 Z0.28 F1500.0 E30 ;Draw the second line
G92 E0 ;Reset Extruder
G1 Z2.0 F3000 ;Move Z Axis up

G92 E0
G92 E0
G1 F2400 E-0.8
;LAYER_COUNT:64
;LAYER:0
M107
M204 S2000
G0 F7500 X86.797 Y98.445 Z0.2
M204 S500
;TYPE:SKIRT
G1 F2400 E0
G1 F1500 X87.549 Y97.884 E0.0312
G1 X88.346 Y97.39 E0.06239
G1 X89.182 Y96.966 E0.09357
G1 X90.052 Y96.614 E0.12478
G1 X90.948 Y96.338 E0.15597
G1 X92.109 Y96.099 E0.19539
G1 X93.259 Y95.927 E0.23407
G1 X95.751 Y95.516 E0.31807
G1 X98.225 Y95.037 E0.40188
G1 X100.682 Y94.487 E0.48563
G1 X103.12 Y93.87 E0.56927
G1 X105.545 Y93.182 E0.65311
G1 X107.953 Y92.425 E0.73707
G1 X110.335 Y91.6 E0.82091
G1 X112.671 Y90.718 E0.90396
G1 X115.011 Y89.758 E0.98808
G1 X117.314 Y88.736 E1.07188
G1 X117.757 Y88.526 E1.08819
G1 X118.794 Y88.049 E1.12615
G1 X119.662 Y87.693 E1.15736
G1 X120.557 Y87.413 E1.18855
G1 X121.473 Y87.211 E1.21975
G1 X122.403 Y87.086 E1.25096
G1 X123.339 Y87.042 E1.28212
G1 X124.277 Y87.078 E1.31334
G1 X125.207 Y87.193 E1.34451
G1 X126.125 Y87.387 E1.37572
G1 X127.023 Y87.659 E1.40693
G1 X127.894 Y88.006 E1.43811
G1 X128.732 Y88.426 E1.46929
G1 X129.532 Y88.916 E1.50049
G1 X130.287 Y89.472 E1.53167
G1 X130.922 Y90.025 E1.55968
G1 X131.153 Y90.242 E1.57022
G1 X131.4 Y90.481 E1.58165
G1 X134.326 Y93.408 E1.71931
G1 X134.784 Y93.878 E1.74113
G1 X135.409 Y94.577 E1.77232
G1 X135.973 Y95.327 E1.80353
G1 X136.47 Y96.122 E1.83472
G1 X136.899 Y96.956 E1.86591
G1 X137.194 Y97.66 E1.8913
G1 X137.491 Y98.55 E1.9225
G1 X137.711 Y99.462 E1.95371
G1 X137.853 Y100.389 E1.9849
G1 X137.919 Y101.511 E2.02228
G1 X137.921 Y101.764 E2.0307
G1 X137.976 Y104.303 E2.11516
G1 X138.1 Y106.802 E2.19838
G1 X138.299 Y109.325 E2.28256
G1 X138.574 Y111.897 E2.36859
G1 X138.668 Y112.723 E2.39624
G1 X138.734 Y113.637 E2.42672
G1 X138.744 Y113.967 E2.4377
G1 X138.749 Y114.3 E2.44878
G1 X138.748 Y116.37 E2.51763
G1 X138.739 Y117.096 E2.54178
G1 X138.688 Y118.033 E2.57299
G1 X138.556 Y118.961 E2.60416
G1 X138.347 Y119.876 E2.63538
G1 X138.06 Y120.768 E2.66655
G1 X137.698 Y121.634 E2.69776
G1 X137.263 Y122.465 E2.72896
G1 X136.76 Y123.256 E2.76014
G1 X136.191 Y124.002 E2.79134
G1 X135.56 Y124.696 E2.82254
G1 X134.873 Y125.334 E2.85372
G1 X134.134 Y125.911 E2.88491
G1 X133.348 Y126.423 E2.91611
G1 X132.521 Y126.866 E2.94731
G1 X131.66 Y127.238 E2.97851
G1 X130.77 Y127.534 E3.0097
G1 X129.859 Y127.754 E3.04087
G1 X128.69 Y127.919 E3.08014
G1 X128.221 Y127.96 E3.0958
G1 X125.6 Y128.223 E3.18341
G1 X123.16 Y128.538 E3.26524
G1 X120.638 Y128.936 E3.35016
G1 X118.146 Y129.403 E3.43449
G1 X115.715 Y129.929 E3.51721
G1 X113.312 Y130.521 E3.59953
G1 X110.843 Y131.204 E3.68473
G1 X107.818 Y132.143 E3.79008
G1 X107.036 Y132.402 E3.81748
G1 X106.134 Y132.658 E3.84866
G1 X105.213 Y132.837 E3.87987
G1 X103.999 Y132.951 E3.92042
G1 X103.556 Y132.964 E3.93517
G1 X103.022 Y132.97 E3.95293
G1 X100.384 Y132.972 E4.04067
G1 X99.29 Y132.967 E4.07705
G1 X98.958 Y132.97 E4.0881
G1 X98.067 Y132.97 E4.11773
G1 X96.92 Y132.975 E4.15588
G1 X96.79 Y132.97 E4.16021
G1 X94.278 Y132.969 E4.24376
G1 X93.576 Y132.959 E4.26711
G1 X92.64 Y132.906 E4.29829
G1 X91.712 Y132.773 E4.32947
G1 X90.798 Y132.561 E4.36068
G1 X89.905 Y132.273 E4.39189
G1 X89.041 Y131.909 E4.42307
G1 X88.21 Y131.473 E4.45428
G1 X87.42 Y130.968 E4.48547
G1 X86.676 Y130.398 E4.51664
G1 X85.955 Y129.738 E4.54915
G1 X85.843 Y129.626 E4.55442
G1 X85.209 Y128.935 E4.58561
G1 X84.635 Y128.193 E4.61681
G1 X84.128 Y127.404 E4.648
G1 X83.689 Y126.576 E4.67917
G1 X83.322 Y125.712 E4.7104
G1 X83.03 Y124.821 E4.74158
G1 X82.816 Y123.908 E4.77277
G1 X82.679 Y122.98 E4.80397
G1 X82.627 Y122.223 E4.82921
G1 X82.615 Y121.776 E4.84408
G1 X82.611 Y121.249 E4.86161
G1 X82.611 Y107.613 E5.31514
G1 X82.621 Y106.931 E5.33783
G1 X82.675 Y105.994 E5.36905
G1 X82.808 Y105.066 E5.40023
G1 X83.02 Y104.152 E5.43143
G1 X83.309 Y103.26 E5.46262
G1 X83.673 Y102.396 E5.4938
G1 X84.109 Y101.566 E5.52499
G1 X84.614 Y100.775 E5.5562
G1 X85.185 Y100.031 E5.58739
G1 X85.977 Y99.181 E5.62603
G1 X86.095 Y99.067 E5.63149
G1 X86.797 Y98.445 E5.66269
M204 S2000
G0 F7500 X87.062 Y98.744
M204 S500
G1 F1500 X87.802 Y98.196 E5.69331
G1 X88.586 Y97.714 E5.72392
G1 X89.41 Y97.302 E5.75456
G1 X90.266 Y96.963 E5.78519
G1 X91.148 Y96.699 E5.81581
G1 X92.168 Y96.495 E5.85041
G1 X93.251 Y96.333 E5.88683
G1 X95.821 Y95.909 E5.97346
G1 X98.317 Y95.426 E6.05802
G1 X100.795 Y94.871 E6.14248
G1 X103.222 Y94.257 E6.22574
G1 X105.669 Y93.563 E6.31034
G1 X108.067 Y92.809 E6.39395
G1 X110.459 Y91.981 E6.47814
G1 X112.828 Y91.086 E6.56237
G1 X115.176 Y90.123 E6.64678
G1 X117.499 Y89.091 E6.73132
G1 X117.924 Y88.889 E6.74697
G1 X118.961 Y88.412 E6.78494
G1 X119.814 Y88.064 E6.81558
G1 X120.693 Y87.791 E6.84619
G1 X121.593 Y87.596 E6.87682
G1 X122.506 Y87.479 E6.90743
G1 X123.426 Y87.442 E6.93806
G1 X124.345 Y87.485 E6.96866
G1 X125.258 Y87.608 E6.9993
G1 X126.156 Y87.809 E7.0299
G1 X127.034 Y88.088 E7.06055
G1 X127.884 Y88.441 E7.09116
G1 X128.7 Y88.867 E7.12177
G1 X129.476 Y89.363 E7.15241
G1 X130.206 Y89.923 E7.18301
G1 X130.649 Y90.316 E7.2027
G1 X130.88 Y90.533 E7.21325
G1 X131.117 Y90.764 E7.22425
G1 X134.04 Y93.687 E7.36174
G1 X134.498 Y94.157 E7.38357
G1 X135.111 Y94.844 E7.41419
G1 X135.662 Y95.581 E7.4448
G1 X136.148 Y96.363 E7.47542
G1 X136.563 Y97.185 E7.50605
G1 X136.82 Y97.803 E7.52831
G1 X137.111 Y98.677 E7.55895
G1 X137.325 Y99.572 E7.58955
G1 X137.461 Y100.483 E7.62019
G1 X137.519 Y101.514 E7.65454
G1 X137.52 Y101.679 E7.66002
G1 X137.577 Y104.333 E7.74832
G1 X137.703 Y106.86 E7.83247
G1 X137.9 Y109.363 E7.91598
G1 X138.169 Y111.874 E7.99997
G1 X138.271 Y112.768 E8.0299
G1 X138.334 Y113.649 E8.05928
G1 X138.344 Y113.979 E8.07026
G1 X138.349 Y114.3 E8.08093
G1 X138.348 Y116.365 E8.14962
G1 X138.339 Y117.091 E8.17377
G1 X138.288 Y118.011 E8.20441
G1 X138.157 Y118.922 E8.23502
G1 X137.947 Y119.818 E8.26563
G1 X137.661 Y120.693 E8.29625
G1 X137.299 Y121.54 E8.32689
G1 X136.866 Y122.352 E8.35749
G1 X136.364 Y123.124 E8.38812
G1 X135.796 Y123.849 E8.41875
G1 X135.168 Y124.522 E8.44937
G1 X134.484 Y125.138 E8.47999
G1 X133.749 Y125.692 E8.5106
G1 X132.968 Y126.181 E8.54125
G1 X132.149 Y126.6 E8.57184
G1 X131.296 Y126.946 E8.60246
G1 X130.416 Y127.217 E8.63309
G1 X129.516 Y127.41 E8.6637
G1 X128.655 Y127.52 E8.69257
G1 X128.222 Y127.558 E8.70703
G1 X125.581 Y127.823 E8.79531
G1 X123.049 Y128.15 E8.88022
G1 X120.608 Y128.535 E8.96241
G1 X118.06 Y129.013 E9.04864
G1 X115.632 Y129.538 E9.13126
G1 X113.181 Y130.141 E9.21521
G1 X110.744 Y130.815 E9.29931
G1 X107.683 Y131.766 E9.40592
G1 X106.91 Y132.022 E9.433
G1 X106.024 Y132.273 E9.46363
G1 X105.12 Y132.446 E9.49424
G1 X103.984 Y132.551 E9.53219
G1 X103.552 Y132.564 E9.54656
G1 X103.021 Y132.57 E9.56423
G1 X100.386 Y132.572 E9.65187
G1 X99.289 Y132.567 E9.68835
G1 X98.955 Y132.57 E9.69946
G1 X98.065 Y132.57 E9.72906
G1 X96.918 Y132.575 E9.76721
G1 X96.79 Y132.57 E9.77147
G1 X94.284 Y132.569 E9.85482
G1 X93.582 Y132.559 E9.87817
G1 X92.663 Y132.506 E9.90879
G1 X91.752 Y132.373 E9.93941
G1 X90.856 Y132.162 E9.97003
G1 X89.981 Y131.874 E10.00067
G1 X89.135 Y131.511 E10.03129
G1 X88.324 Y131.076 E10.0619
G1 X87.553 Y130.572 E10.09253
G1 X86.829 Y130.004 E10.12314
G1 X86.238 Y129.455 E10.14997
G1 X86.126 Y129.343 E10.15524
G1 X85.504 Y128.665 E10.18584
G1 X84.943 Y127.935 E10.21646
G1 X84.447 Y127.159 E10.24709
G1 X84.021 Y126.343 E10.27771
G1 X83.667 Y125.493 E10.30833
G1 X83.389 Y124.615 E10.33896
G1 X83.187 Y123.717 E10.36958
G1 X83.064 Y122.804 E10.40022
G1 X83.027 Y122.209 E10.42005
G1 X83.015 Y121.772 E10.43459
G1 X83.011 Y121.249 E10.45198
G1 X83.011 Y107.619 E10.90532
G1 X83.021 Y106.937 E10.928
G1 X83.075 Y106.017 E10.95866
G1 X83.208 Y105.107 E10.98924
G1 X83.419 Y104.21 E11.01989
G1 X83.708 Y103.336 E11.05051
G1 X84.071 Y102.49 E11.08113
G1 X84.506 Y101.679 E11.11174
G1 X85.01 Y100.909 E11.14235
G1 X85.579 Y100.185 E11.17297
G1 X86.255 Y99.469 E11.20572
G1 X86.373 Y99.355 E11.21118
G1 X87.062 Y98.744 E11.24181
M204 S2000
G0 F7500 X87.328 Y99.044
M204 S500
G1 F1500 X88.054 Y98.508 E11.27183
G1 X88.826 Y98.039 E11.30187
G1 X89.636 Y97.639 E11.33192
G1 X90.478 Y97.313 E11.36195
G1 X91.346 Y97.063 E11.39199
G1 X92.227 Y96.891 E11.42185
G1 X93.309 Y96.729 E11.45823
G1 X95.89 Y96.303 E11.54524
G1 X98.416 Y95.814 E11.63082
G1 X100.867 Y95.266 E11.71435
G1 X103.291 Y94.653 E11.79751
G1 X105.793 Y93.942 E11.88402
G1 X108.212 Y93.182 E11.96835
G1 X110.627 Y92.346 E12.05335
G1 X112.93 Y91.476 E12.13524
G1 X115.337 Y90.488 E12.22177
G1 X117.671 Y89.452 E12.30671
G1 X118.092 Y89.252 E12.32221
G1 X119.129 Y88.775 E12.36017
G1 X119.965 Y88.435 E12.39019
G1 X120.828 Y88.169 E12.42023
G1 X121.711 Y87.981 E12.45025
G1 X122.608 Y87.872 E12.48031
G1 X123.511 Y87.843 E12.51036
G1 X124.412 Y87.893 E12.54037
G1 X125.306 Y88.023 E12.57042
G1 X126.185 Y88.232 E12.60047
G1 X127.041 Y88.518 E12.63049
G1 X127.87 Y88.878 E12.66055
G1 X128.663 Y89.31 E12.69058
G1 X129.414 Y89.81 E12.72059
G1 X130.375 Y90.608 E12.76214
G1 X130.606 Y90.825 E12.77268
G1 X130.834 Y91.047 E12.78326
G1 X133.753 Y93.966 E12.92056
G1 X134.211 Y94.436 E12.94239
G1 X134.812 Y95.11 E12.97243
G1 X135.351 Y95.835 E13.00247
G1 X135.824 Y96.604 E13.0325
G1 X136.227 Y97.413 E13.06256
G1 X136.446 Y97.946 E13.08173
G1 X136.731 Y98.803 E13.11177
G1 X136.939 Y99.682 E13.14181
G1 X137.069 Y100.576 E13.17186
G1 X137.119 Y101.517 E13.2032
G1 X137.12 Y101.718 E13.20988
G1 X137.177 Y104.361 E13.29781
G1 X137.301 Y106.841 E13.3804
G1 X137.506 Y109.437 E13.46701
G1 X137.771 Y111.92 E13.55007
G1 X137.873 Y112.814 E13.57999
G1 X137.934 Y113.661 E13.60824
G1 X137.944 Y113.991 E13.61922
G1 X137.949 Y114.3 E13.6295
G1 X137.948 Y116.36 E13.69801
G1 X137.939 Y117.086 E13.72216
G1 X137.888 Y117.988 E13.75221
G1 X137.757 Y118.882 E13.78226
G1 X137.548 Y119.76 E13.81228
G1 X137.262 Y120.617 E13.84233
G1 X136.901 Y121.445 E13.87237
G1 X136.469 Y122.237 E13.90238
G1 X135.968 Y122.989 E13.93243
G1 X135.402 Y123.693 E13.96248
G1 X134.776 Y124.344 E13.99252
G1 X134.096 Y124.938 E14.02255
G1 X133.365 Y125.469 E14.0526
G1 X132.59 Y125.933 E14.08264
G1 X131.778 Y126.327 E14.11266
G1 X130.933 Y126.647 E14.14271
G1 X130.064 Y126.892 E14.17274
G1 X129.176 Y127.058 E14.20279
G1 X128.62 Y127.122 E14.2214
G1 X128.151 Y127.163 E14.23706
G1 X125.526 Y127.427 E14.32481
G1 X123.007 Y127.752 E14.40929
G1 X120.503 Y128.147 E14.4936
G1 X118.042 Y128.608 E14.57688
G1 X115.498 Y129.158 E14.66344
G1 X113.109 Y129.746 E14.74527
G1 X110.616 Y130.436 E14.83131
G1 X107.548 Y131.389 E14.93816
G1 X106.784 Y131.642 E14.96493
G1 X105.915 Y131.888 E14.99497
G1 X105.028 Y132.056 E15.02499
G1 X103.969 Y132.152 E15.06036
G1 X103.812 Y132.158 E15.06559
G1 X103.547 Y132.164 E15.0744
G1 X103.021 Y132.17 E15.0919
G1 X100.388 Y132.172 E15.17947
G1 X99.288 Y132.167 E15.21606
G1 X98.952 Y132.17 E15.22724
G1 X98.063 Y132.17 E15.2568
G1 X96.916 Y132.175 E15.29495
G1 X96.791 Y132.17 E15.29911
G1 X94.29 Y132.169 E15.3823
G1 X93.588 Y132.159 E15.40565
G1 X92.686 Y132.106 E15.4357
G1 X91.793 Y131.974 E15.46573
G1 X90.915 Y131.763 E15.49576
G1 X90.059 Y131.475 E15.5258
G1 X89.231 Y131.113 E15.55585
G1 X88.439 Y130.679 E15.58589
G1 X87.689 Y130.176 E15.61593
G1 X86.986 Y129.61 E15.64595
G1 X86.521 Y129.172 E15.66719
G1 X86.409 Y129.06 E15.67246
G1 X85.799 Y128.394 E15.7025
G1 X85.25 Y127.677 E15.73253
G1 X84.768 Y126.913 E15.76258
G1 X84.354 Y126.11 E15.79263
G1 X84.014 Y125.274 E15.82265
G1 X83.748 Y124.411 E15.85268
G1 X83.56 Y123.528 E15.88271
G1 X83.427 Y122.196 E15.92723
G1 X83.415 Y121.768 E15.94147
G1 X83.411 Y121.249 E15.95873
G1 X83.411 Y107.624 E16.4119
G1 X83.421 Y106.942 E16.43459
G1 X83.474 Y106.041 E16.46461
G1 X83.607 Y105.148 E16.49464
G1 X83.818 Y104.27 E16.52467
G1 X84.106 Y103.414 E16.55471
G1 X84.469 Y102.587 E16.58475
G1 X84.903 Y101.795 E16.61479
G1 X85.406 Y101.045 E16.64482
G1 X85.973 Y100.342 E16.67486
G1 X86.533 Y99.756 E16.70182
G1 X86.651 Y99.642 E16.70728
G1 X87.328 Y99.044 E16.73732
M204 S2000
G1 F2400 E15.93732
G0 F7500 X94.076 Y122.623
G0 X99.441 Y122.631
G0 X99.848 Y122.224
G0 X101.948 Y119.17
M204 S500
G1 F2400 E16.73732
G1 F1500 X102.292 Y119.17 E16.74876
G1 X102.292 Y120.57 E16.79533
G1 X101.948 Y120.57 E16.80677
G1 X101.948 Y119.17 E16.85333
M204 S2000
G0 F7500 X101.548 Y118.77
M204 S500
G1 F1500 X102.692 Y118.77 E16.89138
G1 X102.692 Y120.97 E16.96456
G1 X101.548 Y120.97 E17.00261
G1 X101.548 Y118.77 E17.07578
M204 S2000
G0 F7500 X101.148 Y118.37
M204 S500
G1 F1500 X103.092 Y118.37 E17.14044
G1 X103.092 Y121.37 E17.24022
G1 X101.148 Y121.37 E17.30487
G1 X101.148 Y118.37 E17.40465
M204 S2000
G0 F7500 X100.748 Y117.97
M204 S500
G1 F1500 X103.492 Y117.97 E17.49592
G1 X103.492 Y121.77 E17.62231
G1 X100.748 Y121.77 E17.71357
G1 X100.748 Y117.97 E17.83996
M204 S2000
G1 F2400 E17.03996
G0 F7500 X99.945 Y122.127
G0 X99.441 Y122.631
G0 X94.076 Y122.623
G0 X94.076 Y106.317
G0 X103.226 Y106.317
G0 X103.227 Y113.317
G0 X102.774 Y112.97
M204 S500
G1 F2400 E17.83996
G1 F1500 X102.773 Y107.17 E18.03287
G1 X103.481 Y107.17 E18.05642
G1 X103.491 Y107.18 E18.05689
G1 X103.492 Y112.97 E18.24947
G1 X102.774 Y112.97 E18.27335
M204 S2000
G1 F2400 E17.47335
G0 F7500 X103.227 Y113.317
G0 X103.226 Y106.317
G0 X94.076 Y106.317
G0 X94.064 Y121.77
G0 X94.529 Y121.77
M204 S500
G1 F2400 E18.27335
G1 F1500 X93.811 Y121.77 E18.29723
G1 X93.81 Y107.17 E18.78283
G1 X94.529 Y107.17 E18.80674
G1 X94.529 Y121.77 E19.29234
M204 S2000
G0 F7500 X94.929 Y121.77
M204 S500
;TYPE:SUPPORT-INTERFACE
G1 F1500 X94.929 Y107.17 E19.77794
G1 X96.555 Y107.17 E19.83202
G1 X96.555 Y121.77 E20.31761
G1 X94.929 Y121.77 E20.3717
M204 S2000
G1 F2400 E19.5717
G0 F7500 X94.064 Y121.77
G0 X97.357 Y116.993
G0 X97.404 Y120.707
G0 X99.894 Y113.317
G0 X100.747 Y112.97
M204 S500
G1 F2400 E20.3717
G1 F1500 X100.747 Y107.17 E20.5646
G1 X102.373 Y107.17 E20.61869
G1 X102.374 Y112.97 E20.81159
G1 X100.747 Y112.97 E20.86571
M204 S2000
G0 F7500 X101.059 Y112.769
M204 S500
G1 F1500 X102.173 Y111.655 E20.91811
M204 S2000
G0 F7500 X102.174 Y112.356
M204 S500
G1 F1500 X100.946 Y111.128 E20.97587
M204 S2000
G0 F7500 X100.947 Y109.487
M204 S500
G1 F1500 X102.173 Y108.261 E21.03354
M204 S2000
G0 F7500 X102.174 Y108.962
M204 S500
G1 F1500 X100.946 Y107.734 E21.0913
M204 S2000
G1 F2400 E20.2913
G0 F7500 X99.882 Y107.734
G0 X97.42 Y107.369
G0 X96.277 Y107.369
M204 S500
G1 F2400 E21.0913
G1 F1500 X95.129 Y108.517 E21.1453
M204 S2000
G0 F7500 X95.129 Y108.705
M204 S500
G1 F1500 X96.355 Y109.931 E21.20296
M204 S2000
G0 F7500 X96.355 Y110.685
M204 S500
G1 F1500 X95.129 Y111.911 E21.26063
M204 S2000
G0 F7500 X95.129 Y112.099
M204 S500
G1 F1500 X96.355 Y113.325 E21.3183
M204 S2000
G0 F7500 X96.355 Y114.079
M204 S500
G1 F1500 X95.129 Y115.305 E21.37596
M204 S2000
G0 F7500 X95.129 Y115.493
M204 S500
G1 F1500 X96.355 Y116.719 E21.43363
M204 S2000
G0 F7500 X96.355 Y117.473
M204 S500
G1 F1500 X95.129 Y118.699 E21.4913
M204 S2000
G0 F7500 X95.129 Y118.887
M204 S500
G1 F1500 X96.355 Y120.114 E21.54899
M204 S2000
G0 F7500 X96.355 Y120.867
M204 S500
G1 F1500 X95.653 Y121.569 E21.58201
M204 S2000
G1 F2400 E20.78201
;MESH:wheel steering system-part1-alternative.stl
G0 F7500 X98.439 Y121.569
G0 X98.684 Y121.37
M204 S500
;TYPE:WALL-INNER
G1 F2400 E21.58201
G1 F1500 X98.619 Y121.37 E21.58417
G1 X98.619 Y116.37 E21.75047
G1 X98.619 Y114.57 E21.81034
G1 X98.619 Y107.57 E22.04316
G1 X98.683 Y107.57 E22.04529
G1 X98.683 Y114.57 E22.08264
G1 X127.149 Y114.57 E23.02942
G1 X127.149 Y116.37 E23.08929
G1 X98.684 Y116.37 E24.03604
G1 X98.684 Y121.37 E24.06313
M204 S2000
G0 F7500 X99.084 Y121.77
M204 S500
;TYPE:WALL-OUTER
G1 F1500 X98.219 Y121.77 E24.0919
