;FLAVOR:Marlin
;TIME:5618
;Filament used: 3.55853m
;Layer height: 0.2
;MINX:75.213
;MINY:64.169
;MINZ:0.2
;MAXX:144.785
;MAXY:133.801
;MAXZ:21.8
;Generated with Creality Slicer 4.8.2-218
M140 S60
M105
M190 S60
M104 S200
M105
M109 S200
M82 ;absolute extrusion mode

G28 ;Home

G92 E0 ;Reset Extruder
G1 Z2.0 F3000 ;Move Z Axis up
G1 X10.1 Y20 Z0.28 F5000.0 ;Move to start position
G1 X10.1 Y200.0 Z0.28 F1500.0 E15 ;Draw the first line
G1 X10.4 Y200.0 Z0.28 F5000.0 ;Move to side a little
G1 X10.4 Y20 Z0.28 F1500.0 E30 ;Draw the second line
G92 E0 ;Reset Extruder
G1 Z2.0 F3000 ;Move Z Axis up

G92 E0
G92 E0
G1 F2400 E-0.8
;LAYER_COUNT:109
;LAYER:0
M107
M204 S2000
G0 F7500 X83.522 Y76.46 Z0.2
M204 S500
;TYPE:SKIRT
G1 F2400 E0
G1 F1500 X84.216 Y75.72 E0.03374
G1 X85.103 Y74.804 E0.07615
G1 X85.883 Y73.993 E0.11358
G1 X86.13 Y73.745 E0.12522
G1 X86.657 Y73.231 E0.1497
G1 X86.9 Y73.001 E0.16083
G1 X87.167 Y72.756 E0.17288
G1 X87.422 Y72.529 E0.18424
G1 X87.654 Y72.329 E0.19443
G1 X88.004 Y72.039 E0.20955
G1 X88.142 Y71.928 E0.21544
G1 X88.679 Y71.505 E0.23817
G1 X88.912 Y71.326 E0.24794
G1 X89.179 Y71.127 E0.25902
G1 X89.718 Y70.738 E0.28113
G1 X89.922 Y70.594 E0.28943
G1 X90.655 Y70.091 E0.319
G1 X90.969 Y69.884 E0.33151
G1 X91.713 Y69.41 E0.36085
G1 X92.002 Y69.232 E0.37214
G1 X92.579 Y68.889 E0.39447
G1 X93.165 Y68.564 E0.41675
G1 X93.536 Y68.373 E0.43063
G1 X93.768 Y68.257 E0.43926
G1 X94.654 Y67.828 E0.472
G1 X95.36 Y67.497 E0.49793
G1 X95.651 Y67.366 E0.50855
G1 X97.362 Y66.624 E0.57058
G1 X97.978 Y66.369 E0.59275
G1 X98.855 Y66.05 E0.62379
G1 X99.253 Y65.929 E0.63763
G1 X99.941 Y65.731 E0.66144
G1 X100.381 Y65.61 E0.67662
G1 X101.533 Y65.298 E0.71631
G1 X101.912 Y65.202 E0.72932
G1 X102.075 Y65.164 E0.73488
G1 X102.53 Y65.068 E0.75035
G1 X103.52 Y64.881 E0.78386
G1 X105.309 Y64.573 E0.84424
G1 X106.109 Y64.447 E0.87117
G1 X106.878 Y64.354 E0.89694
G1 X107.389 Y64.32 E0.91397
G1 X108.133 Y64.289 E0.93874
G1 X109.727 Y64.241 E0.99178
G1 X111.206 Y64.179 E1.04101
G1 X111.666 Y64.169 E1.05632
G1 X111.933 Y64.169 E1.0652
G1 X112.709 Y64.196 E1.09102
G1 X113.218 Y64.232 E1.10799
G1 X113.938 Y64.307 E1.13207
G1 X114.26 Y64.353 E1.14289
G1 X115.285 Y64.51 E1.17738
G1 X116.331 Y64.722 E1.21288
G1 X119.082 Y65.423 E1.3073
G1 X119.545 Y65.551 E1.32328
G1 X120.368 Y65.798 E1.35185
G1 X121.164 Y66.048 E1.3796
G1 X122.015 Y66.329 E1.40941
G1 X123.184 Y66.79 E1.45121
G1 X123.545 Y66.957 E1.46444
G1 X124.548 Y67.407 E1.501
G1 X125.01 Y67.622 E1.51795
G1 X125.567 Y67.9 E1.53865
G1 X126.231 Y68.256 E1.56371
G1 X127.171 Y68.752 E1.59906
G1 X127.76 Y69.086 E1.62158
G1 X128.463 Y69.514 E1.64896
G1 X128.749 Y69.694 E1.6602
G1 X128.927 Y69.81 E1.66726
G1 X129.521 Y70.226 E1.69138
G1 X130.125 Y70.679 E1.7165
G1 X130.41 Y70.9 E1.72849
G1 X130.562 Y71.022 E1.73497
G1 X130.804 Y71.222 E1.74541
G1 X131.809 Y72.078 E1.78932
G1 X132.053 Y72.291 E1.8001
G1 X133.079 Y73.151 E1.84462
G1 X133.705 Y73.667 E1.87161
G1 X134.226 Y74.125 E1.89468
G1 X134.634 Y74.507 E1.91327
G1 X135.133 Y75.005 E1.93671
G1 X135.511 Y75.408 E1.95509
G1 X135.766 Y75.672 E1.9673
G1 X136.062 Y75.991 E1.98177
G1 X136.542 Y76.519 E2.00551
G1 X136.993 Y77.046 E2.02858
G1 X137.121 Y77.206 E2.03539
G1 X137.415 Y77.591 E2.0515
G1 X137.749 Y78.05 E2.07039
G1 X138.376 Y78.929 E2.1063
G1 X138.629 Y79.295 E2.12109
G1 X139.021 Y79.883 E2.1446
G1 X139.699 Y80.945 E2.18651
G1 X139.857 Y81.201 E2.19651
G1 X139.987 Y81.418 E2.20493
G1 X140.156 Y81.709 E2.21612
G1 X140.819 Y82.899 E2.26143
G1 X141.109 Y83.436 E2.28172
G1 X141.419 Y84.057 E2.30481
G1 X141.858 Y85.009 E2.33968
G1 X142.003 Y85.336 E2.35158
G1 X142.231 Y85.876 E2.37107
G1 X142.455 Y86.453 E2.39166
G1 X142.712 Y87.178 E2.41724
G1 X143.278 Y88.878 E2.47684
G1 X143.363 Y89.146 E2.48619
G1 X143.491 Y89.566 E2.50079
G1 X143.599 Y89.944 E2.51387
G1 X143.669 Y90.207 E2.52292
G1 X143.802 Y90.766 E2.54203
G1 X143.958 Y91.507 E2.56721
G1 X144.247 Y92.956 E2.61636
G1 X144.37 Y93.603 E2.63826
G1 X144.477 Y94.274 E2.66086
G1 X144.595 Y95.205 E2.69208
G1 X144.634 Y95.556 E2.70382
G1 X144.681 Y96.055 E2.72049
G1 X144.723 Y96.712 E2.74239
G1 X144.757 Y97.709 E2.77557
G1 X144.762 Y97.913 E2.78235
G1 X144.784 Y99.415 E2.83232
G1 X144.785 Y100.003 E2.85187
G1 X144.766 Y100.673 E2.87417
G1 X144.691 Y101.912 E2.91545
G1 X144.661 Y102.268 E2.92733
G1 X144.615 Y102.733 E2.94288
G1 X144.583 Y103.011 E2.95218
G1 X144.51 Y103.594 E2.97173
G1 X144.46 Y103.94 E2.98335
G1 X144.378 Y104.478 E3.00145
G1 X144.254 Y105.154 E3.02431
G1 X143.994 Y106.352 E3.06509
G1 X143.943 Y106.574 E3.07266
G1 X143.753 Y107.365 E3.09972
G1 X143.658 Y107.74 E3.11259
G1 X143.39 Y108.714 E3.14618
G1 X143.326 Y108.939 E3.15397
G1 X143.137 Y109.573 E3.17597
G1 X142.986 Y110.04 E3.19229
G1 X142.759 Y110.682 E3.21494
G1 X142.571 Y111.191 E3.23299
G1 X142.371 Y111.71 E3.25149
G1 X142.229 Y112.057 E3.26396
G1 X141.852 Y112.937 E3.2958
G1 X141.657 Y113.406 E3.31269
G1 X141.554 Y113.645 E3.32135
G1 X141.262 Y114.303 E3.34529
G1 X140.665 Y115.46 E3.3886
G1 X140.097 Y116.416 E3.42558
G1 X139.592 Y117.293 E3.45924
G1 X139.236 Y117.889 E3.48233
G1 X138.887 Y118.435 E3.50388
G1 X138.687 Y118.729 E3.51571
G1 X138.403 Y119.127 E3.53197
G1 X138.264 Y119.313 E3.5397
G1 X138.034 Y119.61 E3.55219
G1 X137.621 Y120.125 E3.57415
G1 X137.22 Y120.598 E3.59477
G1 X136.245 Y121.68 E3.64321
G1 X136.039 Y121.903 E3.65331
G1 X135.291 Y122.767 E3.69132
G1 X134.3 Y123.882 E3.74094
G1 X133.737 Y124.469 E3.76799
G1 X133.603 Y124.599 E3.7742
G1 X132.933 Y125.198 E3.80409
G1 X132.25 Y125.76 E3.83351
G1 X131.023 Y126.736 E3.88565
G1 X130.494 Y127.146 E3.90792
G1 X130.22 Y127.35 E3.91928
G1 X130.011 Y127.501 E3.92785
G1 X129.453 Y127.879 E3.95027
G1 X128.72 Y128.342 E3.97911
G1 X127.56 Y129.051 E4.02432
G1 X126.751 Y129.528 E4.05556
G1 X126.076 Y129.893 E4.08108
G1 X125.889 Y129.986 E4.08803
G1 X125.565 Y130.141 E4.09997
G1 X124.942 Y130.424 E4.12273
G1 X124.42 Y130.652 E4.14168
G1 X123.785 Y130.919 E4.16459
G1 X122.952 Y131.23 E4.19416
G1 X121.969 Y131.552 E4.22857
G1 X121.091 Y131.827 E4.25917
G1 X119.581 Y132.279 E4.31159
G1 X119.242 Y132.375 E4.32331
G1 X119.004 Y132.438 E4.3315
G1 X118.651 Y132.525 E4.34359
G1 X117.989 Y132.677 E4.36618
G1 X117.779 Y132.723 E4.37333
G1 X116.751 Y132.938 E4.40827
G1 X115.96 Y133.091 E4.43506
G1 X114.439 Y133.416 E4.48679
G1 X114.154 Y133.48 E4.49651
G1 X113.446 Y133.614 E4.52047
G1 X113.234 Y133.647 E4.52761
G1 X112.302 Y133.752 E4.5588
G1 X111.779 Y133.775 E4.57622
G1 X110.71 Y133.798 E4.61178
G1 X110.483 Y133.801 E4.61933
G1 X109.151 Y133.801 E4.66363
G1 X108.626 Y133.793 E4.6811
G1 X108.032 Y133.768 E4.70087
G1 X106.822 Y133.684 E4.74121
G1 X106.419 Y133.648 E4.75467
G1 X105.94 Y133.597 E4.77069
G1 X105.531 Y133.546 E4.7844
G1 X105.269 Y133.506 E4.79322
G1 X104.499 Y133.38 E4.81917
G1 X103.09 Y133.129 E4.86677
G1 X102.603 Y133.036 E4.88326
G1 X101.901 Y132.878 E4.90719
G1 X100.742 Y132.577 E4.94702
G1 X100.387 Y132.478 E4.95928
G1 X99.89 Y132.331 E4.97651
G1 X99.242 Y132.117 E4.99921
G1 X98.507 Y131.849 E5.02523
G1 X98.135 Y131.706 E5.03849
G1 X98.039 Y131.667 E5.04193
G1 X97.487 Y131.425 E5.06198
G1 X96.779 Y131.091 E5.08802
G1 X93.858 Y129.773 E5.1946
G1 X93.291 Y129.508 E5.21542
G1 X92.923 Y129.323 E5.22912
G1 X92.634 Y129.172 E5.23996
G1 X92.436 Y129.065 E5.24745
G1 X91.871 Y128.738 E5.26916
G1 X91.679 Y128.619 E5.27667
G1 X91.392 Y128.435 E5.28801
G1 X91.175 Y128.291 E5.29668
G1 X90.936 Y128.128 E5.3063
G1 X90.144 Y127.571 E5.3385
G1 X89.607 Y127.187 E5.36046
G1 X89.351 Y126.998 E5.37104
G1 X88.419 Y126.288 E5.41001
G1 X87.706 Y125.723 E5.44027
G1 X87.251 Y125.353 E5.45977
G1 X86.76 Y124.93 E5.48133
G1 X86.044 Y124.274 E5.51363
G1 X85.759 Y124.003 E5.52671
G1 X85.315 Y123.566 E5.54743
G1 X84.936 Y123.174 E5.56556
G1 X84.821 Y123.049 E5.57121
G1 X84.613 Y122.816 E5.5816
G1 X84.286 Y122.438 E5.59822
G1 X83.089 Y121.022 E5.65989
G1 X82.651 Y120.49 E5.68281
G1 X82.454 Y120.244 E5.6933
G1 X81.843 Y119.457 E5.72643
G1 X81.671 Y119.229 E5.73593
G1 X81.454 Y118.934 E5.74811
G1 X81.127 Y118.465 E5.76713
G1 X81.021 Y118.304 E5.77354
G1 X80.666 Y117.726 E5.7961
G1 X80.572 Y117.562 E5.80239
G1 X79.606 Y115.924 E5.86564
G1 X79.462 Y115.686 E5.87489
G1 X79.132 Y115.1 E5.89726
G1 X78.853 Y114.566 E5.9173
G1 X78.694 Y114.249 E5.92909
G1 X78.6 Y114.054 E5.93629
G1 X78.475 Y113.784 E5.94619
G1 X78.259 Y113.296 E5.96394
G1 X77.915 Y112.476 E5.99351
G1 X77.704 Y111.947 E6.01246
G1 X77.605 Y111.689 E6.02165
G1 X77.428 Y111.205 E6.03879
G1 X76.645 Y109.143 E6.11215
G1 X76.609 Y109.054 E6.11534
G1 X76.288 Y108.128 E6.14794
G1 X76.199 Y107.829 E6.15832
G1 X76.103 Y107.485 E6.17019
G1 X75.994 Y107.058 E6.18485
G1 X75.935 Y106.81 E6.19333
G1 X75.861 Y106.479 E6.20461
G1 X75.817 Y106.265 E6.21188
G1 X75.759 Y105.957 E6.2223
G1 X75.693 Y105.582 E6.23497
G1 X75.572 Y104.676 E6.26537
G1 X75.398 Y102.771 E6.32899
G1 X75.303 Y101.782 E6.36204
G1 X75.274 Y101.417 E6.37422
G1 X75.235 Y100.789 E6.39514
G1 X75.214 Y100.163 E6.41598
G1 X75.213 Y99.542 E6.43663
G1 X75.24 Y97.784 E6.49511
G1 X75.263 Y96.984 E6.52173
G1 X75.302 Y96.327 E6.54362
G1 X75.384 Y95.41 E6.57424
G1 X75.422 Y95.051 E6.58625
G1 X75.487 Y94.521 E6.60401
G1 X75.589 Y93.856 E6.62638
G1 X75.828 Y92.572 E6.66982
G1 X76.039 Y91.517 E6.70561
G1 X76.191 Y90.788 E6.73038
G1 X76.428 Y89.855 E6.76239
G1 X76.791 Y88.658 E6.804
G1 X76.932 Y88.22 E6.8193
G1 X77.337 Y87.022 E6.86136
G1 X77.431 Y86.753 E6.87084
G1 X77.56 Y86.402 E6.88328
G1 X77.674 Y86.105 E6.89386
G1 X77.781 Y85.838 E6.90342
G1 X77.906 Y85.54 E6.91417
G1 X78.205 Y84.857 E6.93897
G1 X78.417 Y84.392 E6.95597
G1 X78.713 Y83.792 E6.97822
G1 X79.27 Y82.744 E7.01769
G1 X79.38 Y82.542 E7.02534
G1 X79.732 Y81.914 E7.04929
G1 X80.091 Y81.292 E7.07317
G1 X80.247 Y81.03 E7.08332
G1 X80.505 Y80.613 E7.09963
G1 X80.733 Y80.256 E7.11371
G1 X80.919 Y79.975 E7.12492
G1 X81.758 Y78.746 E7.17442
G1 X82.158 Y78.182 E7.19741
G1 X82.658 Y77.5 E7.22554
G1 X83.194 Y76.826 E7.25418
G1 X83.522 Y76.46 E7.27053
M204 S2000
G0 F7500 X83.814 Y76.734
M204 S500
G1 F1500 X84.633 Y75.863 E7.31029
G1 X85.39 Y75.083 E7.34645
G1 X86.171 Y74.271 E7.38392
G1 X86.409 Y74.032 E7.39514
G1 X86.936 Y73.518 E7.41962
G1 X87.17 Y73.296 E7.43035
G1 X87.437 Y73.051 E7.4424
G1 X87.683 Y72.832 E7.45336
G1 X87.915 Y72.632 E7.46354
G1 X88.257 Y72.349 E7.47831
G1 X88.927 Y71.819 E7.50672
G1 X89.151 Y71.647 E7.51611
G1 X89.559 Y71.345 E7.533
G1 X89.952 Y71.062 E7.54911
G1 X90.148 Y70.924 E7.55708
G1 X90.881 Y70.421 E7.58665
G1 X91.183 Y70.221 E7.59869
G1 X91.927 Y69.747 E7.62803
G1 X92.207 Y69.575 E7.63896
G1 X92.784 Y69.232 E7.66129
G1 X93.348 Y68.92 E7.68273
G1 X93.719 Y68.729 E7.69661
G1 X93.942 Y68.617 E7.70491
G1 X94.823 Y68.19 E7.73747
G1 X95.529 Y67.859 E7.7634
G1 X95.81 Y67.733 E7.77365
G1 X97.521 Y66.991 E7.83567
G1 X97.695 Y66.917 E7.84196
G1 X98.13 Y66.738 E7.85761
G1 X98.976 Y66.432 E7.88753
G1 X99.364 Y66.313 E7.90103
G1 X100.048 Y66.117 E7.92469
G1 X100.486 Y65.996 E7.93981
G1 X101.638 Y65.684 E7.9795
G1 X102.002 Y65.592 E7.99199
G1 X102.165 Y65.554 E7.99756
G1 X102.605 Y65.461 E8.01252
G1 X103.772 Y65.242 E8.05201
G1 X105.531 Y64.942 E8.11136
G1 X106.171 Y64.842 E8.1329
G1 X106.912 Y64.753 E8.15773
G1 X107.406 Y64.72 E8.17419
G1 X108.146 Y64.689 E8.19883
G1 X109.666 Y64.643 E8.24941
G1 X111.222 Y64.578 E8.3012
G1 X111.666 Y64.569 E8.31597
G1 X111.933 Y64.569 E8.32485
G1 X112.681 Y64.595 E8.34975
G1 X113.19 Y64.631 E8.36672
G1 X113.883 Y64.703 E8.38989
G1 X114.2 Y64.748 E8.40054
G1 X115.225 Y64.905 E8.43503
G1 X116.232 Y65.11 E8.46921
G1 X118.978 Y65.809 E8.56346
G1 X119.135 Y65.851 E8.56886
G1 X119.431 Y65.935 E8.5791
G1 X120.248 Y66.18 E8.60746
G1 X121.194 Y66.478 E8.64045
G1 X121.89 Y66.708 E8.66483
G1 X123.016 Y67.153 E8.7051
G1 X123.391 Y67.326 E8.71884
G1 X124.379 Y67.77 E8.75486
G1 X124.841 Y67.985 E8.77181
G1 X125.378 Y68.253 E8.79178
G1 X126.042 Y68.609 E8.81683
G1 X126.984 Y69.106 E8.85226
G1 X127.552 Y69.428 E8.87397
G1 X128.255 Y69.856 E8.90135
G1 X128.53 Y70.029 E8.91215
G1 X128.708 Y70.145 E8.91922
G1 X129.281 Y70.546 E8.94248
G1 X129.885 Y70.999 E8.96759
G1 X130.16 Y71.212 E8.97916
G1 X130.312 Y71.334 E8.98565
G1 X130.545 Y71.527 E8.99571
G1 X131.545 Y72.379 E9.0394
G1 X131.793 Y72.596 E9.05036
G1 X132.869 Y73.497 E9.09704
G1 X133.45 Y73.976 E9.12209
G1 X133.953 Y74.417 E9.14434
G1 X134.361 Y74.799 E9.16293
G1 X134.842 Y75.279 E9.18553
G1 X135.216 Y75.677 E9.20369
G1 X135.474 Y75.946 E9.21609
G1 X135.766 Y76.26 E9.23035
G1 X136.246 Y76.788 E9.25408
G1 X136.68 Y77.296 E9.27631
G1 X136.808 Y77.456 E9.28312
G1 X137.091 Y77.827 E9.29864
G1 X137.424 Y78.283 E9.31742
G1 X138.047 Y79.157 E9.35312
G1 X138.3 Y79.523 E9.36792
G1 X138.687 Y80.104 E9.39114
G1 X138.792 Y80.265 E9.39753
G1 X139.362 Y81.16 E9.43282
G1 X139.514 Y81.407 E9.44247
G1 X139.644 Y81.624 E9.45088
G1 X139.806 Y81.904 E9.46164
G1 X140.467 Y83.089 E9.50677
G1 X140.757 Y83.626 E9.52707
G1 X141.056 Y84.224 E9.54931
G1 X141.495 Y85.176 E9.58418
G1 X141.634 Y85.492 E9.59566
G1 X141.862 Y86.032 E9.61515
G1 X142.079 Y86.587 E9.63497
G1 X142.257 Y87.085 E9.65256
G1 X142.332 Y87.305 E9.66029
G1 X142.898 Y89.005 E9.71989
G1 X142.981 Y89.263 E9.7289
G1 X143.109 Y89.683 E9.74351
G1 X143.212 Y90.047 E9.75609
G1 X143.282 Y90.31 E9.76514
G1 X143.411 Y90.848 E9.78354
G1 X143.565 Y91.585 E9.80858
G1 X143.854 Y93.03 E9.8576
G1 X143.977 Y93.677 E9.8795
G1 X144.08 Y94.324 E9.90129
G1 X144.198 Y95.255 E9.9325
G1 X144.235 Y95.594 E9.94385
G1 X144.282 Y96.093 E9.96052
G1 X144.323 Y96.726 E9.98161
G1 X144.362 Y97.919 E10.02131
G1 X144.384 Y99.416 E10.07111
G1 X144.385 Y100.004 E10.09067
G1 X144.366 Y100.649 E10.11213
G1 X144.292 Y101.881 E10.15318
G1 X144.263 Y102.229 E10.16479
G1 X144.217 Y102.694 E10.18034
G1 X144.187 Y102.962 E10.18931
G1 X144.134 Y103.387 E10.20355
G1 X144.065 Y103.88 E10.22011
G1 X143.983 Y104.418 E10.23821
G1 X143.863 Y105.069 E10.26022
G1 X143.603 Y106.267 E10.301
G1 X143.554 Y106.481 E10.3083
G1 X143.365 Y107.267 E10.33519
G1 X143.27 Y107.642 E10.34805
G1 X143.004 Y108.608 E10.38138
G1 X142.942 Y108.824 E10.38885
G1 X142.753 Y109.458 E10.41086
G1 X142.641 Y109.812 E10.42321
G1 X142.544 Y110.093 E10.43309
G1 X142.335 Y110.678 E10.45376
G1 X142.142 Y111.195 E10.47211
G1 X141.998 Y111.566 E10.48535
G1 X141.861 Y111.9 E10.49735
G1 X141.483 Y112.784 E10.52933
G1 X141.288 Y113.253 E10.54622
G1 X141.189 Y113.483 E10.55455
G1 X140.897 Y114.141 E10.5785
G1 X140.321 Y115.255 E10.62021
G1 X139.782 Y116.162 E10.6553
G1 X139.248 Y117.088 E10.69085
G1 X138.892 Y117.684 E10.71394
G1 X138.556 Y118.21 E10.7347
G1 X138.356 Y118.504 E10.74653
G1 X138.083 Y118.887 E10.76217
G1 X137.944 Y119.073 E10.7699
G1 X137.722 Y119.36 E10.78196
G1 X137.309 Y119.875 E10.80392
G1 X136.922 Y120.33 E10.82379
G1 X135.951 Y121.409 E10.87207
G1 X135.742 Y121.636 E10.88233
G1 X134.992 Y122.501 E10.92041
G1 X134.001 Y123.616 E10.97002
G1 X133.459 Y124.182 E10.99609
G1 X133.325 Y124.312 E11.0023
G1 X132.679 Y124.889 E11.03111
G1 X131.852 Y125.568 E11.0667
G1 X130.656 Y126.516 E11.11746
G1 X130.25 Y126.829 E11.13451
G1 X129.986 Y127.026 E11.14546
G1 X129.777 Y127.177 E11.15404
G1 X129.239 Y127.541 E11.17564
G1 X128.511 Y128 E11.20427
G1 X127.193 Y128.804 E11.25562
G1 X126.548 Y129.183 E11.2805
G1 X125.898 Y129.535 E11.30508
G1 X125.711 Y129.628 E11.31203
G1 X125.399 Y129.777 E11.32353
G1 X124.781 Y130.058 E11.34611
G1 X124.265 Y130.283 E11.36483
G1 X123.63 Y130.55 E11.38774
G1 X122.827 Y130.85 E11.41626
G1 X121.849 Y131.17 E11.45048
G1 X120.977 Y131.444 E11.48088
G1 X119.467 Y131.896 E11.53331
G1 X119.139 Y131.988 E11.54464
G1 X118.901 Y132.051 E11.55283
G1 X118.561 Y132.135 E11.56447
G1 X117.697 Y132.332 E11.59395
G1 X116.489 Y132.583 E11.63498
G1 X115.854 Y132.704 E11.65648
G1 X114.367 Y133.023 E11.70707
G1 X114.067 Y133.09 E11.71729
G1 X113.384 Y133.219 E11.74041
G1 X113.172 Y133.252 E11.74755
G1 X112.257 Y133.354 E11.77817
G1 X111.77 Y133.376 E11.79438
G1 X110.701 Y133.399 E11.82995
G1 X110.482 Y133.401 E11.83723
G1 X109.157 Y133.401 E11.8813
G1 X108.632 Y133.393 E11.89876
G1 X108.06 Y133.369 E11.9178
G1 X106.85 Y133.285 E11.95815
G1 X106.462 Y133.25 E11.9711
