;FLAVOR:Marlin
;TIME:2190
;Filament used: 1.20855m
;Layer height: 0.2
;MINX:94.162
;MINY:114.204
;MINZ:0.2
;MAXX:152.098
;MAXY:180.567
;MAXZ:12.8
;Generated with Creality Slicer 4.8.2-218
M140 S60
M105
M190 S60
M104 S200
M105
M109 S200
M82 ;absolute extrusion mode

G28 ;Home

G92 E0 ;Reset Extruder
G1 Z2.0 F3000 ;Move Z Axis up
G1 X10.1 Y20 Z0.28 F5000.0 ;Move to start position
G1 X10.1 Y200.0 Z0.28 F1500.0 E15 ;Draw the first line
G1 X10.4 Y200.0 Z0.28 F5000.0 ;Move to side a little
G1 X10.4 Y20 Z0.28 F1500.0 E30 ;Draw the second line
G92 E0 ;Reset Extruder
G1 Z2.0 F3000 ;Move Z Axis up

G92 E0
G92 E0
G1 F2400 E-0.8
;LAYER_COUNT:64
;LAYER:0
M107
M204 S2000
G0 F7500 X101.716 Y116.695 Z0.2
M204 S500
;TYPE:SKIRT
G1 F2400 E0
G1 F1500 X102.466 Y116.132 E0.03119
G1 X103.262 Y115.635 E0.0624
G1 X104.097 Y115.208 E0.0936
G1 X104.965 Y114.853 E0.12479
G1 X105.86 Y114.574 E0.15597
G1 X106.776 Y114.371 E0.18717
G1 X107.706 Y114.248 E0.21837
G1 X108.642 Y114.204 E0.24954
G1 X109.58 Y114.24 E0.28076
G1 X110.51 Y114.356 E0.31193
G1 X111.428 Y114.551 E0.34315
G1 X112.552 Y114.905 E0.38234
G1 X113.182 Y115.141 E0.40472
G1 X115.641 Y116.027 E0.49165
G1 X118.037 Y116.814 E0.57553
G1 X120.454 Y117.533 E0.6594
G1 X122.914 Y118.189 E0.74408
G1 X125.332 Y118.763 E0.82674
G1 X127.82 Y119.279 E0.91125
G1 X130.278 Y119.714 E0.99428
G1 X132.735 Y120.08 E1.0769
G1 X135.287 Y120.386 E1.16239
G1 X137.762 Y120.613 E1.24505
G1 X140.909 Y120.801 E1.34991
G1 X141.542 Y120.828 E1.37098
G1 X142.476 Y120.908 E1.40216
G1 X143.4 Y121.067 E1.43334
G1 X144.308 Y121.305 E1.46456
G1 X145.191 Y121.618 E1.49572
G1 X146.045 Y122.006 E1.52692
G1 X146.863 Y122.466 E1.55813
G1 X147.639 Y122.993 E1.58933
G1 X148.367 Y123.585 E1.62054
G1 X149.041 Y124.236 E1.65171
G1 X149.658 Y124.942 E1.68289
G1 X150.213 Y125.699 E1.71411
G1 X150.701 Y126.5 E1.74531
G1 X151.119 Y127.339 E1.77649
G1 X151.464 Y128.211 E1.80768
G1 X151.733 Y129.109 E1.83885
G1 X151.925 Y130.028 E1.87008
G1 X152.038 Y130.959 E1.90127
G1 X152.068 Y131.508 E1.91956
G1 X152.077 Y131.827 E1.93017
G1 X152.081 Y132.138 E1.94052
G1 X152.08 Y143.089 E2.30475
G1 X152.082 Y146.3 E2.41155
G1 X152.094 Y147.074 E2.4373
G1 X152.09 Y147.207 E2.44172
G1 X152.098 Y148.355 E2.4799
G1 X152.096 Y157.818 E2.79465
G1 X152.098 Y162.472 E2.94944
G1 X152.088 Y163.188 E2.97325
G1 X152.035 Y164.124 E3.00444
G1 X151.902 Y165.052 E3.03562
G1 X151.691 Y165.966 E3.06682
G1 X151.403 Y166.859 E3.09802
G1 X151.039 Y167.723 E3.12921
G1 X150.604 Y168.554 E3.1604
G1 X150.099 Y169.344 E3.19159
G1 X149.529 Y170.089 E3.22279
G1 X148.897 Y170.782 E3.25398
G1 X148.209 Y171.419 E3.28517
G1 X147.469 Y171.995 E3.31636
G1 X146.682 Y172.506 E3.34757
G1 X145.855 Y172.948 E3.37876
G1 X144.993 Y173.318 E3.40996
G1 X144.103 Y173.613 E3.44114
G1 X143.191 Y173.831 E3.47233
G1 X142.263 Y173.971 E3.50354
G1 X141.726 Y174.016 E3.52147
G1 X141.129 Y174.049 E3.54135
G1 X139.305 Y174.13 E3.60208
G1 X136.796 Y174.312 E3.68575
G1 X134.284 Y174.567 E3.76973
G1 X131.792 Y174.891 E3.85331
G1 X129.291 Y175.288 E3.93753
G1 X126.829 Y175.751 E4.02086
G1 X124.402 Y176.278 E4.10346
G1 X121.925 Y176.889 E4.18831
G1 X119.491 Y177.565 E4.27233
G1 X117.122 Y178.295 E4.35478
G1 X114.711 Y179.113 E4.43946
G1 X113.874 Y179.425 E4.46917
G1 X112.531 Y179.911 E4.51668
G1 X111.636 Y180.192 E4.54788
G1 X110.721 Y180.396 E4.57906
G1 X109.792 Y180.521 E4.61023
G1 X108.788 Y180.567 E4.64366
G1 X108.63 Y180.567 E4.64892
G1 X107.693 Y180.527 E4.68011
G1 X106.763 Y180.407 E4.7113
G1 X105.846 Y180.209 E4.7425
G1 X104.95 Y179.933 E4.77368
G1 X104.08 Y179.582 E4.80489
G1 X103.244 Y179.158 E4.83606
G1 X102.446 Y178.664 E4.86728
G1 X101.694 Y178.104 E4.89846
G1 X101.149 Y177.632 E4.92244
G1 X100.997 Y177.491 E4.92934
G1 X100.798 Y177.301 E4.93849
G1 X100.499 Y177.009 E4.95239
G1 X97.899 Y174.409 E5.07469
G1 X97.384 Y173.881 E5.09922
G1 X96.759 Y173.182 E5.13041
G1 X96.195 Y172.432 E5.16162
G1 X95.697 Y171.638 E5.19279
G1 X95.269 Y170.803 E5.224
G1 X94.913 Y169.936 E5.25517
G1 X94.632 Y169.041 E5.28637
G1 X94.429 Y168.125 E5.31758
G1 X94.304 Y167.196 E5.34875
G1 X94.259 Y166.259 E5.37996
G1 X94.288 Y165.404 E5.40841
G1 X94.307 Y165.142 E5.41715
G1 X94.436 Y164.079 E5.45276
G1 X94.887 Y161.45 E5.54148
G1 X95.242 Y158.951 E5.62543
G1 X95.528 Y156.432 E5.70975
G1 X95.737 Y153.971 E5.7919
G1 X95.88 Y151.434 E5.87641
G1 X95.952 Y148.9 E5.96073
G1 X95.952 Y146.404 E6.04375
G1 X95.88 Y143.863 E6.12829
G1 X95.739 Y141.386 E6.21081
G1 X95.523 Y138.838 E6.29586
G1 X95.241 Y136.369 E6.37852
G1 X94.883 Y133.851 E6.46311
G1 X94.546 Y131.846 E6.53073
G1 X94.335 Y130.671 E6.57044
G1 X94.209 Y129.742 E6.60162
G1 X94.162 Y128.805 E6.63282
G1 X94.196 Y127.868 E6.66401
G1 X94.309 Y126.937 E6.6952
G1 X94.501 Y126.019 E6.72639
G1 X94.771 Y125.121 E6.75758
G1 X95.116 Y124.249 E6.78877
G1 X95.534 Y123.409 E6.81998
G1 X96.023 Y122.608 E6.85119
G1 X96.577 Y121.852 E6.88236
G1 X97.156 Y121.187 E6.91169
G1 X97.368 Y120.962 E6.92197
G1 X97.596 Y120.727 E6.93286
G1 X100.535 Y117.789 E7.07108
G1 X101.017 Y117.32 E7.09345
G1 X101.716 Y116.695 E7.12464
M204 S2000
G0 F7500 X101.983 Y116.994
M204 S500
G1 F1500 X102.721 Y116.443 E7.15527
G1 X103.503 Y115.959 E7.18586
G1 X104.325 Y115.544 E7.21648
G1 X105.18 Y115.201 E7.24713
G1 X106.061 Y114.935 E7.27773
G1 X106.962 Y114.745 E7.30836
G1 X107.876 Y114.635 E7.33898
G1 X108.796 Y114.605 E7.36959
G1 X109.715 Y114.654 E7.4002
G1 X110.627 Y114.783 E7.43084
G1 X111.524 Y114.99 E7.46146
G1 X112.411 Y115.279 E7.49249
G1 X113.096 Y115.536 E7.51682
G1 X115.497 Y116.4 E7.60169
G1 X117.935 Y117.201 E7.68704
G1 X120.351 Y117.92 E7.77088
G1 X122.782 Y118.569 E7.85457
G1 X125.238 Y119.151 E7.93852
G1 X127.767 Y119.676 E8.02443
G1 X130.186 Y120.105 E8.10614
G1 X132.73 Y120.483 E8.19168
G1 X135.204 Y120.78 E8.27456
G1 X137.735 Y121.012 E8.35909
G1 X140.926 Y121.202 E8.46541
G1 X141.525 Y121.228 E8.48536
G1 X142.442 Y121.307 E8.51597
G1 X143.349 Y121.465 E8.54659
G1 X144.238 Y121.702 E8.57719
G1 X145.104 Y122.015 E8.60782
G1 X145.94 Y122.402 E8.63846
G1 X146.738 Y122.86 E8.66906
G1 X147.494 Y123.385 E8.69967
G1 X148.202 Y123.974 E8.7303
G1 X148.856 Y124.622 E8.76093
G1 X149.451 Y125.325 E8.79156
G1 X149.982 Y126.077 E8.82218
G1 X150.447 Y126.871 E8.85278
G1 X150.841 Y127.704 E8.88343
G1 X151.161 Y128.567 E8.91404
G1 X151.405 Y129.454 E8.94464
G1 X151.571 Y130.36 E8.97528
G1 X151.668 Y131.519 E9.01396
G1 X151.677 Y131.838 E9.02457
G1 X151.681 Y132.138 E9.03455
G1 X151.68 Y143.089 E9.39878
G1 X151.682 Y146.306 E9.50578
G1 X151.694 Y147.08 E9.53153
G1 X151.69 Y147.211 E9.53589
G1 X151.698 Y148.355 E9.57394
G1 X151.696 Y157.818 E9.88868
G1 X151.698 Y162.466 E10.04327
G1 X151.688 Y163.182 E10.06709
G1 X151.635 Y164.101 E10.0977
G1 X151.503 Y165.012 E10.12832
G1 X151.292 Y165.908 E10.15894
G1 X151.004 Y166.783 E10.18958
G1 X150.641 Y167.629 E10.22019
G1 X150.206 Y168.441 E10.25083
G1 X149.703 Y169.211 E10.28142
G1 X149.134 Y169.936 E10.31208
G1 X148.505 Y170.608 E10.34269
G1 X147.82 Y171.223 E10.37331
G1 X147.084 Y171.776 E10.40393
G1 X146.303 Y172.263 E10.43454
G1 X145.483 Y172.681 E10.46515
G1 X144.629 Y173.025 E10.49578
G1 X143.749 Y173.295 E10.52639
G1 X142.848 Y173.487 E10.55703
G1 X141.703 Y173.616 E10.59535
G1 X141.111 Y173.65 E10.61508
G1 X139.258 Y173.732 E10.67677
G1 X136.759 Y173.914 E10.76011
G1 X134.228 Y174.17 E10.84472
G1 X131.749 Y174.493 E10.92787
G1 X129.226 Y174.893 E11.01283
G1 X126.776 Y175.354 E11.09575
G1 X124.293 Y175.893 E11.18025
G1 X121.827 Y176.502 E11.26474
G1 X119.381 Y177.181 E11.34917
G1 X116.97 Y177.923 E11.43307
G1 X114.59 Y178.732 E11.51668
G1 X113.738 Y179.048 E11.5469
G1 X112.395 Y179.534 E11.59441
G1 X111.516 Y179.81 E11.62505
G1 X110.617 Y180.008 E11.65567
G1 X109.705 Y180.127 E11.68626
G1 X108.788 Y180.167 E11.71678
G1 X108.63 Y180.167 E11.72204
G1 X107.71 Y180.127 E11.75267
G1 X106.797 Y180.007 E11.7833
G1 X105.898 Y179.809 E11.81391
G1 X105.02 Y179.533 E11.84452
G1 X104.169 Y179.182 E11.87514
G1 X103.351 Y178.759 E11.90577
G1 X102.574 Y178.266 E11.93638
G1 X101.842 Y177.708 E11.96699
G1 X101.421 Y177.338 E11.98563
G1 X101.077 Y177.015 E12.00133
G1 X100.782 Y176.726 E12.01506
G1 X98.186 Y174.129 E12.13719
G1 X97.671 Y173.601 E12.16173
G1 X97.057 Y172.915 E12.19235
G1 X96.505 Y172.178 E12.22297
G1 X96.02 Y171.396 E12.25358
G1 X95.604 Y170.575 E12.28419
G1 X95.261 Y169.72 E12.31483
G1 X94.993 Y168.839 E12.34546
G1 X94.803 Y167.939 E12.37605
G1 X94.691 Y167.025 E12.40668
G1 X94.659 Y166.105 E12.4373
G1 X94.687 Y165.433 E12.45967
G1 X94.706 Y165.171 E12.4684
G1 X94.83 Y164.147 E12.50271
G1 X95.282 Y161.508 E12.59176
G1 X95.642 Y158.981 E12.67666
G1 X95.922 Y156.513 E12.75927
G1 X96.14 Y153.957 E12.84459
G1 X96.28 Y151.467 E12.92754
G1 X96.352 Y148.911 E13.01259
G1 X96.352 Y146.401 E13.09607
G1 X96.28 Y143.865 E13.18045
G1 X96.136 Y141.327 E13.265
G1 X95.924 Y138.83 E13.34835
G1 X95.636 Y136.304 E13.43291
G1 X95.279 Y133.801 E13.51701
G1 X94.95 Y131.838 E13.58321
G1 X94.728 Y130.601 E13.62501
G1 X94.605 Y129.688 E13.65565
G1 X94.562 Y128.769 E13.68625
G1 X94.599 Y127.849 E13.71687
G1 X94.715 Y126.935 E13.74751
G1 X94.91 Y126.036 E13.77811
G1 X95.183 Y125.156 E13.80876
G1 X95.53 Y124.304 E13.83935
G1 X95.951 Y123.485 E13.86998
G1 X96.441 Y122.705 E13.90062
G1 X96.996 Y121.971 E13.93122
G1 X97.447 Y121.461 E13.95387
G1 X97.659 Y121.236 E13.96415
G1 X97.879 Y121.01 E13.97464
G1 X100.814 Y118.076 E14.11267
G1 X101.296 Y117.607 E14.13504
G1 X101.983 Y116.994 E14.16566
M204 S2000
G0 F7500 X102.249 Y117.293
M204 S500
G1 F1500 X102.974 Y116.755 E14.19569
G1 X103.744 Y116.282 E14.22575
G1 X104.553 Y115.88 E14.25579
G1 X105.394 Y115.551 E14.28583
G1 X106.26 Y115.297 E14.31585
G1 X107.146 Y115.121 E14.34589
G1 X108.044 Y115.024 E14.37593
G1 X108.947 Y115.007 E14.40597
G1 X109.848 Y115.07 E14.43601
G1 X110.74 Y115.212 E14.46605
G1 X111.615 Y115.433 E14.49607
G1 X112.271 Y115.654 E14.51909
G1 X112.927 Y115.9 E14.54239
G1 X115.374 Y116.781 E14.6289
G1 X117.802 Y117.578 E14.71389
G1 X120.239 Y118.303 E14.79846
G1 X122.7 Y118.961 E14.88319
G1 X125.162 Y119.544 E14.96734
G1 X127.655 Y120.061 E15.05202
G1 X130.163 Y120.506 E15.13674
G1 X132.66 Y120.877 E15.2207
G1 X135.191 Y121.181 E15.30549
G1 X137.673 Y121.408 E15.38838
G1 X140.887 Y121.601 E15.49547
G1 X141.507 Y121.627 E15.51611
G1 X142.407 Y121.706 E15.54616
G1 X143.296 Y121.864 E15.57619
G1 X144.168 Y122.099 E15.60623
G1 X145.016 Y122.411 E15.63628
G1 X145.832 Y122.797 E15.66631
G1 X146.612 Y123.253 E15.69636
G1 X147.347 Y123.777 E15.72638
G1 X148.034 Y124.364 E15.75644
G1 X148.666 Y125.009 E15.78647
G1 X149.239 Y125.707 E15.81651
G1 X149.747 Y126.453 E15.84653
G1 X150.188 Y127.242 E15.87659
G1 X150.557 Y128.066 E15.90662
G1 X150.852 Y128.92 E15.93667
G1 X151.07 Y129.796 E15.96669
G1 X151.209 Y130.688 E15.99672
G1 X151.268 Y131.53 E16.02479
G1 X151.277 Y131.849 E16.03541
G1 X151.281 Y132.138 E16.04502
G1 X151.28 Y143.089 E16.40925
G1 X151.282 Y146.313 E16.51648
G1 X151.294 Y147.086 E16.5422
G1 X151.29 Y147.214 E16.54646
G1 X151.298 Y148.355 E16.58441
G1 X151.296 Y157.818 E16.89915
G1 X151.298 Y162.46 E17.05354
G1 X151.288 Y163.176 E17.07736
G1 X151.235 Y164.078 E17.10741
G1 X151.103 Y164.971 E17.13743
G1 X150.893 Y165.85 E17.16749
G1 X150.605 Y166.706 E17.19753
G1 X150.243 Y167.533 E17.22756
G1 X149.809 Y168.325 E17.25759
G1 X149.307 Y169.076 E17.28764
G1 X148.74 Y169.779 E17.31768
G1 X148.114 Y170.429 E17.34769
G1 X147.432 Y171.022 E17.37775
G1 X146.701 Y171.551 E17.40776
G1 X145.925 Y172.014 E17.43782
G1 X145.112 Y172.407 E17.46785
G1 X144.267 Y172.726 E17.49789
G1 X143.397 Y172.969 E17.52794
G1 X142.51 Y173.135 E17.55795
G1 X141.68 Y173.217 E17.58569
G1 X141.093 Y173.25 E17.60525
G1 X139.247 Y173.332 E17.66671
G1 X136.726 Y173.515 E17.75077
G1 X134.208 Y173.77 E17.83495
G1 X131.666 Y174.101 E17.92021
G1 X129.16 Y174.499 E18.00461
G1 X126.696 Y174.962 E18.08799
G1 X124.21 Y175.502 E18.17261
G1 X121.729 Y176.114 E18.2576
G1 X119.262 Y176.799 E18.34276
G1 X116.84 Y177.545 E18.42705
G1 X114.448 Y178.357 E18.51106
G1 X113.602 Y178.672 E18.54109
G1 X112.259 Y179.158 E18.58859
G1 X111.397 Y179.428 E18.61864
G1 X110.514 Y179.62 E18.64869
G1 X109.618 Y179.733 E18.67873
G1 X108.788 Y179.767 E18.70636
G1 X108.63 Y179.767 E18.71161
G1 X107.728 Y179.727 E18.74164
G1 X106.833 Y179.607 E18.77168
G1 X105.952 Y179.409 E18.80171
G1 X105.092 Y179.134 E18.83174
G1 X104.259 Y178.783 E18.86181
G1 X103.461 Y178.36 E18.89185
G1 X102.704 Y177.869 E18.92186
G1 X101.693 Y177.045 E18.96524
G1 X101.541 Y176.904 E18.97213
G1 X101.356 Y176.728 E18.98062
G1 X101.065 Y176.443 E18.99417
G1 X98.472 Y173.85 E19.11614
G1 X97.957 Y173.322 E19.14067
G1 X97.356 Y172.648 E19.17071
G1 X96.816 Y171.924 E19.20075
G1 X96.343 Y171.155 E19.23077
G1 X95.94 Y170.347 E19.26081
G1 X95.61 Y169.506 E19.29085
G1 X95.355 Y168.64 E19.32088
G1 X95.178 Y167.754 E19.35093
G1 X95.08 Y166.856 E19.38098
G1 X95.062 Y165.953 E19.41102
G1 X95.086 Y165.462 E19.42737
G1 X95.105 Y165.2 E19.4361
G1 X95.225 Y164.214 E19.46914
G1 X95.674 Y161.594 E19.55755
G1 X96.036 Y159.045 E19.64318
G1 X96.323 Y156.52 E19.7277
G1 X96.537 Y154.012 E19.81142
G1 X96.68 Y151.466 E19.89624
G1 X96.752 Y148.923 E19.98085
G1 X96.752 Y146.389 E20.06513
G1 X96.68 Y143.831 E20.15025
G1 X96.538 Y141.346 E20.23303
G1 X96.318 Y138.75 E20.31969
G1 X96.035 Y136.269 E20.40274
G1 X95.673 Y133.724 E20.48824
G1 X95.354 Y131.824 E20.55232
G1 X95.122 Y130.53 E20.59604
G1 X95.002 Y129.635 E20.62608
G1 X94.962 Y128.733 E20.65611
G1 X95.002 Y127.83 E20.68617
G1 X95.121 Y126.935 E20.7162
G1 X95.319 Y126.054 E20.74623
G1 X95.594 Y125.194 E20.77626
G1 X95.945 Y124.362 E20.8063
G1 X96.367 Y123.563 E20.83635
G1 X96.859 Y122.806 E20.86638
G1 X97.415 Y122.095 E20.8964
G1 X97.738 Y121.735 E20.91249
G1 X97.95 Y121.51 E20.92277
G1 X98.162 Y121.293 E20.93286
G1 X101.093 Y118.363 E21.0707
G1 X101.575 Y117.894 E21.09307
G1 X102.249 Y117.293 E21.1231
M204 S2000
G1 F2400 E20.3231
G0 F7500 X104.572 Y129.085
G0 X114.008 Y156.201
G0 X115.358 Y159.044
M204 S500
G1 F2400 E21.1231
G1 F1500 X116.207 Y159.044 E21.15134
G1 X108.706 Y166.548 E21.50424
G1 X108.278 Y166.121 E21.52434
G1 X115.358 Y159.044 E21.85729
M204 S2000
G0 F7500 X115.193 Y158.644
M204 S500
G1 F1500 X117.172 Y158.644 E21.92312
G1 X108.706 Y167.114 E22.32143
G1 X107.713 Y166.122 E22.36811
G1 X115.193 Y158.644 E22.7199
M204 S2000
G0 F7500 X115.027 Y158.244
M204 S500
G1 F1500 X118.138 Y158.244 E22.82337
G1 X108.706 Y167.679 E23.26709
G1 X107.147 Y166.121 E23.3404
G1 X115.027 Y158.244 E23.71098
M204 S2000
G0 F7500 X114.861 Y157.844
M204 S500
G1 F1500 X119.104 Y157.844 E23.8521
G1 X108.707 Y168.245 E24.34124
G1 X106.581 Y166.121 E24.44119
G1 X114.861 Y157.844 E24.83059
M204 S2000
G0 F7500 X114.695 Y157.444
M204 S500
G1 F1500 X120.069 Y157.444 E25.00933
G1 X108.707 Y168.811 E25.54388
G1 X106.015 Y166.121 E25.67046
G1 X114.695 Y157.444 E26.07867
M204 S2000
G0 F7500 X114.529 Y157.044
M204 S500
G1 F1500 X121.035 Y157.044 E26.29506
G1 X108.707 Y169.377 E26.87505
G1 X105.449 Y166.121 E27.02825
G1 X114.529 Y157.044 E27.45527
M204 S2000
G1 F2400 E26.65527
G0 F7500 X114.008 Y156.201
G0 X114.008 Y152.887
G0 X114.461 Y152.434
G0 X135.609 Y145.294
M204 S500
G1 F2400 E27.45527
G1 F1500 X135.609 Y142.808 E27.53796
G1 X138.004 Y142.808 E27.61761
G1 X138.004 Y145.294 E27.7003
G1 X135.609 Y145.294 E27.77996
M204 S2000
G0 F7500 X136.009 Y144.894
M204 S500
G1 F1500 X136.009 Y143.208 E27.83603
G1 X137.604 Y143.208 E27.88908
G1 X137.604 Y144.894 E27.94516
G1 X136.009 Y144.894 E27.99821
M204 S2000
G0 F7500 X136.409 Y144.494
M204 S500
G1 F1500 X136.409 Y143.608 E28.02768
G1 X137.204 Y143.608 E28.05412
G1 X137.204 Y144.494 E28.08359
G1 X136.409 Y144.494 E28.11003
M204 S2000
G1 F2400 E27.31003
G0 F7500 X114.694 Y142.469
G0 X114.19 Y141.965
G0 X104.572 Y129.085
G0 X104.572 Y128.371
G0 X108.33 Y124.613
G0 X108.972 Y124.613
G0 X135.608 Y137.808
M204 S500
G1 F2400 E28.11003
G1 F1500 X135.608 Y132.008 E28.30294
G1 X136.326 Y132.008 E28.32682
G1 X136.326 Y137.808 E28.51973
G1 X135.608 Y137.808 E28.54361
M204 S2000
G0 F7500 X136.726 Y137.808
M204 S500
;TYPE:SUPPORT-INTERFACE
