;FLAVOR:Marlin
;TIME:4268
;Filament used: 1.91317m
;Layer height: 0.2
;MINX:79.859
;MINY:66.024
;MINZ:0.2
;MAXX:139.94
;MAXY:153.991
;MAXZ:34.2
;Generated with Creality Slicer 4.8.2-218
M140 S60
M105
M190 S60
M104 S200
M105
M109 S200
M82 ;absolute extrusion mode

G28 ;Home

G92 E0 ;Reset Extruder
G1 Z2.0 F3000 ;Move Z Axis up
G1 X10.1 Y20 Z0.28 F5000.0 ;Move to start position
G1 X10.1 Y200.0 Z0.28 F1500.0 E15 ;Draw the first line
G1 X10.4 Y200.0 Z0.28 F5000.0 ;Move to side a little
G1 X10.4 Y20 Z0.28 F1500.0 E30 ;Draw the second line
G92 E0 ;Reset Extruder
G1 Z2.0 F3000 ;Move Z Axis up

G92 E0
G92 E0
G1 F2400 E-0.8
;LAYER_COUNT:171
;LAYER:0
M107
M204 S2000
G0 F7500 X84.895 Y71.852 Z0.2
M204 S500
;TYPE:SKIRT
G1 F2400 E0
G1 F1500 X85.55 Y71.181 E0.03119
G1 X86.331 Y70.513 E0.06537
G1 X86.525 Y70.362 E0.07355
G1 X87.289 Y69.818 E0.10474
G1 X88.096 Y69.341 E0.13592
G1 X89.145 Y68.849 E0.17446
G1 X89.389 Y68.75 E0.18321
G1 X90.273 Y68.435 E0.21443
G1 X91.187 Y68.194 E0.24587
G1 X92.079 Y68 E0.27623
G1 X94.532 Y67.433 E0.35997
G1 X97.591 Y66.625 E0.4652
G1 X97.844 Y66.554 E0.47394
G1 X98.743 Y66.342 E0.50466
G1 X99.186 Y66.257 E0.51966
G1 X99.808 Y66.156 E0.54062
G1 X100.056 Y66.123 E0.54894
G1 X101.286 Y66.029 E0.58997
G1 X101.485 Y66.025 E0.59659
G1 X101.854 Y66.024 E0.60886
G1 X102.152 Y66.028 E0.61878
G1 X103.088 Y66.081 E0.64996
G1 X103.679 Y66.155 E0.66977
G1 X104.088 Y66.218 E0.68353
G1 X104.728 Y66.336 E0.70518
G1 X104.951 Y66.384 E0.71276
G1 X106.202 Y66.732 E0.75595
G1 X106.646 Y66.887 E0.77159
G1 X106.994 Y67.015 E0.78393
G1 X108.144 Y67.514 E0.82562
G1 X108.287 Y67.586 E0.83095
G1 X108.685 Y67.797 E0.84593
G1 X109.016 Y67.981 E0.85853
G1 X109.37 Y68.186 E0.87213
G1 X111.527 Y69.517 E0.95643
G1 X113.683 Y70.766 E1.0393
G1 X115.918 Y71.977 E1.12385
G1 X118.172 Y73.118 E1.20788
G1 X120.437 Y74.184 E1.29114
G1 X122.742 Y75.191 E1.3748
G1 X125.127 Y76.155 E1.46036
G1 X127.435 Y77.01 E1.54222
G1 X129.861 Y77.833 E1.62743
G1 X130.57 Y78.059 E1.65218
G1 X130.813 Y78.141 E1.66071
G1 X131.688 Y78.479 E1.69191
G1 X132.531 Y78.89 E1.7231
G1 X133.336 Y79.371 E1.75429
G1 X134.097 Y79.919 E1.78548
G1 X134.809 Y80.53 E1.81669
G1 X135.466 Y81.199 E1.84787
G1 X136.064 Y81.922 E1.87908
G1 X136.598 Y82.693 E1.91027
G1 X137.064 Y83.506 E1.94144
G1 X137.46 Y84.357 E1.97266
G1 X137.781 Y85.238 E2.00385
G1 X138.026 Y86.143 E2.03503
G1 X138.194 Y87.066 E2.06623
G1 X138.291 Y88.239 E2.10538
G1 X138.301 Y88.577 E2.11663
G1 X138.306 Y88.902 E2.12744
G1 X138.305 Y98.256 E2.43855
G1 X138.294 Y98.974 E2.46244
G1 X138.206 Y100.205 E2.50349
G1 X138.073 Y101.229 E2.53783
G1 X137.969 Y101.954 E2.56219
G1 X137.681 Y104.463 E2.64619
G1 X137.467 Y106.94 E2.72888
G1 X137.32 Y109.493 E2.81393
G1 X137.247 Y111.982 E2.89675
G1 X137.243 Y114.506 E2.9807
G1 X137.312 Y117.027 E3.06458
G1 X137.451 Y119.524 E3.14776
G1 X137.663 Y122.064 E3.23254
G1 X137.941 Y124.53 E3.31508
G1 X138.3 Y127.068 E3.40033
G1 X138.713 Y129.498 E3.48231
G1 X139.213 Y132.003 E3.56727
G1 X139.642 Y133.903 E3.63206
G1 X139.845 Y135.117 E3.673
G1 X139.868 Y135.325 E3.67996
G1 X139.934 Y136.408 E3.71604
G1 X139.94 Y136.97 E3.73474
G1 X139.939 Y142.324 E3.91281
G1 X139.929 Y143.026 E3.93616
G1 X139.876 Y143.962 E3.96734
G1 X139.743 Y144.89 E3.99852
G1 X139.531 Y145.804 E4.02973
G1 X139.243 Y146.697 E4.06094
G1 X138.879 Y147.561 E4.09212
G1 X138.443 Y148.392 E4.12333
G1 X137.938 Y149.182 E4.15452
G1 X137.368 Y149.926 E4.18569
G1 X136.708 Y150.647 E4.2182
G1 X136.596 Y150.759 E4.22347
G1 X135.905 Y151.393 E4.25466
G1 X135.163 Y151.967 E4.28586
G1 X134.374 Y152.474 E4.31706
G1 X133.546 Y152.913 E4.34823
G1 X132.682 Y153.28 E4.37945
G1 X131.791 Y153.572 E4.41063
G1 X130.878 Y153.786 E4.44182
G1 X129.95 Y153.923 E4.47302
G1 X129.189 Y153.975 E4.49839
G1 X128.804 Y153.985 E4.5112
G1 X128.261 Y153.991 E4.52926
G1 X123.808 Y153.99 E4.67737
G1 X123.124 Y153.98 E4.70012
G1 X122.496 Y153.953 E4.72103
G1 X122.176 Y153.93 E4.7317
G1 X121.818 Y153.898 E4.74366
G1 X121.551 Y153.87 E4.75259
G1 X120.668 Y153.741 E4.78227
G1 X119.53 Y153.527 E4.82078
G1 X118.171 Y153.26 E4.86684
G1 X115.676 Y152.842 E4.95098
G1 X113.214 Y152.502 E5.03365
G1 X110.675 Y152.223 E5.1186
G1 X108.183 Y152.021 E5.20176
G1 X105.667 Y151.888 E5.28556
G1 X103.128 Y151.826 E5.37003
G1 X100.967 Y151.83 E5.44191
G1 X100.603 Y151.835 E5.45402
G1 X100.234 Y151.834 E5.46629
G1 X100.028 Y151.83 E5.47314
G1 X99.092 Y151.772 E5.50433
G1 X98.522 Y151.697 E5.52345
G1 X97.988 Y151.611 E5.54144
G1 X96.145 Y151.292 E5.60365
G1 X94.539 Y151.067 E5.65759
G1 X93.215 Y150.87 E5.70211
G1 X91.951 Y150.605 E5.74507
G1 X91.476 Y150.476 E5.76144
G1 X90.582 Y150.192 E5.79264
G1 X89.338 Y149.648 E5.8378
G1 X88.917 Y149.432 E5.85353
G1 X88.101 Y148.969 E5.88474
G1 X87.017 Y148.195 E5.92904
G1 X86.655 Y147.902 E5.94453
G1 X86.172 Y147.487 E5.96571
G1 X85.503 Y146.829 E5.99692
G1 X85.19 Y146.479 E6.01254
G1 X84.862 Y146.096 E6.02931
G1 X84.283 Y145.358 E6.06051
G1 X83.587 Y144.257 E6.10383
G1 X83.412 Y143.94 E6.11587
G1 X82.906 Y142.897 E6.15443
G1 X82.785 Y142.61 E6.16479
G1 X82.358 Y141.406 E6.20728
G1 X82.272 Y141.11 E6.21753
G1 X82.049 Y140.199 E6.24873
G1 X81.896 Y139.202 E6.28227
G1 X81.849 Y138.759 E6.29709
G1 X81.789 Y137.769 E6.33008
G1 X81.775 Y136.764 E6.36351
G1 X81.775 Y125.841 E6.72681
G1 X81.738 Y123.232 E6.81359
G1 X81.631 Y120.71 E6.89755
G1 X81.454 Y118.216 E6.98071
G1 X81.207 Y115.721 E7.0641
G1 X80.89 Y113.247 E7.14706
G1 X80.342 Y109.852 E7.26144
G1 X80.076 Y108.373 E7.31142
G1 X80.023 Y108.051 E7.32227
G1 X79.985 Y107.797 E7.33082
G1 X79.874 Y106.635 E7.36964
G1 X79.867 Y106.47 E7.37513
G1 X79.859 Y105.819 E7.39679
G1 X79.866 Y105.403 E7.41062
G1 X79.921 Y104.467 E7.44181
G1 X79.995 Y103.894 E7.46103
G1 X80.031 Y103.663 E7.4688
G1 X80.082 Y103.365 E7.47886
G1 X80.289 Y102.24 E7.5169
G1 X80.716 Y99.731 E7.60155
G1 X81.071 Y97.201 E7.68653
G1 X81.351 Y94.718 E7.76963
G1 X81.561 Y92.195 E7.85384
G1 X81.697 Y89.74 E7.93562
G1 X81.775 Y85.917 E8.0628
G1 X81.775 Y82.926 E8.16228
G1 X81.772 Y80.409 E8.24599
G1 X81.781 Y79.744 E8.26811
G1 X81.834 Y78.808 E8.2993
G1 X81.915 Y78.177 E8.32046
G1 X81.957 Y77.911 E8.32941
G1 X82.142 Y76.992 E8.36059
G1 X82.406 Y76.092 E8.39179
G1 X82.636 Y75.473 E8.41375
G1 X82.709 Y75.294 E8.42018
G1 X83.1 Y74.442 E8.45136
G1 X83.562 Y73.625 E8.48258
G1 X84.107 Y72.831 E8.51461
G1 X84.299 Y72.576 E8.52522
G1 X84.895 Y71.852 E8.55641
M204 S2000
G0 F7500 X85.204 Y72.106
M204 S500
G1 F1500 X85.849 Y71.449 E8.58704
G1 X86.576 Y70.828 E8.61884
G1 X86.77 Y70.677 E8.62701
G1 X87.521 Y70.144 E8.65764
G1 X88.314 Y69.678 E8.68824
G1 X89.296 Y69.22 E8.72427
G1 X89.54 Y69.121 E8.73303
G1 X90.407 Y68.812 E8.76365
G1 X91.272 Y68.585 E8.79339
G1 X92.102 Y68.405 E8.82164
G1 X94.628 Y67.821 E8.90787
G1 X97.735 Y67 E9.01476
G1 X97.952 Y66.939 E9.02225
G1 X98.819 Y66.735 E9.05188
G1 X99.262 Y66.65 E9.06688
G1 X99.861 Y66.553 E9.08706
G1 X100.109 Y66.52 E9.09538
G1 X101.294 Y66.429 E9.13491
G1 X101.493 Y66.425 E9.14153
G1 X101.848 Y66.424 E9.15334
G1 X102.146 Y66.428 E9.16325
G1 X103.065 Y66.48 E9.19387
G1 X103.618 Y66.551 E9.21241
G1 X104.027 Y66.614 E9.22618
G1 X104.644 Y66.727 E9.24704
G1 X104.867 Y66.775 E9.25462
G1 X106.073 Y67.111 E9.29626
G1 X106.508 Y67.263 E9.31159
G1 X106.856 Y67.391 E9.32392
G1 X107.964 Y67.871 E9.36408
G1 X108.107 Y67.943 E9.36941
G1 X108.49 Y68.146 E9.38383
G1 X108.821 Y68.33 E9.39642
G1 X109.163 Y68.529 E9.40958
G1 X109.415 Y68.682 E9.41939
G1 X111.322 Y69.86 E9.49394
G1 X113.498 Y71.121 E9.57759
G1 X115.741 Y72.336 E9.66243
G1 X117.986 Y73.473 E9.74613
G1 X120.285 Y74.555 E9.83064
G1 X122.58 Y75.558 E9.91395
G1 X124.974 Y76.525 E9.99982
G1 X127.304 Y77.388 E10.08246
G1 X129.753 Y78.219 E10.16848
G1 X130.442 Y78.438 E10.19252
G1 X130.685 Y78.52 E10.20105
G1 X131.544 Y78.852 E10.23169
G1 X132.371 Y79.258 E10.26233
G1 X133.159 Y79.733 E10.29293
G1 X133.903 Y80.275 E10.32355
G1 X134.597 Y80.88 E10.35417
G1 X135.237 Y81.542 E10.38479
G1 X135.816 Y82.258 E10.41542
G1 X136.331 Y83.021 E10.44604
G1 X136.778 Y83.826 E10.47666
G1 X137.153 Y84.666 E10.50726
G1 X137.454 Y85.536 E10.53788
G1 X137.679 Y86.429 E10.56851
G1 X137.825 Y87.338 E10.59913
G1 X137.891 Y88.251 E10.62957
G1 X137.901 Y88.589 E10.64082
G1 X137.906 Y88.902 E10.65123
G1 X137.905 Y98.249 E10.96211
G1 X137.894 Y98.967 E10.986
G1 X137.809 Y100.154 E11.02558
G1 X137.677 Y101.172 E11.05972
G1 X137.574 Y101.888 E11.08378
G1 X137.284 Y104.419 E11.16851
G1 X137.065 Y106.951 E11.25304
G1 X136.921 Y109.458 E11.33656
G1 X136.847 Y111.969 E11.42011
G1 X136.843 Y114.517 E11.50486
G1 X136.911 Y117.024 E11.58828
G1 X137.054 Y119.578 E11.67335
G1 X137.263 Y122.074 E11.75666
G1 X137.546 Y124.594 E11.84101
G1 X137.903 Y127.12 E11.92586
G1 X138.32 Y129.572 E12.00858
G1 X138.825 Y132.1 E12.09432
G1 X139.252 Y133.992 E12.15883
G1 X139.448 Y135.161 E12.19826
G1 X139.471 Y135.369 E12.20522
G1 X139.534 Y136.412 E12.23997
G1 X139.54 Y136.97 E12.25853
G1 X139.539 Y142.318 E12.43641
G1 X139.529 Y143.02 E12.45976
G1 X139.476 Y143.939 E12.49037
G1 X139.343 Y144.85 E12.521
G1 X139.132 Y145.746 E12.55161
G1 X138.844 Y146.621 E12.58225
G1 X138.481 Y147.467 E12.61287
G1 X138.046 Y148.278 E12.64348
G1 X137.542 Y149.049 E12.67412
G1 X136.974 Y149.773 E12.70472
G1 X136.425 Y150.364 E12.73155
G1 X136.313 Y150.476 E12.73682
G1 X135.635 Y151.098 E12.76742
G1 X134.905 Y151.659 E12.79804
G1 X134.129 Y152.155 E12.82867
G1 X133.313 Y152.581 E12.85929
G1 X132.463 Y152.935 E12.88992
G1 X131.585 Y153.213 E12.92055
G1 X130.687 Y153.415 E12.95116
G1 X129.774 Y153.538 E12.9818
G1 X129.176 Y153.575 E13.00173
G1 X128.8 Y153.585 E13.01424
G1 X128.261 Y153.591 E13.03217
G1 X123.814 Y153.59 E13.18008
G1 X123.13 Y153.58 E13.20283
G1 X122.525 Y153.554 E13.22297
G1 X122.205 Y153.531 E13.23364
G1 X121.859 Y153.5 E13.24519
G1 X121.592 Y153.472 E13.25412
G1 X120.742 Y153.348 E13.28269
G1 X119.607 Y153.134 E13.32111
G1 X118.242 Y152.866 E13.36738
G1 X115.76 Y152.45 E13.45108
G1 X113.242 Y152.102 E13.53562
G1 X110.716 Y151.825 E13.62014
G1 X108.204 Y151.621 E13.70397
G1 X105.698 Y151.489 E13.78743
G1 X103.137 Y151.426 E13.87264
G1 X100.96 Y151.43 E13.94504
G1 X100.597 Y151.435 E13.95712
G1 X100.242 Y151.434 E13.96893
G1 X100.036 Y151.43 E13.97578
G1 X99.117 Y151.372 E14.00641
G1 X98.585 Y151.302 E14.02425
G1 X98.056 Y151.217 E14.04207
G1 X96.208 Y150.897 E14.10445
G1 X94.598 Y150.672 E14.15852
G1 X93.274 Y150.475 E14.20304
G1 X92.056 Y150.219 E14.24444
G1 X91.581 Y150.09 E14.26081
G1 X90.704 Y149.811 E14.29142
G1 X89.52 Y149.292 E14.33442
G1 X89.099 Y149.076 E14.35016
G1 X88.299 Y148.621 E14.38077
G1 X87.269 Y147.884 E14.42289
G1 X86.907 Y147.591 E14.43838
G1 X86.44 Y147.19 E14.45885
G1 X85.494 Y146.219 E14.50394
G1 X85.166 Y145.836 E14.52071
G1 X84.598 Y145.111 E14.55135
G1 X83.937 Y144.064 E14.59253
G1 X83.762 Y143.747 E14.60457
G1 X83.275 Y142.742 E14.64172
G1 X83.154 Y142.455 E14.65208
G1 X82.742 Y141.294 E14.69305
G1 X82.656 Y140.998 E14.7033
G1 X82.438 Y140.104 E14.73391
G1 X82.294 Y139.159 E14.7657
G1 X82.247 Y138.716 E14.78052
G1 X82.189 Y137.763 E14.81227
G1 X82.175 Y136.764 E14.8455
G1 X82.175 Y125.835 E15.209
G1 X82.138 Y123.21 E15.29632
G1 X82.031 Y120.701 E15.37985
G1 X81.853 Y118.181 E15.46387
G1 X81.604 Y115.667 E15.5479
G1 X81.287 Y113.197 E15.63072
G1 X80.734 Y109.765 E15.74634
G1 X80.47 Y108.302 E15.79579
G1 X80.419 Y107.991 E15.80627
G1 X80.381 Y107.737 E15.81481
G1 X80.274 Y106.618 E15.8522
G1 X80.267 Y106.453 E15.85769
G1 X80.259 Y105.826 E15.87855
G1 X80.266 Y105.41 E15.89239
G1 X80.321 Y104.491 E15.92301
G1 X80.39 Y103.956 E15.94095
G1 X80.426 Y103.725 E15.94873
G1 X80.475 Y103.437 E15.95844
G1 X80.684 Y102.301 E15.99686
G1 X81.111 Y99.788 E16.08164
G1 X81.466 Y97.265 E16.16638
G1 X81.752 Y94.725 E16.2514
G1 X81.958 Y92.249 E16.33403
G1 X82.097 Y89.742 E16.41754
G1 X82.175 Y85.925 E16.54453
G1 X82.175 Y82.926 E16.64427
G1 X82.172 Y80.415 E16.72779
G1 X82.181 Y79.75 E16.74991
G1 X82.233 Y78.83 E16.78056
G1 X82.31 Y78.24 E16.80035
G1 X82.352 Y77.974 E16.8093
G1 X82.535 Y77.072 E16.83992
G1 X82.795 Y76.188 E16.87056
G1 X83.007 Y75.624 E16.8906
G1 X83.08 Y75.445 E16.89703
G1 X83.464 Y74.609 E16.92763
G1 X83.92 Y73.809 E16.95826
G1 X84.427 Y73.072 E16.98801
G1 X84.619 Y72.817 E16.99863
G1 X85.204 Y72.106 E17.02925
M204 S2000
G0 F7500 X85.513 Y72.361
M204 S500
G1 F1500 X86.147 Y71.718 E17.05929
G1 X86.822 Y71.144 E17.08876
G1 X87.016 Y70.993 E17.09693
G1 X87.752 Y70.47 E17.12696
G1 X88.532 Y70.015 E17.157
G1 X89.446 Y69.59 E17.19052
G1 X89.69 Y69.491 E17.19928
G1 X90.541 Y69.189 E17.22931
G1 X91.357 Y68.976 E17.25736
G1 X92.198 Y68.793 E17.28599
G1 X94.723 Y68.209 E17.37219
G1 X97.818 Y67.392 E17.47866
G1 X98.06 Y67.324 E17.48702
G1 X98.894 Y67.128 E17.51551
G1 X99.337 Y67.043 E17.53051
G1 X99.914 Y66.949 E17.54996
G1 X100.162 Y66.916 E17.55828
G1 X101.302 Y66.829 E17.59631
G1 X101.501 Y66.825 E17.60293
G1 X101.843 Y66.824 E17.6143
G1 X102.141 Y66.828 E17.62421
G1 X103.043 Y66.88 E17.65426
G1 X103.557 Y66.946 E17.6715
G1 X103.966 Y67.009 E17.68526
G1 X104.559 Y67.118 E17.70532
G1 X104.782 Y67.166 E17.7129
G1 X105.943 Y67.489 E17.75299
G1 X106.37 Y67.638 E17.76803
G1 X106.718 Y67.766 E17.78036
G1 X107.784 Y68.229 E17.81902
G1 X107.927 Y68.301 E17.82434
G1 X108.296 Y68.496 E17.83822
G1 X108.627 Y68.68 E17.85082
G1 X108.955 Y68.871 E17.86344
G1 X109.205 Y69.022 E17.87316
G1 X111.133 Y70.213 E17.94853
G1 X113.313 Y71.476 E18.03233
G1 X115.534 Y72.679 E18.11634
G1 X117.828 Y73.841 E18.20187
G1 X120.12 Y74.92 E18.28612
G1 X122.419 Y75.924 E18.36956
G1 X124.822 Y76.895 E18.45577
G1 X127.185 Y77.77 E18.53957
G1 X129.589 Y78.586 E18.62401
G1 X130.121 Y78.754 E18.64257
G1 X130.557 Y78.899 E18.65785
G1 X131.399 Y79.226 E18.68789
G1 X132.209 Y79.625 E18.71792
G1 X132.981 Y80.095 E18.74799
G1 X133.708 Y80.631 E18.77803
G1 X134.384 Y81.229 E18.80805
G1 X135.005 Y81.885 E18.83809
G1 X135.566 Y82.593 E18.86813
G1 X136.061 Y83.348 E18.89816
G1 X136.488 Y84.144 E18.92821
G1 X136.843 Y84.974 E18.95823
G1 X137.123 Y85.833 E18.98828
G1 X137.327 Y86.713 E19.01833
G1 X137.451 Y87.607 E19.04835
G1 X137.492 Y88.262 E19.07017
G1 X137.502 Y88.6 E19.08142
G1 X137.506 Y88.902 E19.09147
G1 X137.505 Y98.243 E19.40215
G1 X137.494 Y98.961 E19.42603
G1 X137.412 Y100.103 E19.46411
G1 X137.281 Y101.116 E19.49809
G1 X137.175 Y101.858 E19.52302
G1 X136.885 Y104.376 E19.60732
G1 X136.668 Y106.894 E19.69138
G1 X136.522 Y109.424 E19.77567
G1 X136.447 Y111.992 E19.86111
G1 X136.443 Y114.526 E19.9454
G1 X136.512 Y117.06 E20.02971
G1 X136.653 Y119.599 E20.11429
G1 X136.864 Y122.116 E20.19829
G1 X137.15 Y124.659 E20.28341
G1 X137.5 Y127.136 E20.36661
G1 X137.934 Y129.686 E20.45265
G1 X138.424 Y132.141 E20.53591
G1 X138.862 Y134.08 E20.60203
G1 X139.05 Y135.205 E20.63996
G1 X139.073 Y135.413 E20.64692
G1 X139.134 Y136.417 E20.68038
G1 X139.14 Y136.97 E20.69877
G1 X139.139 Y142.312 E20.87645
G1 X139.129 Y143.014 E20.8998
G1 X139.076 Y143.916 E20.92985
G1 X138.944 Y144.809 E20.95987
G1 X138.733 Y145.687 E20.98991
G1 X138.445 Y146.543 E21.01995
G1 X138.083 Y147.371 E21.05
G1 X137.649 Y148.163 E21.08004
G1 X137.146 Y148.913 E21.11008
G1 X136.58 Y149.616 E21.1401
G1 X136.142 Y150.081 E21.16134
G1 X136.03 Y150.193 E21.16661
G1 X135.364 Y150.803 E21.19665
G1 X134.647 Y151.352 E21.22668
G1 X133.883 Y151.834 E21.25673
G1 X133.08 Y152.248 E21.28678
G1 X132.244 Y152.588 E21.31679
G1 X131.381 Y152.854 E21.34683
G1 X130.498 Y153.042 E21.37686
G1 X129.162 Y153.175 E21.42151
G1 X128.795 Y153.185 E21.43372
G1 X128.261 Y153.191 E21.45149
G1 X123.82 Y153.19 E21.59919
G1 X123.136 Y153.18 E21.62195
G1 X122.554 Y153.155 E21.64132
G1 X122.234 Y153.132 E21.65199
G1 X121.901 Y153.102 E21.66311
G1 X121.634 Y153.074 E21.67204
G1 X120.815 Y152.955 E21.69957
G1 X119.684 Y152.742 E21.73785
G1 X118.308 Y152.472 E21.78449
G1 X115.82 Y152.055 E21.86839
G1 X113.264 Y151.701 E21.95422
G1 X110.794 Y151.431 E22.03686
G1 X108.221 Y151.222 E22.12272
G1 X105.693 Y151.088 E22.20692
G1 X103.146 Y151.026 E22.29166
G1 X100.955 Y151.03 E22.36453
G1 X100.592 Y151.035 E22.3766
G1 X100.25 Y151.034 E22.38798
G1 X100.044 Y151.03 E22.39483
