;FLAVOR:Marlin
;TIME:2260
;Filament used: 1.25841m
;Layer height: 0.2
;MINX:75.574
;MINY:106.285
;MINZ:0.2
;MAXX:138.094
;MAXY:172.184
;MAXZ:12.8
;Generated with Creality Slicer 4.8.2-218
M140 S60
M105
M190 S60
M104 S200
M105
M109 S200
M82 ;absolute extrusion mode

G28 ;Home

G92 E0 ;Reset Extruder
G1 Z2.0 F3000 ;Move Z Axis up
G1 X10.1 Y20 Z0.28 F5000.0 ;Move to start position
G1 X10.1 Y200.0 Z0.28 F1500.0 E15 ;Draw the first line
G1 X10.4 Y200.0 Z0.28 F5000.0 ;Move to side a little
G1 X10.4 Y20 Z0.28 F1500.0 E30 ;Draw the second line
G92 E0 ;Reset Extruder
G1 Z2.0 F3000 ;Move Z Axis up

G92 E0
G92 E0
G1 F2400 E-0.8
;LAYER_COUNT:64
;LAYER:0
M107
M204 S2000
G0 F7500 X80.253 Y114.852 Z0.2
M204 S500
;TYPE:SKIRT
G1 F2400 E0
G1 F1500 X81.04 Y114.342 E0.03119
G1 X81.868 Y113.9 E0.06241
G1 X82.73 Y113.531 E0.0936
G1 X83.62 Y113.236 E0.12478
G1 X84.532 Y113.018 E0.15597
G1 X85.46 Y112.879 E0.18718
G1 X86.319 Y112.821 E0.21581
G1 X86.639 Y112.812 E0.22646
G1 X86.936 Y112.808 E0.23634
G1 X87.726 Y112.807 E0.26262
G1 X87.841 Y112.8 E0.26645
G1 X89.592 Y112.794 E0.32469
G1 X92.079 Y112.713 E0.40745
G1 X94.611 Y112.56 E0.49182
G1 X97.114 Y112.338 E0.57539
G1 X99.608 Y112.045 E0.65892
G1 X102.114 Y111.678 E0.74315
G1 X104.578 Y111.246 E0.82636
G1 X107.023 Y110.747 E0.90935
G1 X109.522 Y110.161 E0.99473
G1 X111.932 Y109.524 E1.07764
G1 X114.346 Y108.812 E1.16135
G1 X116.743 Y108.031 E1.24519
G1 X118.465 Y107.416 E1.30601
G1 X119.809 Y106.933 E1.35351
G1 X120.704 Y106.654 E1.38469
G1 X121.62 Y106.452 E1.41589
G1 X122.55 Y106.329 E1.44709
G1 X123.529 Y106.285 E1.47969
G1 X123.686 Y106.285 E1.48491
G1 X124.623 Y106.325 E1.5161
G1 X125.553 Y106.445 E1.54729
G1 X126.47 Y106.643 E1.57849
G1 X127.366 Y106.919 E1.60968
G1 X128.236 Y107.27 E1.64088
G1 X129.072 Y107.694 E1.67206
G1 X129.87 Y108.188 E1.70327
G1 X130.622 Y108.748 E1.73446
G1 X131.165 Y109.219 E1.75836
G1 X131.316 Y109.359 E1.76521
G1 X131.532 Y109.565 E1.77514
G1 X131.802 Y109.829 E1.7877
G1 X134.311 Y112.335 E1.90565
G1 X134.939 Y112.979 E1.93556
G1 X135.564 Y113.678 E1.96675
G1 X136.127 Y114.428 E1.99794
G1 X136.624 Y115.223 E2.02913
G1 X137.052 Y116.057 E2.0603
G1 X137.407 Y116.926 E2.09153
G1 X137.687 Y117.821 E2.12272
G1 X137.89 Y118.736 E2.15389
G1 X138.014 Y119.666 E2.18509
G1 X138.058 Y120.603 E2.21629
G1 X138.047 Y121.14 E2.23416
G1 X138.038 Y121.343 E2.24092
G1 X137.891 Y122.711 E2.28668
G1 X137.445 Y125.318 E2.37465
G1 X137.086 Y127.843 E2.45947
G1 X136.803 Y130.337 E2.54296
G1 X136.588 Y132.874 E2.62764
G1 X136.448 Y135.337 E2.70969
G1 X136.377 Y137.888 E2.79457
G1 X136.377 Y140.412 E2.87852
G1 X136.449 Y142.908 E2.96157
G1 X136.59 Y145.408 E3.04485
G1 X136.805 Y147.93 E3.12904
G1 X137.089 Y150.425 E3.21256
G1 X137.446 Y152.936 E3.29692
G1 X137.764 Y154.827 E3.36069
G1 X137.925 Y155.734 E3.39133
G1 X138.049 Y156.664 E3.42254
G1 X138.094 Y157.601 E3.45374
G1 X138.059 Y158.538 E3.48493
G1 X137.944 Y159.469 E3.51613
G1 X137.75 Y160.386 E3.5473
G1 X137.479 Y161.284 E3.5785
G1 X137.132 Y162.156 E3.60971
G1 X136.712 Y162.994 E3.64089
G1 X136.223 Y163.794 E3.67208
G1 X135.667 Y164.55 E3.70329
G1 X135.118 Y165.182 E3.73113
G1 X134.907 Y165.407 E3.74139
G1 X134.661 Y165.66 E3.75313
G1 X131.724 Y168.596 E3.89125
G1 X131.232 Y169.074 E3.91407
G1 X130.532 Y169.698 E3.94526
G1 X129.782 Y170.26 E3.97643
G1 X128.986 Y170.757 E4.00764
G1 X128.151 Y171.183 E4.03882
G1 X127.282 Y171.538 E4.07004
G1 X126.387 Y171.816 E4.10121
G1 X125.471 Y172.018 E4.13241
G1 X124.541 Y172.141 E4.16361
G1 X123.604 Y172.184 E4.19481
G1 X122.667 Y172.147 E4.226
G1 X121.736 Y172.031 E4.2572
G1 X120.819 Y171.835 E4.28839
G1 X119.683 Y171.476 E4.32802
G1 X119.153 Y171.276 E4.34686
G1 X116.819 Y170.435 E4.42937
G1 X114.379 Y169.634 E4.51479
G1 X112.021 Y168.932 E4.59662
G1 X109.532 Y168.268 E4.6823
G1 X107.116 Y167.696 E4.76487
G1 X104.644 Y167.182 E4.84885
G1 X102.141 Y166.739 E4.9334
G1 X99.703 Y166.377 E5.01537
G1 X97.155 Y166.071 E5.10073
G1 X94.662 Y165.843 E5.18399
G1 X92.159 Y165.686 E5.26741
G1 X89.619 Y165.598 E5.35194
G1 X87.808 Y165.579 E5.41218
G1 X87.123 Y165.578 E5.43496
G1 X86.425 Y165.568 E5.45818
G1 X85.489 Y165.514 E5.48936
G1 X84.561 Y165.382 E5.52054
G1 X83.647 Y165.17 E5.55174
G1 X82.755 Y164.881 E5.58293
G1 X81.89 Y164.518 E5.61413
G1 X81.06 Y164.082 E5.64531
G1 X80.269 Y163.577 E5.67653
G1 X79.525 Y163.006 E5.70772
G1 X78.832 Y162.374 E5.73891
G1 X78.195 Y161.686 E5.7701
G1 X77.62 Y160.945 E5.80129
G1 X77.109 Y160.159 E5.83248
G1 X76.667 Y159.331 E5.86369
G1 X76.298 Y158.469 E5.89488
G1 X76.003 Y157.579 E5.92607
G1 X75.785 Y156.667 E5.95725
G1 X75.645 Y155.739 E5.98847
G1 X75.587 Y154.867 E6.01753
G1 X75.578 Y154.535 E6.02858
G1 X75.574 Y154.238 E6.03846
G1 X75.574 Y140.139 E6.5074
G1 X75.595 Y138.592 E6.55885
G1 X75.593 Y138.564 E6.55979
G1 X75.588 Y137.943 E6.58044
G1 X75.618 Y136.503 E6.62835
G1 X75.619 Y124.346 E7.03269
G1 X75.629 Y123.657 E7.05561
G1 X75.683 Y122.721 E7.08679
G1 X75.816 Y121.793 E7.11797
G1 X76.028 Y120.879 E7.14918
G1 X76.316 Y119.987 E7.18036
G1 X76.68 Y119.122 E7.21157
G1 X77.116 Y118.292 E7.24275
G1 X77.621 Y117.502 E7.27394
G1 X78.192 Y116.758 E7.30513
G1 X78.824 Y116.065 E7.33633
G1 X79.513 Y115.428 E7.36754
G1 X80.253 Y114.852 E7.39873
M204 S2000
G0 F7500 X80.638 Y115.072
M204 S500
G1 F1500 X81.419 Y114.585 E7.42934
G1 X82.24 Y114.168 E7.45996
G1 X83.094 Y113.824 E7.49059
G1 X83.974 Y113.555 E7.52119
G1 X84.875 Y113.363 E7.55183
G1 X85.788 Y113.25 E7.58243
G1 X86.33 Y113.221 E7.60048
G1 X86.65 Y113.212 E7.61113
G1 X86.937 Y113.208 E7.62068
G1 X87.697 Y113.207 E7.64596
G1 X87.843 Y113.2 E7.65082
G1 X89.571 Y113.194 E7.70829
G1 X92.115 Y113.112 E7.79295
G1 X94.635 Y112.959 E7.87692
G1 X97.159 Y112.735 E7.9612
G1 X99.68 Y112.439 E8.04562
G1 X102.169 Y112.074 E8.12929
G1 X104.656 Y111.639 E8.21327
G1 X107.13 Y111.134 E8.29725
G1 X109.602 Y110.554 E8.3817
G1 X112.042 Y109.909 E8.46564
G1 X114.445 Y109.2 E8.54897
G1 X116.885 Y108.405 E8.63433
G1 X118.619 Y107.786 E8.69556
G1 X119.944 Y107.31 E8.74239
G1 X120.823 Y107.036 E8.77301
G1 X121.723 Y106.84 E8.80365
G1 X122.636 Y106.723 E8.83426
G1 X123.529 Y106.685 E8.86399
G1 X123.686 Y106.685 E8.86921
G1 X124.606 Y106.725 E8.89984
G1 X125.519 Y106.845 E8.93047
G1 X126.418 Y107.043 E8.96109
G1 X127.296 Y107.319 E8.9917
G1 X128.147 Y107.67 E9.02232
G1 X128.965 Y108.093 E9.05295
G1 X129.742 Y108.586 E9.08355
G1 X130.474 Y109.144 E9.11417
G1 X130.893 Y109.512 E9.13271
G1 X131.044 Y109.652 E9.13956
G1 X131.253 Y109.851 E9.14916
G1 X131.519 Y110.112 E9.16156
G1 X134.028 Y112.618 E9.2795
G1 X134.652 Y113.258 E9.30923
G1 X135.265 Y113.945 E9.33985
G1 X135.816 Y114.682 E9.37046
G1 X136.301 Y115.464 E9.40107
G1 X136.717 Y116.286 E9.43171
G1 X137.059 Y117.141 E9.46234
G1 X137.326 Y118.022 E9.49295
G1 X137.516 Y118.923 E9.52358
G1 X137.627 Y119.837 E9.5542
G1 X137.648 Y121.122 E9.59695
G1 X137.639 Y121.325 E9.60371
G1 X137.497 Y122.644 E9.64783
G1 X137.048 Y125.267 E9.73634
G1 X136.686 Y127.813 E9.82187
G1 X136.405 Y130.294 E9.90492
G1 X136.191 Y132.816 E9.9891
G1 X136.048 Y135.339 E10.07315
G1 X135.977 Y137.877 E10.1576
G1 X135.977 Y140.389 E10.24115
G1 X136.05 Y142.94 E10.32603
G1 X136.192 Y145.443 E10.40941
G1 X136.408 Y147.98 E10.4941
G1 X136.693 Y150.486 E10.57799
G1 X137.054 Y153.018 E10.66305
G1 X137.37 Y154.897 E10.72643
G1 X137.531 Y155.804 E10.75707
G1 X137.652 Y156.717 E10.7877
G1 X137.694 Y157.637 E10.81833
G1 X137.656 Y158.557 E10.84895
G1 X137.538 Y159.47 E10.87957
G1 X137.341 Y160.369 E10.91018
G1 X137.067 Y161.248 E10.94081
G1 X136.718 Y162.1 E10.97143
G1 X136.296 Y162.918 E11.00204
G1 X135.805 Y163.697 E11.03267
G1 X135.248 Y164.43 E11.06329
G1 X134.826 Y164.908 E11.0845
G1 X134.615 Y165.133 E11.09476
G1 X134.378 Y165.377 E11.10607
G1 X131.445 Y168.309 E11.24401
G1 X130.953 Y168.787 E11.26682
G1 X130.266 Y169.399 E11.29742
G1 X129.528 Y169.949 E11.32804
G1 X128.745 Y170.433 E11.35865
G1 X127.923 Y170.848 E11.38928
G1 X127.068 Y171.189 E11.41989
G1 X126.186 Y171.455 E11.45054
G1 X125.285 Y171.644 E11.48115
G1 X124.371 Y171.753 E11.51177
G1 X123.451 Y171.783 E11.54239
G1 X122.531 Y171.733 E11.57303
G1 X121.62 Y171.604 E11.60363
G1 X120.723 Y171.395 E11.63427
G1 X119.825 Y171.101 E11.66569
G1 X119.393 Y170.938 E11.68105
G1 X116.942 Y170.055 E11.7677
G1 X114.502 Y169.254 E11.85312
G1 X112.101 Y168.539 E11.93644
G1 X109.655 Y167.887 E12.02063
G1 X107.183 Y167.301 E12.10513
G1 X104.723 Y166.79 E12.1887
G1 X102.233 Y166.349 E12.2728
G1 X99.703 Y165.973 E12.35788
G1 X97.242 Y165.678 E12.44032
G1 X94.687 Y165.444 E12.52565
G1 X92.198 Y165.288 E12.6086
G1 X89.596 Y165.197 E12.69519
G1 X87.812 Y165.179 E12.75453
G1 X87.129 Y165.178 E12.77725
G1 X86.431 Y165.168 E12.80047
G1 X85.512 Y165.115 E12.83108
G1 X84.601 Y164.982 E12.86171
G1 X83.705 Y164.771 E12.89232
G1 X82.831 Y164.483 E12.92293
G1 X81.984 Y164.12 E12.95358
G1 X81.173 Y163.685 E12.98419
G1 X80.403 Y163.181 E13.0148
G1 X79.679 Y162.612 E13.04542
G1 X79.007 Y161.982 E13.07606
G1 X78.392 Y161.297 E13.10668
G1 X77.839 Y160.561 E13.1373
G1 X77.352 Y159.78 E13.16791
G1 X76.935 Y158.959 E13.19854
G1 X76.59 Y158.105 E13.22917
G1 X76.321 Y157.225 E13.25978
G1 X76.129 Y156.324 E13.29042
G1 X76.016 Y155.411 E13.32102
G1 X75.987 Y154.856 E13.3395
G1 X75.978 Y154.524 E13.35055
G1 X75.974 Y154.238 E13.36006
G1 X75.974 Y140.145 E13.8288
G1 X76 Y138.267 E13.89126
G1 X75.988 Y137.951 E13.90178
G1 X76.018 Y136.511 E13.94969
G1 X76.019 Y124.352 E14.3541
G1 X76.029 Y123.663 E14.37702
G1 X76.082 Y122.744 E14.40763
G1 X76.215 Y121.833 E14.43825
G1 X76.427 Y120.937 E14.46888
G1 X76.715 Y120.063 E14.49948
G1 X77.078 Y119.217 E14.5301
G1 X77.513 Y118.405 E14.56074
G1 X78.017 Y117.635 E14.59135
G1 X78.586 Y116.911 E14.62198
G1 X79.216 Y116.239 E14.65261
G1 X79.901 Y115.625 E14.68321
G1 X80.638 Y115.072 E14.71386
M204 S2000
G0 F7500 X81.021 Y115.296
M204 S500
G1 F1500 X81.797 Y114.834 E14.74389
G1 X82.61 Y114.442 E14.77391
G1 X83.455 Y114.123 E14.80395
G1 X84.325 Y113.88 E14.834
G1 X85.213 Y113.716 E14.86403
G1 X86.341 Y113.621 E14.90168
G1 X86.661 Y113.612 E14.91233
G1 X86.937 Y113.608 E14.92151
G1 X87.638 Y113.607 E14.94483
G1 X87.844 Y113.6 E14.95168
G1 X89.586 Y113.594 E15.00962
G1 X92.152 Y113.511 E15.09501
G1 X94.658 Y113.359 E15.17852
G1 X97.209 Y113.133 E15.26369
G1 X99.713 Y112.839 E15.34755
G1 X102.225 Y112.471 E15.43199
G1 X104.733 Y112.031 E15.51668
G1 X107.196 Y111.528 E15.60029
G1 X109.69 Y110.944 E15.68549
G1 X112.152 Y110.293 E15.77019
G1 X114.609 Y109.568 E15.85539
G1 X116.975 Y108.797 E15.93816
G1 X118.754 Y108.162 E16.00098
G1 X120.079 Y107.686 E16.04781
G1 X120.942 Y107.419 E16.07786
G1 X121.825 Y107.228 E16.1079
G1 X122.721 Y107.117 E16.13793
G1 X123.529 Y107.085 E16.16483
G1 X123.686 Y107.085 E16.17005
G1 X124.588 Y107.125 E16.20008
G1 X125.483 Y107.245 E16.23011
G1 X126.364 Y107.443 E16.26015
G1 X127.224 Y107.718 E16.29018
G1 X128.057 Y108.069 E16.32024
G1 X128.855 Y108.492 E16.35028
G1 X129.612 Y108.983 E16.38029
G1 X130.621 Y109.805 E16.42358
G1 X130.772 Y109.945 E16.43043
G1 X130.973 Y110.137 E16.43967
G1 X131.236 Y110.395 E16.45193
G1 X133.745 Y112.901 E16.56987
G1 X134.365 Y113.537 E16.59941
G1 X134.966 Y114.211 E16.62945
G1 X135.505 Y114.936 E16.6595
G1 X135.978 Y115.705 E16.68952
G1 X136.38 Y116.514 E16.71957
G1 X136.71 Y117.355 E16.74962
G1 X136.964 Y118.221 E16.77964
G1 X137.14 Y119.107 E16.80968
G1 X137.237 Y120.005 E16.83972
G1 X137.248 Y121.105 E16.87631
G1 X137.239 Y121.308 E16.88307
G1 X137.103 Y122.576 E16.92548
G1 X136.653 Y125.209 E17.01433
G1 X136.292 Y127.749 E17.09966
G1 X136.008 Y130.249 E17.18334
G1 X135.792 Y132.798 E17.26843
G1 X135.648 Y135.339 E17.35308
G1 X135.577 Y137.866 E17.43716
G1 X135.577 Y140.4 E17.52144
G1 X135.65 Y142.94 E17.60595
G1 X135.795 Y145.499 E17.6912
G1 X136.009 Y148.014 E17.77515
G1 X136.294 Y150.521 E17.85907
G1 X136.655 Y153.056 E17.94424
G1 X136.986 Y155.024 E18.01062
G1 X137.137 Y155.874 E18.03933
G1 X137.255 Y156.77 E18.06939
G1 X137.294 Y157.672 E18.09942
G1 X137.253 Y158.574 E18.12945
G1 X137.132 Y159.469 E18.15949
G1 X136.932 Y160.35 E18.18953
G1 X136.655 Y161.209 E18.21955
G1 X136.304 Y162.041 E18.24959
G1 X135.88 Y162.839 E18.27964
G1 X135.387 Y163.596 E18.30969
G1 X134.534 Y164.634 E18.35438
G1 X134.323 Y164.859 E18.36463
G1 X134.095 Y165.094 E18.37552
G1 X131.167 Y168.022 E18.51325
G1 X130.675 Y168.5 E18.53606
G1 X130 Y169.1 E18.5661
G1 X129.274 Y169.638 E18.59616
G1 X128.504 Y170.109 E18.62618
G1 X127.695 Y170.511 E18.65622
G1 X126.854 Y170.84 E18.68626
G1 X125.987 Y171.093 E18.7163
G1 X125.101 Y171.268 E18.74634
G1 X124.203 Y171.364 E18.77638
G1 X123.3 Y171.381 E18.80641
G1 X122.399 Y171.317 E18.83646
G1 X121.508 Y171.174 E18.86647
G1 X120.632 Y170.953 E18.89652
G1 X119.966 Y170.727 E18.91991
G1 X119.522 Y170.56 E18.93569
G1 X117.066 Y169.674 E19.02253
G1 X114.636 Y168.877 E19.10759
G1 X112.213 Y168.155 E19.19168
G1 X109.737 Y167.495 E19.27691
G1 X107.293 Y166.916 E19.36044
G1 X104.77 Y166.392 E19.44615
G1 X102.29 Y165.953 E19.52992
G1 X99.773 Y165.579 E19.61455
G1 X97.255 Y165.276 E19.69891
G1 X94.75 Y165.047 E19.78257
G1 X92.201 Y164.887 E19.86752
G1 X89.614 Y164.797 E19.95361
G1 X87.816 Y164.779 E20.01342
G1 X87.135 Y164.778 E20.03607
G1 X86.437 Y164.768 E20.05929
G1 X85.535 Y164.715 E20.08934
G1 X84.642 Y164.583 E20.11936
G1 X83.764 Y164.372 E20.1494
G1 X82.908 Y164.084 E20.17943
G1 X82.081 Y163.722 E20.20946
G1 X81.289 Y163.287 E20.23951
G1 X80.538 Y162.785 E20.26956
G1 X79.835 Y162.218 E20.2996
G1 X79.185 Y161.591 E20.32964
G1 X78.593 Y160.909 E20.35967
G1 X78.063 Y160.178 E20.3897
G1 X77.601 Y159.402 E20.41974
G1 X77.208 Y158.589 E20.44978
G1 X76.89 Y157.744 E20.47981
G1 X76.647 Y156.874 E20.50985
G1 X76.482 Y155.986 E20.53989
G1 X76.387 Y154.845 E20.57797
G1 X76.378 Y154.513 E20.58902
G1 X76.374 Y154.238 E20.59816
G1 X76.374 Y140.15 E21.06673
G1 X76.398 Y138.398 E21.12501
G1 X76.388 Y137.96 E21.13958
G1 X76.418 Y136.52 E21.18749
G1 X76.419 Y124.358 E21.592
G1 X76.429 Y123.669 E21.61492
G1 X76.482 Y122.767 E21.64497
G1 X76.615 Y121.874 E21.675
G1 X76.826 Y120.996 E21.70503
G1 X77.114 Y120.14 E21.73507
G1 X77.476 Y119.313 E21.7651
G1 X77.911 Y118.521 E21.79515
G1 X78.413 Y117.771 E21.82517
G1 X78.98 Y117.068 E21.85521
G1 X79.607 Y116.418 E21.88524
G1 X80.289 Y115.826 E21.91528
G1 X81.021 Y115.296 E21.94534
M204 S2000
G1 F2400 E21.14534
G0 F7500 X123.61 Y120.304
M204 S500
G1 F2400 E21.94534
G1 F1500 X124.038 Y120.731 E21.96545
G1 X116.919 Y127.846 E22.30021
G1 X116.561 Y127.808 E22.31218
G1 X116.109 Y127.808 E22.32722
G1 X123.61 Y120.304 E22.68011
M204 S2000
G0 F7500 X123.61 Y119.738
M204 S500
G1 F1500 X124.603 Y120.73 E22.7268
G1 X117.046 Y128.285 E23.08221
G1 X116.835 Y128.229 E23.08947
G1 X116.561 Y128.208 E23.09861
G1 X115.144 Y128.208 E23.14574
G1 X123.61 Y119.738 E23.54405
M204 S2000
G0 F7500 X123.61 Y119.173
M204 S500
G1 F1500 X125.169 Y120.731 E23.61735
G1 X117.148 Y128.748 E23.99454
G1 X116.984 Y128.673 E24.00054
G1 X116.561 Y128.608 E24.01477
G1 X114.178 Y128.608 E24.09403
G1 X123.61 Y119.173 E24.53776
M204 S2000
G0 F7500 X123.609 Y118.607
M204 S500
G1 F1500 X125.735 Y120.731 E24.63771
G1 X117.207 Y129.255 E25.03875
G1 X117.042 Y129.132 E25.04559
G1 X116.778 Y129.032 E25.05498
G1 X116.561 Y129.008 E25.06224
G1 X113.212 Y129.008 E25.17363
G1 X123.609 Y118.607 E25.66277
M204 S2000
G0 F7500 X123.609 Y118.041
M204 S500
G1 F1500 X126.301 Y120.731 E25.78934
G1 X117.215 Y129.814 E26.21665
G1 X116.985 Y129.584 E26.22747
G1 X116.806 Y129.46 E26.23471
G1 X116.561 Y129.408 E26.24304
G1 X112.247 Y129.408 E26.38653
G1 X123.609 Y118.041 E26.92108
M204 S2000
G0 F7500 X123.609 Y117.475
M204 S500
G1 F1500 X126.867 Y120.731 E27.07428
G1 X117.215 Y130.38 E27.52821
G1 X116.702 Y129.867 E27.55234
G1 X116.561 Y129.808 E27.55742
G1 X111.281 Y129.808 E27.73303
G1 X123.609 Y117.475 E28.31302
M204 S2000
G1 F2400 E27.51302
;MESH:wheel-steering-system-part2-mil.stl
G0 F7500 X106.877 Y125.818
G0 X105.898 Y125.818
G0 X106.012 Y126.251
M204 S500
;TYPE:WALL-OUTER
G1 F2400 E28.31302
G1 F1500 X94.412 Y126.251 E28.69884
G1 X94.412 Y125.705 E28.717
G1 X106.012 Y125.704 E29.10282
