;FLAVOR:Marlin
;TIME:312
;Filament used: 0.0777181m
;Layer height: 0.2
;MINX:96.25
;MINY:96.25
;MINZ:0.2
;MAXX:123.75
;MAXY:123.75
;MAXZ:11.2
;Generated with Creality Slicer 4.8.2-218
M140 S60
M105
M190 S60
M104 S200
M105
M109 S200
M82 ;absolute extrusion mode

G28 ;Home

G92 E0 ;Reset Extruder
G1 Z2.0 F3000 ;Move Z Axis up
G1 X10.1 Y20 Z0.28 F5000.0 ;Move to start position
G1 X10.1 Y200.0 Z0.28 F1500.0 E15 ;Draw the first line
G1 X10.4 Y200.0 Z0.28 F5000.0 ;Move to side a little
G1 X10.4 Y20 Z0.28 F1500.0 E30 ;Draw the second line
G92 E0 ;Reset Extruder
G1 Z2.0 F3000 ;Move Z Axis up

G92 E0
G92 E0
G1 F2400 E-0.8
;LAYER_COUNT:56
;LAYER:0
M107
M204 S2000
G0 F7500 X99.448 Y99.514 Z0.2
M204 S500
;TYPE:SKIRT
G1 F2400 E0
G1 F1500 X100.136 Y98.877 E0.03119
G1 X100.876 Y98.301 E0.06237
G1 X101.662 Y97.789 E0.09357
G1 X102.489 Y97.347 E0.12476
G1 X103.351 Y96.977 E0.15596
G1 X104.241 Y96.681 E0.18716
G1 X105.153 Y96.463 E0.21835
G1 X106.08 Y96.322 E0.24953
G1 X106.951 Y96.263 E0.27857
G1 X107.272 Y96.254 E0.28925
G1 X107.58 Y96.25 E0.29949
G1 X112.043 Y96.25 E0.44793
G1 X112.899 Y96.261 E0.47641
G1 X113.835 Y96.315 E0.50759
G1 X114.763 Y96.447 E0.53877
G1 X115.677 Y96.659 E0.56997
G1 X116.569 Y96.948 E0.60116
G1 X117.434 Y97.311 E0.63236
G1 X118.264 Y97.747 E0.66354
G1 X119.055 Y98.252 E0.69476
G1 X119.799 Y98.823 E0.72595
G1 X120.492 Y99.455 E0.75715
G1 X121.129 Y100.143 E0.78833
G1 X121.704 Y100.884 E0.81953
G1 X122.215 Y101.67 E0.85071
G1 X122.657 Y102.498 E0.88192
G1 X123.026 Y103.36 E0.91311
G1 X123.321 Y104.25 E0.9443
G1 X123.539 Y105.162 E0.97548
G1 X123.679 Y106.09 E1.0067
G1 X123.737 Y106.951 E1.0354
G1 X123.746 Y107.271 E1.04605
G1 X123.75 Y107.58 E1.05633
G1 X123.749 Y112.15 E1.20833
G1 X123.74 Y112.877 E1.23251
G1 X123.689 Y113.814 E1.26372
G1 X123.557 Y114.742 E1.29489
G1 X123.348 Y115.656 E1.32608
G1 X123.061 Y116.549 E1.35728
G1 X122.699 Y117.415 E1.38849
G1 X122.265 Y118.246 E1.41968
G1 X121.761 Y119.037 E1.45087
G1 X121.192 Y119.782 E1.48205
G1 X120.561 Y120.477 E1.51327
G1 X119.874 Y121.115 E1.54446
G1 X119.135 Y121.692 E1.57564
G1 X118.349 Y122.204 E1.60684
G1 X117.523 Y122.647 E1.63801
G1 X116.661 Y123.019 E1.66924
G1 X115.772 Y123.315 E1.7004
G1 X114.86 Y123.535 E1.73161
G1 X113.933 Y123.676 E1.76279
G1 X113.049 Y123.737 E1.79227
G1 X112.728 Y123.746 E1.80295
G1 X112.42 Y123.75 E1.81319
G1 X107.815 Y123.749 E1.96636
G1 X107.117 Y123.74 E1.98957
G1 X106.181 Y123.688 E2.02075
G1 X105.252 Y123.556 E2.05196
G1 X104.338 Y123.346 E2.08315
G1 X103.445 Y123.059 E2.11435
G1 X102.58 Y122.696 E2.14555
G1 X101.749 Y122.262 E2.17673
G1 X100.958 Y121.758 E2.20793
G1 X100.213 Y121.188 E2.23913
G1 X99.519 Y120.557 E2.27032
G1 X98.882 Y119.87 E2.30149
G1 X98.305 Y119.13 E2.3327
G1 X97.793 Y118.344 E2.3639
G1 X97.35 Y117.517 E2.3951
G1 X96.979 Y116.656 E2.42628
G1 X96.683 Y115.766 E2.45748
G1 X96.464 Y114.854 E2.48867
G1 X96.323 Y113.927 E2.51986
G1 X96.263 Y113.038 E2.5495
G1 X96.254 Y112.705 E2.56057
G1 X96.25 Y112.408 E2.57045
G1 X96.251 Y107.775 E2.72455
G1 X96.26 Y107.11 E2.74667
G1 X96.313 Y106.174 E2.77785
G1 X96.445 Y105.245 E2.80906
G1 X96.656 Y104.331 E2.84026
G1 X96.944 Y103.439 E2.87143
G1 X97.307 Y102.574 E2.90263
G1 X97.742 Y101.743 E2.93383
G1 X98.246 Y100.953 E2.965
G1 X98.816 Y100.208 E2.9962
G1 X99.448 Y99.514 E3.02742
M204 S2000
G0 F7500 X99.839 Y99.689
M204 S500
G1 F1500 X100.524 Y99.073 E3.05806
G1 X101.26 Y98.52 E3.08868
G1 X102.041 Y98.032 E3.11931
G1 X102.861 Y97.614 E3.14992
G1 X103.715 Y97.269 E3.18055
G1 X104.595 Y96.999 E3.21117
G1 X105.495 Y96.807 E3.24178
G1 X106.409 Y96.693 E3.27241
G1 X106.962 Y96.663 E3.29083
G1 X107.283 Y96.654 E3.30151
G1 X107.58 Y96.65 E3.31139
G1 X112.043 Y96.65 E3.45983
G1 X112.893 Y96.661 E3.48811
G1 X113.812 Y96.714 E3.51872
G1 X114.723 Y96.847 E3.54934
G1 X115.619 Y97.058 E3.57996
G1 X116.493 Y97.346 E3.61057
G1 X117.34 Y97.709 E3.64122
G1 X118.151 Y98.144 E3.67183
G1 X118.921 Y98.648 E3.70244
G1 X119.645 Y99.217 E3.73306
G1 X120.317 Y99.847 E3.7637
G1 X120.932 Y100.532 E3.79432
G1 X121.485 Y101.268 E3.82494
G1 X121.972 Y102.049 E3.85555
G1 X122.389 Y102.87 E3.88618
G1 X122.734 Y103.724 E3.91681
G1 X123.003 Y104.604 E3.94742
G1 X123.195 Y105.505 E3.97806
G1 X123.308 Y106.418 E4.00866
G1 X123.337 Y106.962 E4.02677
G1 X123.346 Y107.282 E4.03742
G1 X123.35 Y107.58 E4.04733
G1 X123.349 Y112.145 E4.19917
G1 X123.34 Y112.872 E4.22335
G1 X123.289 Y113.791 E4.25396
G1 X123.158 Y114.703 E4.28461
G1 X122.948 Y115.599 E4.31521
G1 X122.662 Y116.474 E4.34583
G1 X122.301 Y117.321 E4.37646
G1 X121.867 Y118.133 E4.40708
G1 X121.365 Y118.905 E4.43771
G1 X120.797 Y119.63 E4.46834
G1 X120.169 Y120.303 E4.49896
G1 X119.485 Y120.919 E4.52957
G1 X118.75 Y121.473 E4.56018
G1 X117.97 Y121.962 E4.5908
G1 X117.15 Y122.381 E4.62143
G1 X116.297 Y122.727 E4.65205
G1 X115.417 Y122.998 E4.68267
G1 X114.517 Y123.191 E4.71329
G1 X113.603 Y123.306 E4.74393
G1 X113.038 Y123.337 E4.76275
G1 X112.717 Y123.346 E4.77343
G1 X112.42 Y123.35 E4.78331
G1 X107.82 Y123.349 E4.9363
G1 X107.122 Y123.34 E4.95952
G1 X106.203 Y123.288 E4.99014
G1 X105.292 Y123.157 E5.02075
G1 X104.396 Y122.947 E5.05136
G1 X103.521 Y122.66 E5.08198
G1 X102.674 Y122.298 E5.11262
G1 X101.862 Y121.864 E5.14324
G1 X101.091 Y121.362 E5.17384
G1 X100.366 Y120.794 E5.20448
G1 X99.693 Y120.165 E5.23511
G1 X99.078 Y119.481 E5.26571
G1 X98.524 Y118.746 E5.29632
G1 X98.036 Y117.965 E5.32695
G1 X97.617 Y117.145 E5.35758
G1 X97.271 Y116.292 E5.38819
G1 X97.001 Y115.412 E5.41881
G1 X96.808 Y114.511 E5.44946
G1 X96.694 Y113.598 E5.48006
G1 X96.663 Y113.027 E5.49908
G1 X96.654 Y112.694 E5.51016
G1 X96.65 Y112.408 E5.51967
G1 X96.651 Y107.781 E5.67357
G1 X96.66 Y107.116 E5.69569
G1 X96.712 Y106.196 E5.72634
G1 X96.844 Y105.285 E5.75695
G1 X97.055 Y104.389 E5.78757
G1 X97.342 Y103.514 E5.8182
G1 X97.705 Y102.668 E5.84881
G1 X98.139 Y101.856 E5.87944
G1 X98.642 Y101.085 E5.91006
G1 X99.211 Y100.361 E5.94068
G1 X99.839 Y99.689 E5.97127
M204 S2000
G0 F7500 X100.231 Y99.867
M204 S500
G1 F1500 X100.912 Y99.274 E6.00131
G1 X101.644 Y98.744 E6.03137
G1 X102.419 Y98.281 E6.06139
G1 X103.232 Y97.888 E6.09143
G1 X104.077 Y97.568 E6.12148
G1 X104.946 Y97.325 E6.15149
G1 X105.834 Y97.159 E6.18154
G1 X106.973 Y97.063 E6.21956
G1 X107.294 Y97.054 E6.23024
G1 X107.58 Y97.05 E6.23975
G1 X112.043 Y97.05 E6.38819
G1 X112.887 Y97.061 E6.41626
G1 X113.789 Y97.114 E6.44632
G1 X114.682 Y97.246 E6.47634
G1 X115.56 Y97.457 E6.50637
G1 X116.416 Y97.745 E6.53641
G1 X117.243 Y98.107 E6.56644
G1 X118.035 Y98.542 E6.59649
G1 X118.786 Y99.044 E6.62654
G1 X119.489 Y99.611 E6.65658
G1 X120.139 Y100.238 E6.68661
G1 X120.731 Y100.92 E6.71665
G1 X121.261 Y101.651 E6.74668
G1 X121.723 Y102.427 E6.77672
G1 X122.116 Y103.24 E6.80675
G1 X122.434 Y104.085 E6.83678
G1 X122.677 Y104.955 E6.86683
G1 X122.842 Y105.843 E6.89687
G1 X122.937 Y106.973 E6.93458
G1 X122.946 Y107.293 E6.94523
G1 X122.95 Y107.58 E6.95478
G1 X122.949 Y112.14 E7.10644
G1 X122.94 Y112.867 E7.13063
G1 X122.889 Y113.769 E7.16068
G1 X122.758 Y114.663 E7.19073
G1 X122.549 Y115.541 E7.22075
G1 X122.263 Y116.398 E7.2508
G1 X121.902 Y117.226 E7.28084
G1 X121.47 Y118.018 E7.31084
G1 X120.969 Y118.77 E7.3409
G1 X120.403 Y119.474 E7.37094
G1 X119.778 Y120.125 E7.40096
G1 X119.097 Y120.719 E7.43101
G1 X118.366 Y121.25 E7.46106
G1 X117.592 Y121.714 E7.49108
G1 X116.779 Y122.108 E7.52113
G1 X115.935 Y122.428 E7.55115
G1 X115.065 Y122.673 E7.58121
G1 X114.178 Y122.839 E7.61123
G1 X113.027 Y122.937 E7.64965
G1 X112.706 Y122.946 E7.66033
G1 X112.42 Y122.95 E7.66984
G1 X107.825 Y122.949 E7.82267
G1 X107.127 Y122.94 E7.84589
G1 X106.226 Y122.889 E7.8759
G1 X105.332 Y122.757 E7.90596
G1 X104.454 Y122.548 E7.93598
G1 X103.597 Y122.261 E7.96604
G1 X102.77 Y121.9 E7.99605
G1 X101.977 Y121.467 E8.0261
G1 X101.226 Y120.966 E8.05613
G1 X100.522 Y120.4 E8.08617
G1 X99.871 Y119.774 E8.11621
G1 X99.278 Y119.093 E8.14625
G1 X98.748 Y118.362 E8.17628
G1 X98.284 Y117.587 E8.20632
G1 X97.89 Y116.774 E8.23637
G1 X97.57 Y115.93 E8.26639
G1 X97.326 Y115.06 E8.29644
G1 X97.16 Y114.172 E8.32649
G1 X97.063 Y113.017 E8.36504
G1 X97.054 Y112.684 E8.37612
G1 X97.05 Y112.408 E8.3853
G1 X97.051 Y107.786 E8.53903
G1 X97.06 Y107.121 E8.56115
G1 X97.112 Y106.219 E8.5912
G1 X97.244 Y105.326 E8.62122
G1 X97.454 Y104.448 E8.65125
G1 X97.741 Y103.591 E8.68131
G1 X98.103 Y102.764 E8.71134
G1 X98.536 Y101.972 E8.74136
G1 X99.038 Y101.221 E8.7714
G1 X99.605 Y100.517 E8.80147
G1 X100.231 Y99.867 E8.83148
M204 S2000
G1 F2400 E8.03148
;MESH:BallSocketJoint v1.stl
G0 F7500 X106.838 Y106.839
G0 X107.664 Y107.664
G0 X111.968 Y108.032
G0 X112.15 Y112.15
M204 S500
;TYPE:WALL-INNER
G1 F2400 E8.83148
G1 F1500 X107.85 Y112.15 E8.9745
G1 X107.85 Y107.85 E9.11752
G1 X112.15 Y107.85 E9.26054
G1 X112.15 Y112.15 E9.40356
M204 S2000
G0 F7500 X112.55 Y112.55
M204 S500
;TYPE:WALL-OUTER
G1 F1500 X107.45 Y112.55 E9.57318
G1 X107.45 Y107.45 E9.74281
G1 X112.55 Y107.45 E9.91244
G1 X112.55 Y112.55 E10.08206
M204 S2000
G0 F7500 X112.28 Y112.28
G0 X112.04 Y111.76
G0 X111.76 Y111.76
M204 S500
;TYPE:SKIN
G1 F1500 X108.24 Y111.76 E10.19914
G1 X108.24 Y108.24 E10.31621
G1 X111.76 Y108.24 E10.43329
G1 X111.76 Y111.76 E10.55037
M204 S2000
G0 F7500 X112.04 Y111.76
G0 X112.04 Y108.771
G0 X111.599 Y108.771
M204 S500
G1 F1500 X111.228 Y108.4 E10.56782
M204 S2000
G0 F7500 X110.662 Y108.4
M204 S500
G1 F1500 X111.599 Y109.337 E10.61189
M204 S2000
G0 F7500 X111.599 Y109.902
M204 S500
G1 F1500 X110.097 Y108.4 E10.68254
M204 S2000
G0 F7500 X109.531 Y108.4
M204 S500
G1 F1500 X111.599 Y110.468 E10.77981
M204 S2000
G0 F7500 X111.599 Y111.034
M204 S500
G1 F1500 X108.965 Y108.4 E10.90371
M204 S2000
G0 F7500 X108.399 Y108.399
M204 S500
G1 F1500 X111.599 Y111.599 E11.05423
M204 S2000
G0 F7500 X111.033 Y111.599
M204 S500
G1 F1500 X108.399 Y108.965 E11.17812
M204 S2000
G0 F7500 X108.399 Y109.53
M204 S500
G1 F1500 X110.467 Y111.599 E11.27542
M204 S2000
G0 F7500 X109.902 Y111.599
M204 S500
G1 F1500 X108.399 Y110.096 E11.34611
M204 S2000
G0 F7500 X108.399 Y110.662
M204 S500
G1 F1500 X109.336 Y111.599 E11.39019
M204 S2000
G0 F7500 X108.77 Y111.599
M204 S500
G1 F1500 X108.399 Y111.227 E11.40766
M204 S2000
G0 F7500 X108.05 Y111.227
G1 F2400 E10.60766
;MESH:NONMESH
G0 F300 X108.05 Y111.227 Z0.4
G0 F7500 X107.96 Y111.227
G0 X108.032 Y111.968
G0 X112.15 Y112.15
;TIME_ELAPSED:20.661892
;LAYER:1
M106 S85
M204 S500
;TYPE:WALL-INNER
;MESH:BallSocketJoint v1.stl
G1 F2400 E11.40766
G1 F600 X107.85 Y112.15 E11.55068
G1 X107.85 Y107.85 E11.6937
G1 X112.15 Y107.85 E11.83672
G1 X112.15 Y112.15 E11.97974
M204 S2000
G0 F8250 X112.55 Y112.55
M204 S500
;TYPE:WALL-OUTER
G1 F600 X107.45 Y112.55 E12.14936
G1 X107.45 Y107.45 E12.31899
G1 X112.55 Y107.45 E12.48862
G1 X112.55 Y112.55 E12.65824
M204 S2000
G0 F8250 X112.28 Y112.28
G0 X112.04 Y111.76
G0 X111.76 Y111.76
M204 S500
;TYPE:SKIN
G1 F600 X108.24 Y111.76 E12.77532
G1 X108.24 Y108.24 E12.89239
G1 X111.76 Y108.24 E13.00947
G1 X111.76 Y111.76 E13.12654
M204 S2000
G0 F8250 X111.28 Y111.599
M204 S500
G1 F600 X111.599 Y111.28 E13.14155
M204 S2000
G0 F8250 X111.599 Y110.715
M204 S500
G1 F600 X110.714 Y111.599 E13.18315
M204 S2000
G0 F8250 X110.148 Y111.599
M204 S500
G1 F600 X111.599 Y110.149 E13.25138
M204 S2000
G0 F8250 X111.599 Y109.583
M204 S500
G1 F600 X109.583 Y111.599 E13.34621
M204 S2000
G0 F8250 X109.017 Y111.599
M204 S500
G1 F600 X111.599 Y109.018 E13.46763
M204 S2000
G0 F8250 X111.599 Y108.452
M204 S500
G1 F600 X108.451 Y111.599 E13.61568
M204 S2000
G0 F8250 X108.4 Y111.085
M204 S500
G1 F600 X111.086 Y108.399 E13.74202
M204 S2000
G0 F8250 X110.52 Y108.399
M204 S500
G1 F600 X108.4 Y110.52 E13.84176
M204 S2000
G0 F8250 X108.4 Y109.954
M204 S500
G1 F600 X109.955 Y108.399 E13.91491
M204 S2000
G0 F8250 X109.389 Y108.399
M204 S500
G1 F600 X108.4 Y109.388 E13.96143
M204 S2000
G0 F8250 X108.4 Y108.823
M204 S500
G1 F600 X108.823 Y108.399 E13.98135
M204 S2000
G0 F8250 X108.823 Y108.05
G1 F2400 E13.18135
;MESH:NONMESH
G0 F300 X108.823 Y108.05 Z0.6
G0 F8250 X108.823 Y107.96
G0 X111.968 Y108.032
G0 X112.15 Y112.15
;TIME_ELAPSED:29.761646
;LAYER:2
M106 S170
M204 S500
;TYPE:WALL-INNER
;MESH:BallSocketJoint v1.stl
G1 F2400 E13.98135
G1 F600 X107.85 Y112.15 E14.12437
G1 X107.85 Y107.85 E14.26738
G1 X112.15 Y107.85 E14.4104
G1 X112.15 Y112.15 E14.55342
M204 S2000
G0 F9000 X112.55 Y112.55
M204 S500
;TYPE:WALL-OUTER
G1 F600 X107.45 Y112.55 E14.72305
G1 X107.45 Y107.45 E14.89267
G1 X112.55 Y107.45 E15.0623
G1 X112.55 Y112.55 E15.23193
M204 S2000
G0 F9000 X112.28 Y112.28
G0 X112.04 Y111.76
G0 X111.76 Y111.76
M204 S500
;TYPE:SKIN
G1 F600 X108.24 Y111.76 E15.349
G1 X108.24 Y108.24 E15.46608
G1 X111.76 Y108.24 E15.58316
G1 X111.76 Y111.76 E15.70023
M204 S2000
G0 F9000 X112.04 Y111.76
G0 X112.04 Y108.771
G0 X111.599 Y108.771
M204 S500
G1 F600 X111.228 Y108.4 E15.71768
M204 S2000
G0 F9000 X110.662 Y108.4
M204 S500
G1 F600 X111.599 Y109.337 E15.76176
M204 S2000
G0 F9000 X111.599 Y109.902
M204 S500
G1 F600 X110.097 Y108.4 E15.8324
M204 S2000
G0 F9000 X109.531 Y108.4
M204 S500
G1 F600 X111.599 Y110.468 E15.92968
M204 S2000
G0 F9000 X111.599 Y111.034
M204 S500
G1 F600 X108.965 Y108.4 E16.05357
M204 S2000
G0 F9000 X108.399 Y108.399
M204 S500
G1 F600 X111.599 Y111.599 E16.20409
M204 S2000
G0 F9000 X111.033 Y111.599
M204 S500
G1 F600 X108.399 Y108.965 E16.32799
M204 S2000
G0 F9000 X108.399 Y109.53
M204 S500
G1 F600 X110.467 Y111.599 E16.42528
M204 S2000
G0 F9000 X109.902 Y111.599
M204 S500
G1 F600 X108.399 Y110.096 E16.49598
M204 S2000
G0 F9000 X108.399 Y110.662
M204 S500
G1 F600 X109.336 Y111.599 E16.54005
M204 S2000
G0 F9000 X108.77 Y111.599
M204 S500
G1 F600 X108.399 Y111.227 E16.55753
M204 S2000
G0 F9000 X108.05 Y111.227
G1 F2400 E15.75753
;MESH:NONMESH
G0 F300 X108.05 Y111.227 Z0.8
G0 F9000 X107.96 Y111.227
G0 X108.032 Y111.968
G0 X112.15 Y112.15
;TIME_ELAPSED:38.947433
;LAYER:3
M106 S255
M204 S500
;TYPE:WALL-INNER
;MESH:BallSocketJoint v1.stl
G1 F2400 E16.55753
G1 F600 X107.85 Y112.15 E16.70054
G1 X107.85 Y107.85 E16.84356
G1 X112.15 Y107.85 E16.98658
G1 X112.15 Y112.15 E17.1296
M204 S2000
G0 F9000 X112.55 Y112.55
M204 S500
;TYPE:WALL-OUTER
G1 F600 X107.45 Y112.55 E17.29923
G1 X107.45 Y107.45 E17.46885
G1 X112.55 Y107.45 E17.63848
G1 X112.55 Y112.55 E17.80811
M204 S2000
G0 F9000 X112.28 Y112.28
G0 X112.04 Y111.76
G0 X111.76 Y111.76
M204 S500
;TYPE:SKIN
G1 F600 X108.24 Y111.76 E17.92518
G1 X108.24 Y108.24 E18.04226
G1 X111.76 Y108.24 E18.15933
G1 X111.76 Y111.76 E18.27641
M204 S2000
G0 F9000 X111.28 Y111.599
M204 S500
G1 F600 X111.599 Y111.28 E18.29141
M204 S2000
G0 F9000 X111.599 Y110.715
M204 S500
G1 F600 X110.714 Y111.599 E18.33302
M204 S2000
G0 F9000 X110.148 Y111.599
M204 S500
G1 F600 X111.599 Y110.149 E18.40125
M204 S2000
G0 F9000 X111.599 Y109.583
M204 S500
G1 F600 X109.583 Y111.599 E18.49607
M204 S2000
G0 F9000 X109.017 Y111.599
M204 S500
G1 F600 X111.599 Y109.018 E18.6175
M204 S2000
G0 F9000 X111.599 Y108.452
M204 S500
G1 F600 X108.451 Y111.599 E18.76555
M204 S2000
G0 F9000 X108.4 Y111.085
M204 S500
G1 F600 X111.086 Y108.399 E18.89189
M204 S2000
G0 F9000 X110.52 Y108.399
M204 S500
G1 F600 X108.4 Y110.52 E18.99163
M204 S2000
G0 F9000 X108.4 Y109.954
M204 S500
G1 F600 X109.955 Y108.399 E19.06477
M204 S2000
G0 F9000 X109.389 Y108.399
M204 S500
G1 F600 X108.4 Y109.388 E19.11129
M204 S2000
G0 F9000 X108.4 Y108.823
M204 S500
G1 F600 X108.823 Y108.399 E19.13121
M204 S2000
G0 F9000 X108.823 Y108.05
G1 F2400 E18.33121
;MESH:NONMESH
G0 F300 X108.823 Y108.05 Z1
G0 F9000 X108.823 Y107.96
G0 X111.968 Y108.032
G0 X112.15 Y112.15
;TIME_ELAPSED:48.050397
;LAYER:4
M204 S500
;TYPE:WALL-INNER
;MESH:BallSocketJoint v1.stl
G1 F2400 E19.13121
G1 F600 X107.85 Y112.15 E19.27423
G1 X107.85 Y107.85 E19.41725
G1 X112.15 Y107.85 E19.56027
G1 X112.15 Y112.15 E19.70329
M204 S2000
G0 F9000 X112.55 Y112.55
M204 S500
;TYPE:WALL-OUTER
G1 F600 X107.45 Y112.55 E19.87291
G1 X107.45 Y107.45 E20.04254
G1 X112.55 Y107.45 E20.21217
G1 X112.55 Y112.55 E20.38179
M204 S2000
G0 F9000 X112.28 Y112.28
G0 X112.069 Y111.069
M204 S500
;TYPE:FILL
G1 F1200 X108.929 Y107.929 E20.52949
M204 S2000
G0 F9000 X109.822 Y107.928
M204 S500
